%
(?????????????)
(T1 D=2 CR=0 - ZMIN=-1.55 - flat end mill)
N10 G90 G94
N20 G17
N30 G21

(2D ??1)
N40 T1 M6
N50 S5600 M3
N60 G54
N70 G0 X94.399 Y44.022
N80 G43 Z1
N90 Z0.5
N100 G1 Z0.175 F60
N110 X94.405 Y44.018 Z0.123
N120 X94.422 Y44.008 Z0.075
N130 X94.449 Y43.991 Z0.034
N140 X94.485 Y43.97 Z0.002
N150 X94.526 Y43.944 Z-0.018
N160 X94.57 Y43.917 Z-0.025
N170 X94.741 Y43.813
N180 G3 X95.015 Y43.879 I0.104 J0.171
N190 G2 X95.492 Y44.64 I34.985 J-21.379 F300
N200 X96.333 Y45.1 I0.842 J-0.54
N210 G1 X163.667
N220 G2 X164.509 Y44.64 I0 J-1
N230 Y0.36 I-34.509 J-22.14
N240 X163.667 Y-0.1 I-0.842 J0.54
N250 G1 X96.333
N260 G2 X95.492 Y0.36 I0 J1
N270 X95.015 Y43.879 I34.508 J22.14
N280 G3 X94.949 Y44.154 I-0.171 J0.104 F1200
N290 G1 X94.778 Y44.259
N300 X94.734 Y44.286 Z-0.018
N310 X94.693 Y44.311 Z0.002
N320 X94.658 Y44.332 Z0.034
N330 X94.631 Y44.349 Z0.075
N340 X94.614 Y44.359 Z0.123
N350 X94.608 Y44.363 Z0.175
N360 G0 Z1
N370 X94.399 Y44.022
N380 Z0.5
N390 G1 Z0.475 F60
N400 Z0.15
N410 X94.405 Y44.018 Z0.098
N420 X94.422 Y44.008 Z0.05
N430 X94.449 Y43.991 Z0.009
N440 X94.485 Y43.97 Z-0.023
N450 X94.526 Y43.944 Z-0.043
N460 X94.57 Y43.917 Z-0.05
N470 X94.741 Y43.813
N480 G3 X95.015 Y43.879 I0.104 J0.171
N490 G2 X95.492 Y44.64 I34.985 J-21.379 F300
N500 X96.333 Y45.1 I0.842 J-0.54
N510 G1 X163.667
N520 G2 X164.509 Y44.64 I0 J-1
N530 Y0.36 I-34.509 J-22.14
N540 X163.667 Y-0.1 I-0.842 J0.54
N550 G1 X96.333
N560 G2 X95.492 Y0.36 I0 J1
N570 X95.015 Y43.879 I34.508 J22.14
N580 G3 X94.949 Y44.154 I-0.171 J0.104 F1200
N590 G1 X94.778 Y44.259
N600 X94.734 Y44.286 Z-0.043
N610 X94.693 Y44.311 Z-0.023
N620 X94.658 Y44.332 Z0.009
N630 X94.631 Y44.349 Z0.05
N640 X94.614 Y44.359 Z0.098
N650 X94.608 Y44.363 Z0.15
N660 G0 Z1
N670 X94.399 Y44.022
N680 Z0.5
N690 G1 Z0.45 F60
N700 Z0.125
N710 X94.405 Y44.018 Z0.073
N720 X94.422 Y44.008 Z0.025
N730 X94.449 Y43.991 Z-0.016
N740 X94.485 Y43.97 Z-0.048
N750 X94.526 Y43.944 Z-0.068
N760 X94.57 Y43.917 Z-0.075
N770 X94.741 Y43.813
N780 G3 X95.015 Y43.879 I0.104 J0.171
N790 G2 X95.492 Y44.64 I34.985 J-21.379 F300
N800 X96.333 Y45.1 I0.842 J-0.54
N810 G1 X163.667
N820 G2 X164.509 Y44.64 I0 J-1
N830 Y0.36 I-34.509 J-22.14
N840 X163.667 Y-0.1 I-0.842 J0.54
N850 G1 X96.333
N860 G2 X95.492 Y0.36 I0 J1
N870 X95.015 Y43.879 I34.508 J22.14
N880 G3 X94.949 Y44.154 I-0.171 J0.104 F1200
N890 G1 X94.778 Y44.259
N900 X94.734 Y44.286 Z-0.068
N910 X94.693 Y44.311 Z-0.048
N920 X94.658 Y44.332 Z-0.016
N930 X94.631 Y44.349 Z0.025
N940 X94.614 Y44.359 Z0.073
N950 X94.608 Y44.363 Z0.125
N960 G0 Z1
N970 X94.399 Y44.022
N980 Z0.5
N990 G1 Z0.425 F60
N1000 Z0.1
N1010 X94.405 Y44.018 Z0.048
N1020 X94.422 Y44.008 Z0
N1030 X94.449 Y43.991 Z-0.041
N1040 X94.485 Y43.97 Z-0.073
N1050 X94.526 Y43.944 Z-0.093
N1060 X94.57 Y43.917 Z-0.1
N1070 X94.741 Y43.813
N1080 G3 X95.015 Y43.879 I0.104 J0.171
N1090 G2 X95.492 Y44.64 I34.985 J-21.379 F300
N1100 X96.333 Y45.1 I0.842 J-0.54
N1110 G1 X163.667
N1120 G2 X164.509 Y44.64 I0 J-1
N1130 Y0.36 I-34.509 J-22.14
N1140 X163.667 Y-0.1 I-0.842 J0.54
N1150 G1 X96.333
N1160 G2 X95.492 Y0.36 I0 J1
N1170 X95.015 Y43.879 I34.508 J22.14
N1180 G3 X94.949 Y44.154 I-0.171 J0.104 F1200
N1190 G1 X94.778 Y44.259
N1200 X94.734 Y44.286 Z-0.093
N1210 X94.693 Y44.311 Z-0.073
N1220 X94.658 Y44.332 Z-0.041
N1230 X94.631 Y44.349 Z0
N1240 X94.614 Y44.359 Z0.048
N1250 X94.608 Y44.363 Z0.1
N1260 G0 Z1
N1270 X94.399 Y44.022
N1280 Z0.5
N1290 G1 Z0.4 F60
N1300 Z0.075
N1310 X94.405 Y44.018 Z0.023
N1320 X94.422 Y44.008 Z-0.025
N1330 X94.449 Y43.991 Z-0.066
N1340 X94.485 Y43.97 Z-0.098
N1350 X94.526 Y43.944 Z-0.118
N1360 X94.57 Y43.917 Z-0.125
N1370 X94.741 Y43.813
N1380 G3 X95.015 Y43.879 I0.104 J0.171
N1390 G2 X95.492 Y44.64 I34.985 J-21.379 F300
N1400 X96.333 Y45.1 I0.842 J-0.54
N1410 G1 X163.667
N1420 G2 X164.509 Y44.64 I0 J-1
N1430 Y0.36 I-34.509 J-22.14
N1440 X163.667 Y-0.1 I-0.842 J0.54
N1450 G1 X96.333
N1460 G2 X95.492 Y0.36 I0 J1
N1470 X95.015 Y43.879 I34.508 J22.14
N1480 G3 X94.949 Y44.154 I-0.171 J0.104 F1200
N1490 G1 X94.778 Y44.259
N1500 X94.734 Y44.286 Z-0.118
N1510 X94.693 Y44.311 Z-0.098
N1520 X94.658 Y44.332 Z-0.066
N1530 X94.631 Y44.349 Z-0.025
N1540 X94.614 Y44.359 Z0.023
N1550 X94.608 Y44.363 Z0.075
N1560 G0 Z1
N1570 X94.399 Y44.022
N1580 Z0.5
N1590 G1 Z0.375 F60
N1600 Z0.05
N1610 X94.405 Y44.018 Z-0.002
N1620 X94.422 Y44.008 Z-0.05
N1630 X94.449 Y43.991 Z-0.091
N1640 X94.485 Y43.97 Z-0.123
N1650 X94.526 Y43.944 Z-0.143
N1660 X94.57 Y43.917 Z-0.15
N1670 X94.741 Y43.813
N1680 G3 X95.015 Y43.879 I0.104 J0.171
N1690 G2 X95.492 Y44.64 I34.985 J-21.379 F300
N1700 X96.333 Y45.1 I0.842 J-0.54
N1710 G1 X163.667
N1720 G2 X164.509 Y44.64 I0 J-1
N1730 Y0.36 I-34.509 J-22.14
N1740 X163.667 Y-0.1 I-0.842 J0.54
N1750 G1 X96.333
N1760 G2 X95.492 Y0.36 I0 J1
N1770 X95.015 Y43.879 I34.508 J22.14
N1780 G3 X94.949 Y44.154 I-0.171 J0.104 F1200
N1790 G1 X94.778 Y44.259
N1800 X94.734 Y44.286 Z-0.143
N1810 X94.693 Y44.311 Z-0.123
N1820 X94.658 Y44.332 Z-0.091
N1830 X94.631 Y44.349 Z-0.05
N1840 X94.614 Y44.359 Z-0.002
N1850 X94.608 Y44.363 Z0.05
N1860 G0 Z1
N1870 X94.399 Y44.022
N1880 Z0.5
N1890 G1 Z0.35 F60
N1900 Z0.025
N1910 X94.405 Y44.018 Z-0.027
N1920 X94.422 Y44.008 Z-0.075
N1930 X94.449 Y43.991 Z-0.116
N1940 X94.485 Y43.97 Z-0.148
N1950 X94.526 Y43.944 Z-0.168
N1960 X94.57 Y43.917 Z-0.175
N1970 X94.741 Y43.813
N1980 G3 X95.015 Y43.879 I0.104 J0.171
N1990 G2 X95.492 Y44.64 I34.985 J-21.379 F300
N2000 X96.333 Y45.1 I0.842 J-0.54
N2010 G1 X163.667
N2020 G2 X164.509 Y44.64 I0 J-1
N2030 Y0.36 I-34.509 J-22.14
N2040 X163.667 Y-0.1 I-0.842 J0.54
N2050 G1 X96.333
N2060 G2 X95.492 Y0.36 I0 J1
N2070 X95.015 Y43.879 I34.508 J22.14
N2080 G3 X94.949 Y44.154 I-0.171 J0.104 F1200
N2090 G1 X94.778 Y44.259
N2100 X94.734 Y44.286 Z-0.168
N2110 X94.693 Y44.311 Z-0.148
N2120 X94.658 Y44.332 Z-0.116
N2130 X94.631 Y44.349 Z-0.075
N2140 X94.614 Y44.359 Z-0.027
N2150 X94.608 Y44.363 Z0.025
N2160 G0 Z1
N2170 X94.399 Y44.022
N2180 Z0.5
N2190 G1 Z0.325 F60
N2200 Z0
N2210 X94.405 Y44.018 Z-0.052
N2220 X94.422 Y44.008 Z-0.1
N2230 X94.449 Y43.991 Z-0.141
N2240 X94.485 Y43.97 Z-0.173
N2250 X94.526 Y43.944 Z-0.193
N2260 X94.57 Y43.917 Z-0.2
N2270 X94.741 Y43.813
N2280 G3 X95.015 Y43.879 I0.104 J0.171
N2290 G2 X95.492 Y44.64 I34.985 J-21.379 F300
N2300 X96.333 Y45.1 I0.842 J-0.54
N2310 G1 X163.667
N2320 G2 X164.509 Y44.64 I0 J-1
N2330 Y0.36 I-34.509 J-22.14
N2340 X163.667 Y-0.1 I-0.842 J0.54
N2350 G1 X96.333
N2360 G2 X95.492 Y0.36 I0 J1
N2370 X95.015 Y43.879 I34.508 J22.14
N2380 G3 X94.949 Y44.154 I-0.171 J0.104 F1200
N2390 G1 X94.778 Y44.259
N2400 X94.734 Y44.286 Z-0.193
N2410 X94.693 Y44.311 Z-0.173
N2420 X94.658 Y44.332 Z-0.141
N2430 X94.631 Y44.349 Z-0.1
N2440 X94.614 Y44.359 Z-0.052
N2450 X94.608 Y44.363 Z0
N2460 G0 Z1
N2470 X94.399 Y44.022
N2480 Z0.5
N2490 G1 Z0.3 F60
N2500 Z-0.025
N2510 X94.405 Y44.018 Z-0.077
N2520 X94.422 Y44.008 Z-0.125
N2530 X94.449 Y43.991 Z-0.166
N2540 X94.485 Y43.97 Z-0.198
N2550 X94.526 Y43.944 Z-0.218
N2560 X94.57 Y43.917 Z-0.225
N2570 X94.741 Y43.813
N2580 G3 X95.015 Y43.879 I0.104 J0.171
N2590 G2 X95.492 Y44.64 I34.985 J-21.379 F300
N2600 X96.333 Y45.1 I0.842 J-0.54
N2610 G1 X163.667
N2620 G2 X164.509 Y44.64 I0 J-1
N2630 Y0.36 I-34.509 J-22.14
N2640 X163.667 Y-0.1 I-0.842 J0.54
N2650 G1 X96.333
N2660 G2 X95.492 Y0.36 I0 J1
N2670 X95.015 Y43.879 I34.508 J22.14
N2680 G3 X94.949 Y44.154 I-0.171 J0.104 F1200
N2690 G1 X94.778 Y44.259
N2700 X94.734 Y44.286 Z-0.218
N2710 X94.693 Y44.311 Z-0.198
N2720 X94.658 Y44.332 Z-0.166
N2730 X94.631 Y44.349 Z-0.125
N2740 X94.614 Y44.359 Z-0.077
N2750 X94.608 Y44.363 Z-0.025
N2760 G0 Z1
N2770 X94.399 Y44.022
N2780 Z0.5
N2790 G1 Z0.275 F60
N2800 Z-0.05
N2810 X94.405 Y44.018 Z-0.102
N2820 X94.422 Y44.008 Z-0.15
N2830 X94.449 Y43.991 Z-0.191
N2840 X94.485 Y43.97 Z-0.223
N2850 X94.526 Y43.944 Z-0.243
N2860 X94.57 Y43.917 Z-0.25
N2870 X94.741 Y43.813
N2880 G3 X95.015 Y43.879 I0.104 J0.171
N2890 G2 X95.492 Y44.64 I34.985 J-21.379 F300
N2900 X96.333 Y45.1 I0.842 J-0.54
N2910 G1 X163.667
N2920 G2 X164.509 Y44.64 I0 J-1
N2930 Y0.36 I-34.509 J-22.14
N2940 X163.667 Y-0.1 I-0.842 J0.54
N2950 G1 X96.333
N2960 G2 X95.492 Y0.36 I0 J1
N2970 X95.015 Y43.879 I34.508 J22.14
N2980 G3 X94.949 Y44.154 I-0.171 J0.104 F1200
N2990 G1 X94.778 Y44.259
N3000 X94.734 Y44.286 Z-0.243
N3010 X94.693 Y44.311 Z-0.223
N3020 X94.658 Y44.332 Z-0.191
N3030 X94.631 Y44.349 Z-0.15
N3040 X94.614 Y44.359 Z-0.102
N3050 X94.608 Y44.363 Z-0.05
N3060 G0 Z1
N3070 X94.399 Y44.022
N3080 Z0.5
N3090 G1 Z0.25 F60
N3100 Z-0.075
N3110 X94.405 Y44.018 Z-0.127
N3120 X94.422 Y44.008 Z-0.175
N3130 X94.449 Y43.991 Z-0.216
N3140 X94.485 Y43.97 Z-0.248
N3150 X94.526 Y43.944 Z-0.268
N3160 X94.57 Y43.917 Z-0.275
N3170 X94.741 Y43.813
N3180 G3 X95.015 Y43.879 I0.104 J0.171
N3190 G2 X95.492 Y44.64 I34.985 J-21.379 F300
N3200 X96.333 Y45.1 I0.842 J-0.54
N3210 G1 X163.667
N3220 G2 X164.509 Y44.64 I0 J-1
N3230 Y0.36 I-34.509 J-22.14
N3240 X163.667 Y-0.1 I-0.842 J0.54
N3250 G1 X96.333
N3260 G2 X95.492 Y0.36 I0 J1
N3270 X95.015 Y43.879 I34.508 J22.14
N3280 G3 X94.949 Y44.154 I-0.171 J0.104 F1200
N3290 G1 X94.778 Y44.259
N3300 X94.734 Y44.286 Z-0.268
N3310 X94.693 Y44.311 Z-0.248
N3320 X94.658 Y44.332 Z-0.216
N3330 X94.631 Y44.349 Z-0.175
N3340 X94.614 Y44.359 Z-0.127
N3350 X94.608 Y44.363 Z-0.075
N3360 G0 Z1
N3370 X94.399 Y44.022
N3380 Z0.5
N3390 G1 Z0.225 F60
N3400 Z-0.1
N3410 X94.405 Y44.018 Z-0.152
N3420 X94.422 Y44.008 Z-0.2
N3430 X94.449 Y43.991 Z-0.241
N3440 X94.485 Y43.97 Z-0.273
N3450 X94.526 Y43.944 Z-0.293
N3460 X94.57 Y43.917 Z-0.3
N3470 X94.741 Y43.813
N3480 G3 X95.015 Y43.879 I0.104 J0.171
N3490 G2 X95.492 Y44.64 I34.985 J-21.379 F300
N3500 X96.333 Y45.1 I0.842 J-0.54
N3510 G1 X163.667
N3520 G2 X164.509 Y44.64 I0 J-1
N3530 Y0.36 I-34.509 J-22.14
N3540 X163.667 Y-0.1 I-0.842 J0.54
N3550 G1 X96.333
N3560 G2 X95.492 Y0.36 I0 J1
N3570 X95.015 Y43.879 I34.508 J22.14
N3580 G3 X94.949 Y44.154 I-0.171 J0.104 F1200
N3590 G1 X94.778 Y44.259
N3600 X94.734 Y44.286 Z-0.293
N3610 X94.693 Y44.311 Z-0.273
N3620 X94.658 Y44.332 Z-0.241
N3630 X94.631 Y44.349 Z-0.2
N3640 X94.614 Y44.359 Z-0.152
N3650 X94.608 Y44.363 Z-0.1
N3660 G0 Z1
N3670 X94.399 Y44.022
N3680 Z0.5
N3690 G1 Z0.2 F60
N3700 Z-0.125
N3710 X94.405 Y44.018 Z-0.177
N3720 X94.422 Y44.008 Z-0.225
N3730 X94.449 Y43.991 Z-0.266
N3740 X94.485 Y43.97 Z-0.298
N3750 X94.526 Y43.944 Z-0.318
N3760 X94.57 Y43.917 Z-0.325
N3770 X94.741 Y43.813
N3780 G3 X95.015 Y43.879 I0.104 J0.171
N3790 G2 X95.492 Y44.64 I34.985 J-21.379 F300
N3800 X96.333 Y45.1 I0.842 J-0.54
N3810 G1 X163.667
N3820 G2 X164.509 Y44.64 I0 J-1
N3830 Y0.36 I-34.509 J-22.14
N3840 X163.667 Y-0.1 I-0.842 J0.54
N3850 G1 X96.333
N3860 G2 X95.492 Y0.36 I0 J1
N3870 X95.015 Y43.879 I34.508 J22.14
N3880 G3 X94.949 Y44.154 I-0.171 J0.104 F1200
N3890 G1 X94.778 Y44.259
N3900 X94.734 Y44.286 Z-0.318
N3910 X94.693 Y44.311 Z-0.298
N3920 X94.658 Y44.332 Z-0.266
N3930 X94.631 Y44.349 Z-0.225
N3940 X94.614 Y44.359 Z-0.177
N3950 X94.608 Y44.363 Z-0.125
N3960 G0 Z1
N3970 X94.399 Y44.022
N3980 Z0.5
N3990 G1 Z0.175 F60
N4000 Z-0.15
N4010 X94.405 Y44.018 Z-0.202
N4020 X94.422 Y44.008 Z-0.25
N4030 X94.449 Y43.991 Z-0.291
N4040 X94.485 Y43.97 Z-0.323
N4050 X94.526 Y43.944 Z-0.343
N4060 X94.57 Y43.917 Z-0.35
N4070 X94.741 Y43.813
N4080 G3 X95.015 Y43.879 I0.104 J0.171
N4090 G2 X95.492 Y44.64 I34.985 J-21.379 F300
N4100 X96.333 Y45.1 I0.842 J-0.54
N4110 G1 X163.667
N4120 G2 X164.509 Y44.64 I0 J-1
N4130 Y0.36 I-34.509 J-22.14
N4140 X163.667 Y-0.1 I-0.842 J0.54
N4150 G1 X96.333
N4160 G2 X95.492 Y0.36 I0 J1
N4170 X95.015 Y43.879 I34.508 J22.14
N4180 G3 X94.949 Y44.154 I-0.171 J0.104 F1200
N4190 G1 X94.778 Y44.259
N4200 X94.734 Y44.286 Z-0.343
N4210 X94.693 Y44.311 Z-0.323
N4220 X94.658 Y44.332 Z-0.291
N4230 X94.631 Y44.349 Z-0.25
N4240 X94.614 Y44.359 Z-0.202
N4250 X94.608 Y44.363 Z-0.15
N4260 G0 Z1
N4270 X94.399 Y44.022
N4280 Z0.5
N4290 G1 Z0.15 F60
N4300 Z-0.175
N4310 X94.405 Y44.018 Z-0.227
N4320 X94.422 Y44.008 Z-0.275
N4330 X94.449 Y43.991 Z-0.316
N4340 X94.485 Y43.97 Z-0.348
N4350 X94.526 Y43.944 Z-0.368
N4360 X94.57 Y43.917 Z-0.375
N4370 X94.741 Y43.813
N4380 G3 X95.015 Y43.879 I0.104 J0.171
N4390 G2 X95.492 Y44.64 I34.985 J-21.379 F300
N4400 X96.333 Y45.1 I0.842 J-0.54
N4410 G1 X163.667
N4420 G2 X164.509 Y44.64 I0 J-1
N4430 Y0.36 I-34.509 J-22.14
N4440 X163.667 Y-0.1 I-0.842 J0.54
N4450 G1 X96.333
N4460 G2 X95.492 Y0.36 I0 J1
N4470 X95.015 Y43.879 I34.508 J22.14
N4480 G3 X94.949 Y44.154 I-0.171 J0.104 F1200
N4490 G1 X94.778 Y44.259
N4500 X94.734 Y44.286 Z-0.368
N4510 X94.693 Y44.311 Z-0.348
N4520 X94.658 Y44.332 Z-0.316
N4530 X94.631 Y44.349 Z-0.275
N4540 X94.614 Y44.359 Z-0.227
N4550 X94.608 Y44.363 Z-0.175
N4560 G0 Z1
N4570 X94.399 Y44.022
N4580 Z0.5
N4590 G1 Z0.125 F60
N4600 Z-0.2
N4610 X94.405 Y44.018 Z-0.252
N4620 X94.422 Y44.008 Z-0.3
N4630 X94.449 Y43.991 Z-0.341
N4640 X94.485 Y43.97 Z-0.373
N4650 X94.526 Y43.944 Z-0.393
N4660 X94.57 Y43.917 Z-0.4
N4670 X94.741 Y43.813
N4680 G3 X95.015 Y43.879 I0.104 J0.171
N4690 G2 X95.492 Y44.64 I34.985 J-21.379 F300
N4700 X96.333 Y45.1 I0.842 J-0.54
N4710 G1 X163.667
N4720 G2 X164.509 Y44.64 I0 J-1
N4730 Y0.36 I-34.509 J-22.14
N4740 X163.667 Y-0.1 I-0.842 J0.54
N4750 G1 X96.333
N4760 G2 X95.492 Y0.36 I0 J1
N4770 X95.015 Y43.879 I34.508 J22.14
N4780 G3 X94.949 Y44.154 I-0.171 J0.104 F1200
N4790 G1 X94.778 Y44.259
N4800 X94.734 Y44.286 Z-0.393
N4810 X94.693 Y44.311 Z-0.373
N4820 X94.658 Y44.332 Z-0.341
N4830 X94.631 Y44.349 Z-0.3
N4840 X94.614 Y44.359 Z-0.252
N4850 X94.608 Y44.363 Z-0.2
N4860 G0 Z1
N4870 X94.399 Y44.022
N4880 Z0.5
N4890 G1 Z0.1 F60
N4900 Z-0.225
N4910 X94.405 Y44.018 Z-0.277
N4920 X94.422 Y44.008 Z-0.325
N4930 X94.449 Y43.991 Z-0.366
N4940 X94.485 Y43.97 Z-0.398
N4950 X94.526 Y43.944 Z-0.418
N4960 X94.57 Y43.917 Z-0.425
N4970 X94.741 Y43.813
N4980 G3 X95.015 Y43.879 I0.104 J0.171
N4990 G2 X95.492 Y44.64 I34.985 J-21.379 F300
N5000 X96.333 Y45.1 I0.842 J-0.54
N5010 G1 X163.667
N5020 G2 X164.509 Y44.64 I0 J-1
N5030 Y0.36 I-34.509 J-22.14
N5040 X163.667 Y-0.1 I-0.842 J0.54
N5050 G1 X96.333
N5060 G2 X95.492 Y0.36 I0 J1
N5070 X95.015 Y43.879 I34.508 J22.14
N5080 G3 X94.949 Y44.154 I-0.171 J0.104 F1200
N5090 G1 X94.778 Y44.259
N5100 X94.734 Y44.286 Z-0.418
N5110 X94.693 Y44.311 Z-0.398
N5120 X94.658 Y44.332 Z-0.366
N5130 X94.631 Y44.349 Z-0.325
N5140 X94.614 Y44.359 Z-0.277
N5150 X94.608 Y44.363 Z-0.225
N5160 G0 Z1
N5170 X94.399 Y44.022
N5180 Z0.5
N5190 G1 Z0.075 F60
N5200 Z-0.25
N5210 X94.405 Y44.018 Z-0.302
N5220 X94.422 Y44.008 Z-0.35
N5230 X94.449 Y43.991 Z-0.391
N5240 X94.485 Y43.97 Z-0.423
N5250 X94.526 Y43.944 Z-0.443
N5260 X94.57 Y43.917 Z-0.45
N5270 X94.741 Y43.813
N5280 G3 X95.015 Y43.879 I0.104 J0.171
N5290 G2 X95.492 Y44.64 I34.985 J-21.379 F300
N5300 X96.333 Y45.1 I0.842 J-0.54
N5310 G1 X163.667
N5320 G2 X164.509 Y44.64 I0 J-1
N5330 Y0.36 I-34.509 J-22.14
N5340 X163.667 Y-0.1 I-0.842 J0.54
N5350 G1 X96.333
N5360 G2 X95.492 Y0.36 I0 J1
N5370 X95.015 Y43.879 I34.508 J22.14
N5380 G3 X94.949 Y44.154 I-0.171 J0.104 F1200
N5390 G1 X94.778 Y44.259
N5400 X94.734 Y44.286 Z-0.443
N5410 X94.693 Y44.311 Z-0.423
N5420 X94.658 Y44.332 Z-0.391
N5430 X94.631 Y44.349 Z-0.35
N5440 X94.614 Y44.359 Z-0.302
N5450 X94.608 Y44.363 Z-0.25
N5460 G0 Z1
N5470 X94.399 Y44.022
N5480 Z0.5
N5490 G1 Z0.05 F60
N5500 Z-0.275
N5510 X94.405 Y44.018 Z-0.327
N5520 X94.422 Y44.008 Z-0.375
N5530 X94.449 Y43.991 Z-0.416
N5540 X94.485 Y43.97 Z-0.448
N5550 X94.526 Y43.944 Z-0.468
N5560 X94.57 Y43.917 Z-0.475
N5570 X94.741 Y43.813
N5580 G3 X95.015 Y43.879 I0.104 J0.171
N5590 G2 X95.492 Y44.64 I34.985 J-21.379 F300
N5600 X96.333 Y45.1 I0.842 J-0.54
N5610 G1 X163.667
N5620 G2 X164.509 Y44.64 I0 J-1
N5630 Y0.36 I-34.509 J-22.14
N5640 X163.667 Y-0.1 I-0.842 J0.54
N5650 G1 X96.333
N5660 G2 X95.492 Y0.36 I0 J1
N5670 X95.015 Y43.879 I34.508 J22.14
N5680 G3 X94.949 Y44.154 I-0.171 J0.104 F1200
N5690 G1 X94.778 Y44.259
N5700 X94.734 Y44.286 Z-0.468
N5710 X94.693 Y44.311 Z-0.448
N5720 X94.658 Y44.332 Z-0.416
N5730 X94.631 Y44.349 Z-0.375
N5740 X94.614 Y44.359 Z-0.327
N5750 X94.608 Y44.363 Z-0.275
N5760 G0 Z1
N5770 X94.399 Y44.022
N5780 Z0.5
N5790 G1 Z0.025 F60
N5800 Z-0.3
N5810 X94.405 Y44.018 Z-0.352
N5820 X94.422 Y44.008 Z-0.4
N5830 X94.449 Y43.991 Z-0.441
N5840 X94.485 Y43.97 Z-0.473
N5850 X94.526 Y43.944 Z-0.493
N5860 X94.57 Y43.917 Z-0.5
N5870 X94.741 Y43.813
N5880 G3 X95.015 Y43.879 I0.104 J0.171
N5890 G2 X95.492 Y44.64 I34.985 J-21.379 F300
N5900 X96.333 Y45.1 I0.842 J-0.54
N5910 G1 X163.667
N5920 G2 X164.509 Y44.64 I0 J-1
N5930 Y0.36 I-34.509 J-22.14
N5940 X163.667 Y-0.1 I-0.842 J0.54
N5950 G1 X96.333
N5960 G2 X95.492 Y0.36 I0 J1
N5970 X95.015 Y43.879 I34.508 J22.14
N5980 G3 X94.949 Y44.154 I-0.171 J0.104 F1200
N5990 G1 X94.778 Y44.259
N6000 X94.734 Y44.286 Z-0.493
N6010 X94.693 Y44.311 Z-0.473
N6020 X94.658 Y44.332 Z-0.441
N6030 X94.631 Y44.349 Z-0.4
N6040 X94.614 Y44.359 Z-0.352
N6050 X94.608 Y44.363 Z-0.3
N6060 G0 Z1
N6070 X94.399 Y44.022
N6080 Z0.5
N6090 G1 Z0 F60
N6100 Z-0.325
N6110 X94.405 Y44.018 Z-0.377
N6120 X94.422 Y44.008 Z-0.425
N6130 X94.449 Y43.991 Z-0.466
N6140 X94.485 Y43.97 Z-0.498
N6150 X94.526 Y43.944 Z-0.518
N6160 X94.57 Y43.917 Z-0.525
N6170 X94.741 Y43.813
N6180 G3 X95.015 Y43.879 I0.104 J0.171
N6190 G2 X95.492 Y44.64 I34.985 J-21.379 F300
N6200 X96.333 Y45.1 I0.842 J-0.54
N6210 G1 X163.667
N6220 G2 X164.509 Y44.64 I0 J-1
N6230 Y0.36 I-34.509 J-22.14
N6240 X163.667 Y-0.1 I-0.842 J0.54
N6250 G1 X96.333
N6260 G2 X95.492 Y0.36 I0 J1
N6270 X95.015 Y43.879 I34.508 J22.14
N6280 G3 X94.949 Y44.154 I-0.171 J0.104 F1200
N6290 G1 X94.778 Y44.259
N6300 X94.734 Y44.286 Z-0.518
N6310 X94.693 Y44.311 Z-0.498
N6320 X94.658 Y44.332 Z-0.466
N6330 X94.631 Y44.349 Z-0.425
N6340 X94.614 Y44.359 Z-0.377
N6350 X94.608 Y44.363 Z-0.325
N6360 G0 Z1
N6370 X94.399 Y44.022
N6380 Z0.5
N6390 G1 Z-0.025 F60
N6400 Z-0.35
N6410 X94.405 Y44.018 Z-0.402
N6420 X94.422 Y44.008 Z-0.45
N6430 X94.449 Y43.991 Z-0.491
N6440 X94.485 Y43.97 Z-0.523
N6450 X94.526 Y43.944 Z-0.543
N6460 X94.57 Y43.917 Z-0.55
N6470 X94.741 Y43.813
N6480 G3 X95.015 Y43.879 I0.104 J0.171
N6490 G2 X95.492 Y44.64 I34.985 J-21.379 F300
N6500 X96.333 Y45.1 I0.842 J-0.54
N6510 G1 X163.667
N6520 G2 X164.509 Y44.64 I0 J-1
N6530 Y0.36 I-34.509 J-22.14
N6540 X163.667 Y-0.1 I-0.842 J0.54
N6550 G1 X96.333
N6560 G2 X95.492 Y0.36 I0 J1
N6570 X95.015 Y43.879 I34.508 J22.14
N6580 G3 X94.949 Y44.154 I-0.171 J0.104 F1200
N6590 G1 X94.778 Y44.259
N6600 X94.734 Y44.286 Z-0.543
N6610 X94.693 Y44.311 Z-0.523
N6620 X94.658 Y44.332 Z-0.491
N6630 X94.631 Y44.349 Z-0.45
N6640 X94.614 Y44.359 Z-0.402
N6650 X94.608 Y44.363 Z-0.35
N6660 G0 Z1
N6670 X94.399 Y44.022
N6680 Z0.5
N6690 G1 Z-0.05 F60
N6700 Z-0.375
N6710 X94.405 Y44.018 Z-0.427
N6720 X94.422 Y44.008 Z-0.475
N6730 X94.449 Y43.991 Z-0.516
N6740 X94.485 Y43.97 Z-0.548
N6750 X94.526 Y43.944 Z-0.568
N6760 X94.57 Y43.917 Z-0.575
N6770 X94.741 Y43.813
N6780 G3 X95.015 Y43.879 I0.104 J0.171
N6790 G2 X95.492 Y44.64 I34.985 J-21.379 F300
N6800 X96.333 Y45.1 I0.842 J-0.54
N6810 G1 X163.667
N6820 G2 X164.509 Y44.64 I0 J-1
N6830 Y0.36 I-34.509 J-22.14
N6840 X163.667 Y-0.1 I-0.842 J0.54
N6850 G1 X96.333
N6860 G2 X95.492 Y0.36 I0 J1
N6870 X95.015 Y43.879 I34.508 J22.14
N6880 G3 X94.949 Y44.154 I-0.171 J0.104 F1200
N6890 G1 X94.778 Y44.259
N6900 X94.734 Y44.286 Z-0.568
N6910 X94.693 Y44.311 Z-0.548
N6920 X94.658 Y44.332 Z-0.516
N6930 X94.631 Y44.349 Z-0.475
N6940 X94.614 Y44.359 Z-0.427
N6950 X94.608 Y44.363 Z-0.375
N6960 G0 Z1
N6970 X94.399 Y44.022
N6980 Z0.5
N6990 G1 Z-0.075 F60
N7000 Z-0.4
N7010 X94.405 Y44.018 Z-0.452
N7020 X94.422 Y44.008 Z-0.5
N7030 X94.449 Y43.991 Z-0.541
N7040 X94.485 Y43.97 Z-0.573
N7050 X94.526 Y43.944 Z-0.593
N7060 X94.57 Y43.917 Z-0.6
N7070 X94.741 Y43.813
N7080 G3 X95.015 Y43.879 I0.104 J0.171
N7090 G2 X95.492 Y44.64 I34.985 J-21.379 F300
N7100 X96.333 Y45.1 I0.842 J-0.54
N7110 G1 X163.667
N7120 G2 X164.509 Y44.64 I0 J-1
N7130 Y0.36 I-34.509 J-22.14
N7140 X163.667 Y-0.1 I-0.842 J0.54
N7150 G1 X96.333
N7160 G2 X95.492 Y0.36 I0 J1
N7170 X95.015 Y43.879 I34.508 J22.14
N7180 G3 X94.949 Y44.154 I-0.171 J0.104 F1200
N7190 G1 X94.778 Y44.259
N7200 X94.734 Y44.286 Z-0.593
N7210 X94.693 Y44.311 Z-0.573
N7220 X94.658 Y44.332 Z-0.541
N7230 X94.631 Y44.349 Z-0.5
N7240 X94.614 Y44.359 Z-0.452
N7250 X94.608 Y44.363 Z-0.4
N7260 G0 Z1
N7270 X94.399 Y44.022
N7280 Z0.5
N7290 G1 Z-0.1 F60
N7300 Z-0.425
N7310 X94.405 Y44.018 Z-0.477
N7320 X94.422 Y44.008 Z-0.525
N7330 X94.449 Y43.991 Z-0.566
N7340 X94.485 Y43.97 Z-0.598
N7350 X94.526 Y43.944 Z-0.618
N7360 X94.57 Y43.917 Z-0.625
N7370 X94.741 Y43.813
N7380 G3 X95.015 Y43.879 I0.104 J0.171
N7390 G2 X95.492 Y44.64 I34.985 J-21.379 F300
N7400 X96.333 Y45.1 I0.842 J-0.54
N7410 G1 X163.667
N7420 G2 X164.509 Y44.64 I0 J-1
N7430 Y0.36 I-34.509 J-22.14
N7440 X163.667 Y-0.1 I-0.842 J0.54
N7450 G1 X96.333
N7460 G2 X95.492 Y0.36 I0 J1
N7470 X95.015 Y43.879 I34.508 J22.14
N7480 G3 X94.949 Y44.154 I-0.171 J0.104 F1200
N7490 G1 X94.778 Y44.259
N7500 X94.734 Y44.286 Z-0.618
N7510 X94.693 Y44.311 Z-0.598
N7520 X94.658 Y44.332 Z-0.566
N7530 X94.631 Y44.349 Z-0.525
N7540 X94.614 Y44.359 Z-0.477
N7550 X94.608 Y44.363 Z-0.425
N7560 G0 Z1
N7570 X94.399 Y44.022
N7580 Z0.5
N7590 G1 Z-0.125 F60
N7600 Z-0.45
N7610 X94.405 Y44.018 Z-0.502
N7620 X94.422 Y44.008 Z-0.55
N7630 X94.449 Y43.991 Z-0.591
N7640 X94.485 Y43.97 Z-0.623
N7650 X94.526 Y43.944 Z-0.643
N7660 X94.57 Y43.917 Z-0.65
N7670 X94.741 Y43.813
N7680 G3 X95.015 Y43.879 I0.104 J0.171
N7690 G2 X95.492 Y44.64 I34.985 J-21.379 F300
N7700 X96.333 Y45.1 I0.842 J-0.54
N7710 G1 X163.667
N7720 G2 X164.509 Y44.64 I0 J-1
N7730 Y0.36 I-34.509 J-22.14
N7740 X163.667 Y-0.1 I-0.842 J0.54
N7750 G1 X96.333
N7760 G2 X95.492 Y0.36 I0 J1
N7770 X95.015 Y43.879 I34.508 J22.14
N7780 G3 X94.949 Y44.154 I-0.171 J0.104 F1200
N7790 G1 X94.778 Y44.259
N7800 X94.734 Y44.286 Z-0.643
N7810 X94.693 Y44.311 Z-0.623
N7820 X94.658 Y44.332 Z-0.591
N7830 X94.631 Y44.349 Z-0.55
N7840 X94.614 Y44.359 Z-0.502
N7850 X94.608 Y44.363 Z-0.45
N7860 G0 Z1
N7870 X94.399 Y44.022
N7880 Z0.5
N7890 G1 Z-0.15 F60
N7900 Z-0.475
N7910 X94.405 Y44.018 Z-0.527
N7920 X94.422 Y44.008 Z-0.575
N7930 X94.449 Y43.991 Z-0.616
N7940 X94.485 Y43.97 Z-0.648
N7950 X94.526 Y43.944 Z-0.668
N7960 X94.57 Y43.917 Z-0.675
N7970 X94.741 Y43.813
N7980 G3 X95.015 Y43.879 I0.104 J0.171
N7990 G2 X95.492 Y44.64 I34.985 J-21.379 F300
N8000 X96.333 Y45.1 I0.842 J-0.54
N8010 G1 X163.667
N8020 G2 X164.509 Y44.64 I0 J-1
N8030 Y0.36 I-34.509 J-22.14
N8040 X163.667 Y-0.1 I-0.842 J0.54
N8050 G1 X96.333
N8060 G2 X95.492 Y0.36 I0 J1
N8070 X95.015 Y43.879 I34.508 J22.14
N8080 G3 X94.949 Y44.154 I-0.171 J0.104 F1200
N8090 G1 X94.778 Y44.259
N8100 X94.734 Y44.286 Z-0.668
N8110 X94.693 Y44.311 Z-0.648
N8120 X94.658 Y44.332 Z-0.616
N8130 X94.631 Y44.349 Z-0.575
N8140 X94.614 Y44.359 Z-0.527
N8150 X94.608 Y44.363 Z-0.475
N8160 G0 Z1
N8170 X94.399 Y44.022
N8180 Z0.5
N8190 G1 Z-0.175 F60
N8200 Z-0.5
N8210 X94.405 Y44.018 Z-0.552
N8220 X94.422 Y44.008 Z-0.6
N8230 X94.449 Y43.991 Z-0.641
N8240 X94.485 Y43.97 Z-0.673
N8250 X94.526 Y43.944 Z-0.693
N8260 X94.57 Y43.917 Z-0.7
N8270 X94.741 Y43.813
N8280 G3 X95.015 Y43.879 I0.104 J0.171
N8290 G2 X95.492 Y44.64 I34.985 J-21.379 F300
N8300 X96.333 Y45.1 I0.842 J-0.54
N8310 G1 X163.667
N8320 G2 X164.509 Y44.64 I0 J-1
N8330 Y0.36 I-34.509 J-22.14
N8340 X163.667 Y-0.1 I-0.842 J0.54
N8350 G1 X96.333
N8360 G2 X95.492 Y0.36 I0 J1
N8370 X95.015 Y43.879 I34.508 J22.14
N8380 G3 X94.949 Y44.154 I-0.171 J0.104 F1200
N8390 G1 X94.778 Y44.259
N8400 X94.734 Y44.286 Z-0.693
N8410 X94.693 Y44.311 Z-0.673
N8420 X94.658 Y44.332 Z-0.641
N8430 X94.631 Y44.349 Z-0.6
N8440 X94.614 Y44.359 Z-0.552
N8450 X94.608 Y44.363 Z-0.5
N8460 G0 Z1
N8470 X94.399 Y44.022
N8480 Z0.5
N8490 G1 Z-0.2 F60
N8500 Z-0.525
N8510 X94.405 Y44.018 Z-0.577
N8520 X94.422 Y44.008 Z-0.625
N8530 X94.449 Y43.991 Z-0.666
N8540 X94.485 Y43.97 Z-0.698
N8550 X94.526 Y43.944 Z-0.718
N8560 X94.57 Y43.917 Z-0.725
N8570 X94.741 Y43.813
N8580 G3 X95.015 Y43.879 I0.104 J0.171
N8590 G2 X95.492 Y44.64 I34.985 J-21.379 F300
N8600 X96.333 Y45.1 I0.842 J-0.54
N8610 G1 X163.667
N8620 G2 X164.509 Y44.64 I0 J-1
N8630 Y0.36 I-34.509 J-22.14
N8640 X163.667 Y-0.1 I-0.842 J0.54
N8650 G1 X96.333
N8660 G2 X95.492 Y0.36 I0 J1
N8670 X95.015 Y43.879 I34.508 J22.14
N8680 G3 X94.949 Y44.154 I-0.171 J0.104 F1200
N8690 G1 X94.778 Y44.259
N8700 X94.734 Y44.286 Z-0.718
N8710 X94.693 Y44.311 Z-0.698
N8720 X94.658 Y44.332 Z-0.666
N8730 X94.631 Y44.349 Z-0.625
N8740 X94.614 Y44.359 Z-0.577
N8750 X94.608 Y44.363 Z-0.525
N8760 G0 Z1
N8770 X94.399 Y44.022
N8780 Z0.5
N8790 G1 Z-0.225 F60
N8800 Z-0.55
N8810 X94.405 Y44.018 Z-0.602
N8820 X94.422 Y44.008 Z-0.65
N8830 X94.449 Y43.991 Z-0.691
N8840 X94.485 Y43.97 Z-0.723
N8850 X94.526 Y43.944 Z-0.743
N8860 X94.57 Y43.917 Z-0.75
N8870 X94.741 Y43.813
N8880 G3 X95.015 Y43.879 I0.104 J0.171
N8890 G2 X95.492 Y44.64 I34.985 J-21.379 F300
N8900 X96.333 Y45.1 I0.842 J-0.54
N8910 G1 X163.667
N8920 G2 X164.509 Y44.64 I0 J-1
N8930 Y0.36 I-34.509 J-22.14
N8940 X163.667 Y-0.1 I-0.842 J0.54
N8950 G1 X96.333
N8960 G2 X95.492 Y0.36 I0 J1
N8970 X95.015 Y43.879 I34.508 J22.14
N8980 G3 X94.949 Y44.154 I-0.171 J0.104 F1200
N8990 G1 X94.778 Y44.259
N9000 X94.734 Y44.286 Z-0.743
N9010 X94.693 Y44.311 Z-0.723
N9020 X94.658 Y44.332 Z-0.691
N9030 X94.631 Y44.349 Z-0.65
N9040 X94.614 Y44.359 Z-0.602
N9050 X94.608 Y44.363 Z-0.55
N9060 G0 Z1
N9070 X94.399 Y44.022
N9080 Z0.5
N9090 G1 Z-0.25 F60
N9100 Z-0.575
N9110 X94.405 Y44.018 Z-0.627
N9120 X94.422 Y44.008 Z-0.675
N9130 X94.449 Y43.991 Z-0.716
N9140 X94.485 Y43.97 Z-0.748
N9150 X94.526 Y43.944 Z-0.768
N9160 X94.57 Y43.917 Z-0.775
N9170 X94.741 Y43.813
N9180 G3 X95.015 Y43.879 I0.104 J0.171
N9190 G2 X95.492 Y44.64 I34.985 J-21.379 F300
N9200 X96.333 Y45.1 I0.842 J-0.54
N9210 G1 X163.667
N9220 G2 X164.509 Y44.64 I0 J-1
N9230 Y0.36 I-34.509 J-22.14
N9240 X163.667 Y-0.1 I-0.842 J0.54
N9250 G1 X96.333
N9260 G2 X95.492 Y0.36 I0 J1
N9270 X95.015 Y43.879 I34.508 J22.14
N9280 G3 X94.949 Y44.154 I-0.171 J0.104 F1200
N9290 G1 X94.778 Y44.259
N9300 X94.734 Y44.286 Z-0.768
N9310 X94.693 Y44.311 Z-0.748
N9320 X94.658 Y44.332 Z-0.716
N9330 X94.631 Y44.349 Z-0.675
N9340 X94.614 Y44.359 Z-0.627
N9350 X94.608 Y44.363 Z-0.575
N9360 G0 Z1
N9370 X94.399 Y44.022
N9380 Z0.5
N9390 G1 Z-0.275 F60
N9400 Z-0.6
N9410 X94.405 Y44.018 Z-0.652
N9420 X94.422 Y44.008 Z-0.7
N9430 X94.449 Y43.991 Z-0.741
N9440 X94.485 Y43.97 Z-0.773
N9450 X94.526 Y43.944 Z-0.793
N9460 X94.57 Y43.917 Z-0.8
N9470 X94.741 Y43.813
N9480 G3 X95.015 Y43.879 I0.104 J0.171
N9490 G2 X95.492 Y44.64 I34.985 J-21.379 F300
N9500 X96.333 Y45.1 I0.842 J-0.54
N9510 G1 X163.667
N9520 G2 X164.509 Y44.64 I0 J-1
N9530 Y0.36 I-34.509 J-22.14
N9540 X163.667 Y-0.1 I-0.842 J0.54
N9550 G1 X96.333
N9560 G2 X95.492 Y0.36 I0 J1
N9570 X95.015 Y43.879 I34.508 J22.14
N9580 G3 X94.949 Y44.154 I-0.171 J0.104 F1200
N9590 G1 X94.778 Y44.259
N9600 X94.734 Y44.286 Z-0.793
N9610 X94.693 Y44.311 Z-0.773
N9620 X94.658 Y44.332 Z-0.741
N9630 X94.631 Y44.349 Z-0.7
N9640 X94.614 Y44.359 Z-0.652
N9650 X94.608 Y44.363 Z-0.6
N9660 G0 Z1
N9670 X94.399 Y44.022
N9680 Z0.5
N9690 G1 Z-0.3 F60
N9700 Z-0.625
N9710 X94.405 Y44.018 Z-0.677
N9720 X94.422 Y44.008 Z-0.725
N9730 X94.449 Y43.991 Z-0.766
N9740 X94.485 Y43.97 Z-0.798
N9750 X94.526 Y43.944 Z-0.818
N9760 X94.57 Y43.917 Z-0.825
N9770 X94.741 Y43.813
N9780 G3 X95.015 Y43.879 I0.104 J0.171
N9790 G2 X95.492 Y44.64 I34.985 J-21.379 F300
N9800 X96.333 Y45.1 I0.842 J-0.54
N9810 G1 X163.667
N9820 G2 X164.509 Y44.64 I0 J-1
N9830 Y0.36 I-34.509 J-22.14
N9840 X163.667 Y-0.1 I-0.842 J0.54
N9850 G1 X96.333
N9860 G2 X95.492 Y0.36 I0 J1
N9870 X95.015 Y43.879 I34.508 J22.14
N9880 G3 X94.949 Y44.154 I-0.171 J0.104 F1200
N9890 G1 X94.778 Y44.259
N9900 X94.734 Y44.286 Z-0.818
N9910 X94.693 Y44.311 Z-0.798
N9920 X94.658 Y44.332 Z-0.766
N9930 X94.631 Y44.349 Z-0.725
N9940 X94.614 Y44.359 Z-0.677
N9950 X94.608 Y44.363 Z-0.625
N9960 G0 Z1
N9970 X94.399 Y44.022
N9980 Z0.5
N9990 G1 Z-0.325 F60
N10000 Z-0.65
N10010 X94.405 Y44.018 Z-0.702
N10020 X94.422 Y44.008 Z-0.75
N10030 X94.449 Y43.991 Z-0.791
N10040 X94.485 Y43.97 Z-0.823
N10050 X94.526 Y43.944 Z-0.843
N10060 X94.57 Y43.917 Z-0.85
N10070 X94.741 Y43.813
N10080 G3 X95.015 Y43.879 I0.104 J0.171
N10090 G2 X95.492 Y44.64 I34.985 J-21.379 F300
N10100 X96.333 Y45.1 I0.842 J-0.54
N10110 G1 X163.667
N10120 G2 X164.509 Y44.64 I0 J-1
N10130 Y0.36 I-34.509 J-22.14
N10140 X163.667 Y-0.1 I-0.842 J0.54
N10150 G1 X96.333
N10160 G2 X95.492 Y0.36 I0 J1
N10170 X95.015 Y43.879 I34.508 J22.14
N10180 G3 X94.949 Y44.154 I-0.171 J0.104 F1200
N10190 G1 X94.778 Y44.259
N10200 X94.734 Y44.286 Z-0.843
N10210 X94.693 Y44.311 Z-0.823
N10220 X94.658 Y44.332 Z-0.791
N10230 X94.631 Y44.349 Z-0.75
N10240 X94.614 Y44.359 Z-0.702
N10250 X94.608 Y44.363 Z-0.65
N10260 G0 Z1
N10270 X94.399 Y44.022
N10280 Z0.5
N10290 G1 Z-0.35 F60
N10300 Z-0.675
N10310 X94.405 Y44.018 Z-0.727
N10320 X94.422 Y44.008 Z-0.775
N10330 X94.449 Y43.991 Z-0.816
N10340 X94.485 Y43.97 Z-0.848
N10350 X94.526 Y43.944 Z-0.868
N10360 X94.57 Y43.917 Z-0.875
N10370 X94.741 Y43.813
N10380 G3 X95.015 Y43.879 I0.104 J0.171
N10390 G2 X95.492 Y44.64 I34.985 J-21.379 F300
N10400 X96.333 Y45.1 I0.842 J-0.54
N10410 G1 X163.667
N10420 G2 X164.509 Y44.64 I0 J-1
N10430 Y0.36 I-34.509 J-22.14
N10440 X163.667 Y-0.1 I-0.842 J0.54
N10450 G1 X96.333
N10460 G2 X95.492 Y0.36 I0 J1
N10470 X95.015 Y43.879 I34.508 J22.14
N10480 G3 X94.949 Y44.154 I-0.171 J0.104 F1200
N10490 G1 X94.778 Y44.259
N10500 X94.734 Y44.286 Z-0.868
N10510 X94.693 Y44.311 Z-0.848
N10520 X94.658 Y44.332 Z-0.816
N10530 X94.631 Y44.349 Z-0.775
N10540 X94.614 Y44.359 Z-0.727
N10550 X94.608 Y44.363 Z-0.675
N10560 G0 Z1
N10570 X94.399 Y44.022
N10580 Z0.5
N10590 G1 Z-0.375 F60
N10600 Z-0.7
N10610 X94.405 Y44.018 Z-0.752
N10620 X94.422 Y44.008 Z-0.8
N10630 X94.449 Y43.991 Z-0.841
N10640 X94.485 Y43.97 Z-0.873
N10650 X94.526 Y43.944 Z-0.893
N10660 X94.57 Y43.917 Z-0.9
N10670 X94.741 Y43.813
N10680 G3 X95.015 Y43.879 I0.104 J0.171
N10690 G2 X95.492 Y44.64 I34.985 J-21.379 F300
N10700 X96.333 Y45.1 I0.842 J-0.54
N10710 G1 X163.667
N10720 G2 X164.509 Y44.64 I0 J-1
N10730 Y0.36 I-34.509 J-22.14
N10740 X163.667 Y-0.1 I-0.842 J0.54
N10750 G1 X96.333
N10760 G2 X95.492 Y0.36 I0 J1
N10770 X95.015 Y43.879 I34.508 J22.14
N10780 G3 X94.949 Y44.154 I-0.171 J0.104 F1200
N10790 G1 X94.778 Y44.259
N10800 X94.734 Y44.286 Z-0.893
N10810 X94.693 Y44.311 Z-0.873
N10820 X94.658 Y44.332 Z-0.841
N10830 X94.631 Y44.349 Z-0.8
N10840 X94.614 Y44.359 Z-0.752
N10850 X94.608 Y44.363 Z-0.7
N10860 G0 Z1
N10870 X94.399 Y44.022
N10880 Z0.5
N10890 G1 Z-0.4 F60
N10900 Z-0.725
N10910 X94.405 Y44.018 Z-0.777
N10920 X94.422 Y44.008 Z-0.825
N10930 X94.449 Y43.991 Z-0.866
N10940 X94.485 Y43.97 Z-0.898
N10950 X94.526 Y43.944 Z-0.918
N10960 X94.57 Y43.917 Z-0.925
N10970 X94.741 Y43.813
N10980 G3 X95.015 Y43.879 I0.104 J0.171
N10990 G2 X95.492 Y44.64 I34.985 J-21.379 F300
N11000 X96.333 Y45.1 I0.842 J-0.54
N11010 G1 X163.667
N11020 G2 X164.509 Y44.64 I0 J-1
N11030 Y0.36 I-34.509 J-22.14
N11040 X163.667 Y-0.1 I-0.842 J0.54
N11050 G1 X96.333
N11060 G2 X95.492 Y0.36 I0 J1
N11070 X95.015 Y43.879 I34.508 J22.14
N11080 G3 X94.949 Y44.154 I-0.171 J0.104 F1200
N11090 G1 X94.778 Y44.259
N11100 X94.734 Y44.286 Z-0.918
N11110 X94.693 Y44.311 Z-0.898
N11120 X94.658 Y44.332 Z-0.866
N11130 X94.631 Y44.349 Z-0.825
N11140 X94.614 Y44.359 Z-0.777
N11150 X94.608 Y44.363 Z-0.725
N11160 G0 Z1
N11170 X94.399 Y44.022
N11180 Z0.5
N11190 G1 Z-0.425 F60
N11200 Z-0.75
N11210 X94.405 Y44.018 Z-0.802
N11220 X94.422 Y44.008 Z-0.85
N11230 X94.449 Y43.991 Z-0.891
N11240 X94.485 Y43.97 Z-0.923
N11250 X94.526 Y43.944 Z-0.943
N11260 X94.57 Y43.917 Z-0.95
N11270 X94.741 Y43.813
N11280 G3 X95.015 Y43.879 I0.104 J0.171
N11290 G2 X95.492 Y44.64 I34.985 J-21.379 F300
N11300 X96.333 Y45.1 I0.842 J-0.54
N11310 G1 X163.667
N11320 G2 X164.509 Y44.64 I0 J-1
N11330 Y0.36 I-34.509 J-22.14
N11340 X163.667 Y-0.1 I-0.842 J0.54
N11350 G1 X96.333
N11360 G2 X95.492 Y0.36 I0 J1
N11370 X95.015 Y43.879 I34.508 J22.14
N11380 G3 X94.949 Y44.154 I-0.171 J0.104 F1200
N11390 G1 X94.778 Y44.259
N11400 X94.734 Y44.286 Z-0.943
N11410 X94.693 Y44.311 Z-0.923
N11420 X94.658 Y44.332 Z-0.891
N11430 X94.631 Y44.349 Z-0.85
N11440 X94.614 Y44.359 Z-0.802
N11450 X94.608 Y44.363 Z-0.75
N11460 G0 Z1
N11470 X94.399 Y44.022
N11480 Z0.5
N11490 G1 Z-0.45 F60
N11500 Z-0.775
N11510 X94.405 Y44.018 Z-0.827
N11520 X94.422 Y44.008 Z-0.875
N11530 X94.449 Y43.991 Z-0.916
N11540 X94.485 Y43.97 Z-0.948
N11550 X94.526 Y43.944 Z-0.968
N11560 X94.57 Y43.917 Z-0.975
N11570 X94.741 Y43.813
N11580 G3 X95.015 Y43.879 I0.104 J0.171
N11590 G2 X95.492 Y44.64 I34.985 J-21.379 F300
N11600 X96.333 Y45.1 I0.842 J-0.54
N11610 G1 X163.667
N11620 G2 X164.509 Y44.64 I0 J-1
N11630 Y0.36 I-34.509 J-22.14
N11640 X163.667 Y-0.1 I-0.842 J0.54
N11650 G1 X96.333
N11660 G2 X95.492 Y0.36 I0 J1
N11670 X95.015 Y43.879 I34.508 J22.14
N11680 G3 X94.949 Y44.154 I-0.171 J0.104 F1200
N11690 G1 X94.778 Y44.259
N11700 X94.734 Y44.286 Z-0.968
N11710 X94.693 Y44.311 Z-0.948
N11720 X94.658 Y44.332 Z-0.916
N11730 X94.631 Y44.349 Z-0.875
N11740 X94.614 Y44.359 Z-0.827
N11750 X94.608 Y44.363 Z-0.775
N11760 G0 Z1
N11770 X94.399 Y44.022
N11780 Z0.5
N11790 G1 Z-0.475 F60
N11800 Z-0.8
N11810 X94.405 Y44.018 Z-0.852
N11820 X94.422 Y44.008 Z-0.9
N11830 X94.449 Y43.991 Z-0.941
N11840 X94.485 Y43.97 Z-0.973
N11850 X94.526 Y43.944 Z-0.993
N11860 X94.57 Y43.917 Z-1
N11870 X94.741 Y43.813
N11880 G3 X95.015 Y43.879 I0.104 J0.171
N11890 G2 X95.492 Y44.64 I34.985 J-21.379 F300
N11900 X96.333 Y45.1 I0.842 J-0.54
N11910 G1 X163.667
N11920 G2 X164.509 Y44.64 I0 J-1
N11930 Y0.36 I-34.509 J-22.14
N11940 X163.667 Y-0.1 I-0.842 J0.54
N11950 G1 X96.333
N11960 G2 X95.492 Y0.36 I0 J1
N11970 X95.015 Y43.879 I34.508 J22.14
N11980 G3 X94.949 Y44.154 I-0.171 J0.104 F1200
N11990 G1 X94.778 Y44.259
N12000 X94.734 Y44.286 Z-0.993
N12010 X94.693 Y44.311 Z-0.973
N12020 X94.658 Y44.332 Z-0.941
N12030 X94.631 Y44.349 Z-0.9
N12040 X94.614 Y44.359 Z-0.852
N12050 X94.608 Y44.363 Z-0.8
N12060 G0 Z1
N12070 X94.399 Y44.022
N12080 Z0.5
N12090 G1 Z-0.5 F60
N12100 Z-0.825
N12110 X94.405 Y44.018 Z-0.877
N12120 X94.422 Y44.008 Z-0.925
N12130 X94.449 Y43.991 Z-0.966
N12140 X94.485 Y43.97 Z-0.998
N12150 X94.526 Y43.944 Z-1.018
N12160 X94.57 Y43.917 Z-1.025
N12170 X94.741 Y43.813
N12180 G3 X95.015 Y43.879 I0.104 J0.171
N12190 G2 X95.492 Y44.64 I34.985 J-21.379 F300
N12200 X96.333 Y45.1 I0.842 J-0.54
N12210 G1 X163.667
N12220 G2 X164.509 Y44.64 I0 J-1
N12230 Y0.36 I-34.509 J-22.14
N12240 X163.667 Y-0.1 I-0.842 J0.54
N12250 G1 X96.333
N12260 G2 X95.492 Y0.36 I0 J1
N12270 X95.015 Y43.879 I34.508 J22.14
N12280 G3 X94.949 Y44.154 I-0.171 J0.104 F1200
N12290 G1 X94.778 Y44.259
N12300 X94.734 Y44.286 Z-1.018
N12310 X94.693 Y44.311 Z-0.998
N12320 X94.658 Y44.332 Z-0.966
N12330 X94.631 Y44.349 Z-0.925
N12340 X94.614 Y44.359 Z-0.877
N12350 X94.608 Y44.363 Z-0.825
N12360 G0 Z1
N12370 X94.399 Y44.022
N12380 Z0.5
N12390 G1 Z-0.525 F60
N12400 Z-0.85
N12410 X94.405 Y44.018 Z-0.902
N12420 X94.422 Y44.008 Z-0.95
N12430 X94.449 Y43.991 Z-0.991
N12440 X94.485 Y43.97 Z-1.023
N12450 X94.526 Y43.944 Z-1.043
N12460 X94.57 Y43.917 Z-1.05
N12470 X94.741 Y43.813
N12480 G3 X95.015 Y43.879 I0.104 J0.171
N12490 G2 X95.492 Y44.64 I34.985 J-21.379 F300
N12500 X96.333 Y45.1 I0.842 J-0.54
N12510 G1 X163.667
N12520 G2 X164.509 Y44.64 I0 J-1
N12530 Y0.36 I-34.509 J-22.14
N12540 X163.667 Y-0.1 I-0.842 J0.54
N12550 G1 X96.333
N12560 G2 X95.492 Y0.36 I0 J1
N12570 X95.015 Y43.879 I34.508 J22.14
N12580 G3 X94.949 Y44.154 I-0.171 J0.104 F1200
N12590 G1 X94.778 Y44.259
N12600 X94.734 Y44.286 Z-1.043
N12610 X94.693 Y44.311 Z-1.023
N12620 X94.658 Y44.332 Z-0.991
N12630 X94.631 Y44.349 Z-0.95
N12640 X94.614 Y44.359 Z-0.902
N12650 X94.608 Y44.363 Z-0.85
N12660 G0 Z1
N12670 X94.399 Y44.022
N12680 Z0.5
N12690 G1 Z-0.55 F60
N12700 Z-0.875
N12710 X94.405 Y44.018 Z-0.927
N12720 X94.422 Y44.008 Z-0.975
N12730 X94.449 Y43.991 Z-1.016
N12740 X94.485 Y43.97 Z-1.048
N12750 X94.526 Y43.944 Z-1.068
N12760 X94.57 Y43.917 Z-1.075
N12770 X94.741 Y43.813
N12780 G3 X95.015 Y43.879 I0.104 J0.171
N12790 G2 X95.492 Y44.64 I34.985 J-21.379 F300
N12800 X96.333 Y45.1 I0.842 J-0.54
N12810 G1 X102.75
N12820 Z-1.05
N12830 X106.75
N12840 Z-1.075 F60
N12850 X119.583 F300
N12860 Z-1.05
N12870 X123.583
N12880 Z-1.075 F60
N12890 X136.417 F300
N12900 Z-1.05
N12910 X140.417
N12920 Z-1.075 F60
N12930 X153.25 F300
N12940 Z-1.05
N12950 X157.25
N12960 Z-1.075 F60
N12970 X163.667 F300
N12980 G2 X164.509 Y44.64 I0 J-1
N12990 X168.734 Y35.942 I-34.509 J-22.14
N13000 G1 Z-1.05
N13010 G2 X169.86 Y32.103 I-38.734 J-13.442
N13020 G1 Z-1.075 F60
N13030 G2 Y12.897 I-39.86 J-9.603 F300
N13040 G1 Z-1.05
N13050 G2 X168.734 Y9.058 I-39.86 J9.603
N13060 G1 Z-1.075 F60
N13070 G2 X164.509 Y0.36 I-38.734 J13.442 F300
N13080 X163.667 Y-0.1 I-0.842 J0.54
N13090 G1 X157.25
N13100 Z-1.05
N13110 X153.25
N13120 Z-1.075 F60
N13130 X140.417 F300
N13140 Z-1.05
N13150 X136.417
N13160 Z-1.075 F60
N13170 X123.583 F300
N13180 Z-1.05
N13190 X119.583
N13200 Z-1.075 F60
N13210 X106.75 F300
N13220 Z-1.05
N13230 X102.75
N13240 Z-1.075 F60
N13250 X96.333 F300
N13260 G2 X95.492 Y0.36 I0 J1
N13270 X91.266 Y9.058 I34.508 J22.14
N13280 G1 Z-1.05
N13290 G2 X90.141 Y12.897 I38.734 J13.442
N13300 G1 Z-1.075 F60
N13310 G2 Y32.103 I39.859 J9.603 F300
N13320 G1 Z-1.05
N13330 G2 X91.266 Y35.942 I39.859 J-9.603
N13340 G1 Z-1.075 F60
N13350 G2 X95.015 Y43.879 I38.734 J-13.442 F300
N13360 G3 X94.949 Y44.154 I-0.171 J0.104 F1200
N13370 G1 X94.778 Y44.259
N13380 X94.734 Y44.286 Z-1.068
N13390 X94.693 Y44.311 Z-1.048
N13400 X94.658 Y44.332 Z-1.016
N13410 X94.631 Y44.349 Z-0.975
N13420 X94.614 Y44.359 Z-0.927
N13430 X94.608 Y44.363 Z-0.875
N13440 G0 Z1
N13450 X94.399 Y44.022
N13460 Z0.5
N13470 G1 Z-0.575 F60
N13480 Z-0.9
N13490 X94.405 Y44.018 Z-0.952
N13500 X94.422 Y44.008 Z-1
N13510 X94.449 Y43.991 Z-1.041
N13520 X94.485 Y43.97 Z-1.073
N13530 X94.526 Y43.944 Z-1.093
N13540 X94.57 Y43.917 Z-1.1
N13550 X94.741 Y43.813
N13560 G3 X95.015 Y43.879 I0.104 J0.171
N13570 G2 X95.492 Y44.64 I34.985 J-21.379 F300
N13580 X96.333 Y45.1 I0.842 J-0.54
N13590 G1 X102.75
N13600 Z-1.05
N13610 X106.75
N13620 Z-1.1 F60
N13630 X119.583 F300
N13640 Z-1.05
N13650 X123.583
N13660 Z-1.1 F60
N13670 X136.417 F300
N13680 Z-1.05
N13690 X140.417
N13700 Z-1.1 F60
N13710 X153.25 F300
N13720 Z-1.05
N13730 X157.25
N13740 Z-1.1 F60
N13750 X163.667 F300
N13760 G2 X164.509 Y44.64 I0 J-1
N13770 X168.734 Y35.942 I-34.509 J-22.14
N13780 G1 Z-1.05
N13790 G2 X169.86 Y32.103 I-38.734 J-13.442
N13800 G1 Z-1.1 F60
N13810 G2 Y12.897 I-39.86 J-9.603 F300
N13820 G1 Z-1.05
N13830 G2 X168.734 Y9.058 I-39.86 J9.603
N13840 G1 Z-1.1 F60
N13850 G2 X164.509 Y0.36 I-38.734 J13.442 F300
N13860 X163.667 Y-0.1 I-0.842 J0.54
N13870 G1 X157.25
N13880 Z-1.05
N13890 X153.25
N13900 Z-1.1 F60
N13910 X140.417 F300
N13920 Z-1.05
N13930 X136.417
N13940 Z-1.1 F60
N13950 X123.583 F300
N13960 Z-1.05
N13970 X119.583
N13980 Z-1.1 F60
N13990 X106.75 F300
N14000 Z-1.05
N14010 X102.75
N14020 Z-1.1 F60
N14030 X96.333 F300
N14040 G2 X95.492 Y0.36 I0 J1
N14050 X91.266 Y9.058 I34.508 J22.14
N14060 G1 Z-1.05
N14070 G2 X90.141 Y12.897 I38.734 J13.442
N14080 G1 Z-1.1 F60
N14090 G2 Y32.103 I39.859 J9.603 F300
N14100 G1 Z-1.05
N14110 G2 X91.266 Y35.942 I39.859 J-9.603
N14120 G1 Z-1.1 F60
N14130 G2 X95.015 Y43.879 I38.734 J-13.442 F300
N14140 G3 X94.949 Y44.154 I-0.171 J0.104 F1200
N14150 G1 X94.778 Y44.259
N14160 X94.734 Y44.286 Z-1.093
N14170 X94.693 Y44.311 Z-1.073
N14180 X94.658 Y44.332 Z-1.041
N14190 X94.631 Y44.349 Z-1
N14200 X94.614 Y44.359 Z-0.952
N14210 X94.608 Y44.363 Z-0.9
N14220 G0 Z1
N14230 X94.399 Y44.022
N14240 Z0.5
N14250 G1 Z-0.6 F60
N14260 Z-0.925
N14270 X94.405 Y44.018 Z-0.977
N14280 X94.422 Y44.008 Z-1.025
N14290 X94.449 Y43.991 Z-1.066
N14300 X94.485 Y43.97 Z-1.098
N14310 X94.526 Y43.944 Z-1.118
N14320 X94.57 Y43.917 Z-1.125
N14330 X94.741 Y43.813
N14340 G3 X95.015 Y43.879 I0.104 J0.171
N14350 G2 X95.492 Y44.64 I34.985 J-21.379 F300
N14360 X96.333 Y45.1 I0.842 J-0.54
N14370 G1 X102.75
N14380 Z-1.05
N14390 X106.75
N14400 Z-1.125 F60
N14410 X119.583 F300
N14420 Z-1.05
N14430 X123.583
N14440 Z-1.125 F60
N14450 X136.417 F300
N14460 Z-1.05
N14470 X140.417
N14480 Z-1.125 F60
N14490 X153.25 F300
N14500 Z-1.05
N14510 X157.25
N14520 Z-1.125 F60
N14530 X163.667 F300
N14540 G2 X164.509 Y44.64 I0 J-1
N14550 X168.734 Y35.942 I-34.509 J-22.14
N14560 G1 Z-1.05
N14570 G2 X169.86 Y32.103 I-38.734 J-13.442
N14580 G1 Z-1.125 F60
N14590 G2 Y12.897 I-39.86 J-9.603 F300
N14600 G1 Z-1.05
N14610 G2 X168.734 Y9.058 I-39.86 J9.603
N14620 G1 Z-1.125 F60
N14630 G2 X164.509 Y0.36 I-38.734 J13.442 F300
N14640 X163.667 Y-0.1 I-0.842 J0.54
N14650 G1 X157.25
N14660 Z-1.05
N14670 X153.25
N14680 Z-1.125 F60
N14690 X140.417 F300
N14700 Z-1.05
N14710 X136.417
N14720 Z-1.125 F60
N14730 X123.583 F300
N14740 Z-1.05
N14750 X119.583
N14760 Z-1.125 F60
N14770 X106.75 F300
N14780 Z-1.05
N14790 X102.75
N14800 Z-1.125 F60
N14810 X96.333 F300
N14820 G2 X95.492 Y0.36 I0 J1
N14830 X91.266 Y9.058 I34.508 J22.14
N14840 G1 Z-1.05
N14850 G2 X90.141 Y12.897 I38.734 J13.442
N14860 G1 Z-1.125 F60
N14870 G2 Y32.103 I39.859 J9.603 F300
N14880 G1 Z-1.05
N14890 G2 X91.266 Y35.942 I39.859 J-9.603
N14900 G1 Z-1.125 F60
N14910 G2 X95.015 Y43.879 I38.734 J-13.442 F300
N14920 G3 X94.949 Y44.154 I-0.171 J0.104 F1200
N14930 G1 X94.778 Y44.259
N14940 X94.734 Y44.286 Z-1.118
N14950 X94.693 Y44.311 Z-1.098
N14960 X94.658 Y44.332 Z-1.066
N14970 X94.631 Y44.349 Z-1.025
N14980 X94.614 Y44.359 Z-0.977
N14990 X94.608 Y44.363 Z-0.925
N15000 G0 Z1
N15010 X94.399 Y44.022
N15020 Z0.5
N15030 G1 Z-0.625 F60
N15040 Z-0.95
N15050 X94.405 Y44.018 Z-1.002
N15060 X94.422 Y44.008 Z-1.05
N15070 X94.449 Y43.991 Z-1.091
N15080 X94.485 Y43.97 Z-1.123
N15090 X94.526 Y43.944 Z-1.143
N15100 X94.57 Y43.917 Z-1.15
N15110 X94.741 Y43.813
N15120 G3 X95.015 Y43.879 I0.104 J0.171
N15130 G2 X95.492 Y44.64 I34.985 J-21.379 F300
N15140 X96.333 Y45.1 I0.842 J-0.54
N15150 G1 X102.75
N15160 Z-1.05
N15170 X106.75
N15180 Z-1.15 F60
N15190 X119.583 F300
N15200 Z-1.05
N15210 X123.583
N15220 Z-1.15 F60
N15230 X136.417 F300
N15240 Z-1.05
N15250 X140.417
N15260 Z-1.15 F60
N15270 X153.25 F300
N15280 Z-1.05
N15290 X157.25
N15300 Z-1.15 F60
N15310 X163.667 F300
N15320 G2 X164.509 Y44.64 I0 J-1
N15330 X168.734 Y35.942 I-34.509 J-22.14
N15340 G1 Z-1.05
N15350 G2 X169.86 Y32.103 I-38.734 J-13.442
N15360 G1 Z-1.15 F60
N15370 G2 Y12.897 I-39.86 J-9.603 F300
N15380 G1 Z-1.05
N15390 G2 X168.734 Y9.058 I-39.86 J9.603
N15400 G1 Z-1.15 F60
N15410 G2 X164.509 Y0.36 I-38.734 J13.442 F300
N15420 X163.667 Y-0.1 I-0.842 J0.54
N15430 G1 X157.25
N15440 Z-1.05
N15450 X153.25
N15460 Z-1.15 F60
N15470 X140.417 F300
N15480 Z-1.05
N15490 X136.417
N15500 Z-1.15 F60
N15510 X123.583 F300
N15520 Z-1.05
N15530 X119.583
N15540 Z-1.15 F60
N15550 X106.75 F300
N15560 Z-1.05
N15570 X102.75
N15580 Z-1.15 F60
N15590 X96.333 F300
N15600 G2 X95.492 Y0.36 I0 J1
N15610 X91.266 Y9.058 I34.508 J22.14
N15620 G1 Z-1.05
N15630 G2 X90.141 Y12.897 I38.734 J13.442
N15640 G1 Z-1.15 F60
N15650 G2 Y32.103 I39.859 J9.603 F300
N15660 G1 Z-1.05
N15670 G2 X91.266 Y35.942 I39.859 J-9.603
N15680 G1 Z-1.15 F60
N15690 G2 X95.015 Y43.879 I38.734 J-13.442 F300
N15700 G3 X94.949 Y44.154 I-0.171 J0.104 F1200
N15710 G1 X94.778 Y44.259
N15720 X94.734 Y44.286 Z-1.143
N15730 X94.693 Y44.311 Z-1.123
N15740 X94.658 Y44.332 Z-1.091
N15750 X94.631 Y44.349 Z-1.05
N15760 X94.614 Y44.359 Z-1.002
N15770 X94.608 Y44.363 Z-0.95
N15780 G0 Z1
N15790 X94.399 Y44.022
N15800 Z0.5
N15810 G1 Z-0.65 F60
N15820 Z-0.975
N15830 X94.405 Y44.018 Z-1.027
N15840 X94.422 Y44.008 Z-1.075
N15850 X94.449 Y43.991 Z-1.116
N15860 X94.485 Y43.97 Z-1.148
N15870 X94.526 Y43.944 Z-1.168
N15880 X94.57 Y43.917 Z-1.175
N15890 X94.741 Y43.813
N15900 G3 X95.015 Y43.879 I0.104 J0.171
N15910 G2 X95.492 Y44.64 I34.985 J-21.379 F300
N15920 X96.333 Y45.1 I0.842 J-0.54
N15930 G1 X102.75
N15940 Z-1.05
N15950 X106.75
N15960 Z-1.175 F60
N15970 X119.583 F300
N15980 Z-1.05
N15990 X123.583
N16000 Z-1.175 F60
N16010 X136.417 F300
N16020 Z-1.05
N16030 X140.417
N16040 Z-1.175 F60
N16050 X153.25 F300
N16060 Z-1.05
N16070 X157.25
N16080 Z-1.175 F60
N16090 X163.667 F300
N16100 G2 X164.509 Y44.64 I0 J-1
N16110 X168.734 Y35.942 I-34.509 J-22.14
N16120 G1 Z-1.05
N16130 G2 X169.86 Y32.103 I-38.734 J-13.442
N16140 G1 Z-1.175 F60
N16150 G2 Y12.897 I-39.86 J-9.603 F300
N16160 G1 Z-1.05
N16170 G2 X168.734 Y9.058 I-39.86 J9.603
N16180 G1 Z-1.175 F60
N16190 G2 X164.509 Y0.36 I-38.734 J13.442 F300
N16200 X163.667 Y-0.1 I-0.842 J0.54
N16210 G1 X157.25
N16220 Z-1.05
N16230 X153.25
N16240 Z-1.175 F60
N16250 X140.417 F300
N16260 Z-1.05
N16270 X136.417
N16280 Z-1.175 F60
N16290 X123.583 F300
N16300 Z-1.05
N16310 X119.583
N16320 Z-1.175 F60
N16330 X106.75 F300
N16340 Z-1.05
N16350 X102.75
N16360 Z-1.175 F60
N16370 X96.333 F300
N16380 G2 X95.492 Y0.36 I0 J1
N16390 X91.266 Y9.058 I34.508 J22.14
N16400 G1 Z-1.05
N16410 G2 X90.141 Y12.897 I38.734 J13.442
N16420 G1 Z-1.175 F60
N16430 G2 Y32.103 I39.859 J9.603 F300
N16440 G1 Z-1.05
N16450 G2 X91.266 Y35.942 I39.859 J-9.603
N16460 G1 Z-1.175 F60
N16470 G2 X95.015 Y43.879 I38.734 J-13.442 F300
N16480 G3 X94.949 Y44.154 I-0.171 J0.104 F1200
N16490 G1 X94.778 Y44.259
N16500 X94.734 Y44.286 Z-1.168
N16510 X94.693 Y44.311 Z-1.148
N16520 X94.658 Y44.332 Z-1.116
N16530 X94.631 Y44.349 Z-1.075
N16540 X94.614 Y44.359 Z-1.027
N16550 X94.608 Y44.363 Z-0.975
N16560 G0 Z1
N16570 X94.399 Y44.022
N16580 Z0.5
N16590 G1 Z-0.675 F60
N16600 Z-1
N16610 X94.405 Y44.018 Z-1.052
N16620 X94.422 Y44.008 Z-1.1
N16630 X94.449 Y43.991 Z-1.141
N16640 X94.485 Y43.97 Z-1.173
N16650 X94.526 Y43.944 Z-1.193
N16660 X94.57 Y43.917 Z-1.2
N16670 X94.741 Y43.813
N16680 G3 X95.015 Y43.879 I0.104 J0.171
N16690 G2 X95.492 Y44.64 I34.985 J-21.379 F300
N16700 X96.333 Y45.1 I0.842 J-0.54
N16710 G1 X102.75
N16720 Z-1.05
N16730 X106.75
N16740 Z-1.2 F60
N16750 X119.583 F300
N16760 Z-1.05
N16770 X123.583
N16780 Z-1.2 F60
N16790 X136.417 F300
N16800 Z-1.05
N16810 X140.417
N16820 Z-1.2 F60
N16830 X153.25 F300
N16840 Z-1.05
N16850 X157.25
N16860 Z-1.2 F60
N16870 X163.667 F300
N16880 G2 X164.509 Y44.64 I0 J-1
N16890 X168.734 Y35.942 I-34.509 J-22.14
N16900 G1 Z-1.05
N16910 G2 X169.86 Y32.103 I-38.734 J-13.442
N16920 G1 Z-1.2 F60
N16930 G2 Y12.897 I-39.86 J-9.603 F300
N16940 G1 Z-1.05
N16950 G2 X168.734 Y9.058 I-39.86 J9.603
N16960 G1 Z-1.2 F60
N16970 G2 X164.509 Y0.36 I-38.734 J13.442 F300
N16980 X163.667 Y-0.1 I-0.842 J0.54
N16990 G1 X157.25
N17000 Z-1.05
N17010 X153.25
N17020 Z-1.2 F60
N17030 X140.417 F300
N17040 Z-1.05
N17050 X136.417
N17060 Z-1.2 F60
N17070 X123.583 F300
N17080 Z-1.05
N17090 X119.583
N17100 Z-1.2 F60
N17110 X106.75 F300
N17120 Z-1.05
N17130 X102.75
N17140 Z-1.2 F60
N17150 X96.333 F300
N17160 G2 X95.492 Y0.36 I0 J1
N17170 X91.266 Y9.058 I34.508 J22.14
N17180 G1 Z-1.05
N17190 G2 X90.141 Y12.897 I38.734 J13.442
N17200 G1 Z-1.2 F60
N17210 G2 Y32.103 I39.859 J9.603 F300
N17220 G1 Z-1.05
N17230 G2 X91.266 Y35.942 I39.859 J-9.603
N17240 G1 Z-1.2 F60
N17250 G2 X95.015 Y43.879 I38.734 J-13.442 F300
N17260 G3 X94.949 Y44.154 I-0.171 J0.104 F1200
N17270 G1 X94.778 Y44.259
N17280 X94.734 Y44.286 Z-1.193
N17290 X94.693 Y44.311 Z-1.173
N17300 X94.658 Y44.332 Z-1.141
N17310 X94.631 Y44.349 Z-1.1
N17320 X94.614 Y44.359 Z-1.052
N17330 X94.608 Y44.363 Z-1
N17340 G0 Z1
N17350 X94.399 Y44.022
N17360 Z0.5
N17370 G1 Z-0.7 F60
N17380 Z-1.025
N17390 X94.405 Y44.018 Z-1.077
N17400 X94.422 Y44.008 Z-1.125
N17410 X94.449 Y43.991 Z-1.166
N17420 X94.485 Y43.97 Z-1.198
N17430 X94.526 Y43.944 Z-1.218
N17440 X94.57 Y43.917 Z-1.225
N17450 X94.741 Y43.813
N17460 G3 X95.015 Y43.879 I0.104 J0.171
N17470 G2 X95.492 Y44.64 I34.985 J-21.379 F300
N17480 X96.333 Y45.1 I0.842 J-0.54
N17490 G1 X102.75
N17500 Z-1.05
N17510 X106.75
N17520 Z-1.225 F60
N17530 X119.583 F300
N17540 Z-1.05
N17550 X123.583
N17560 Z-1.225 F60
N17570 X136.417 F300
N17580 Z-1.05
N17590 X140.417
N17600 Z-1.225 F60
N17610 X153.25 F300
N17620 Z-1.05
N17630 X157.25
N17640 Z-1.225 F60
N17650 X163.667 F300
N17660 G2 X164.509 Y44.64 I0 J-1
N17670 X168.734 Y35.942 I-34.509 J-22.14
N17680 G1 Z-1.05
N17690 G2 X169.86 Y32.103 I-38.734 J-13.442
N17700 G1 Z-1.225 F60
N17710 G2 Y12.897 I-39.86 J-9.603 F300
N17720 G1 Z-1.05
N17730 G2 X168.734 Y9.058 I-39.86 J9.603
N17740 G1 Z-1.225 F60
N17750 G2 X164.509 Y0.36 I-38.734 J13.442 F300
N17760 X163.667 Y-0.1 I-0.842 J0.54
N17770 G1 X157.25
N17780 Z-1.05
N17790 X153.25
N17800 Z-1.225 F60
N17810 X140.417 F300
N17820 Z-1.05
N17830 X136.417
N17840 Z-1.225 F60
N17850 X123.583 F300
N17860 Z-1.05
N17870 X119.583
N17880 Z-1.225 F60
N17890 X106.75 F300
N17900 Z-1.05
N17910 X102.75
N17920 Z-1.225 F60
N17930 X96.333 F300
N17940 G2 X95.492 Y0.36 I0 J1
N17950 X91.266 Y9.058 I34.508 J22.14
N17960 G1 Z-1.05
N17970 G2 X90.141 Y12.897 I38.734 J13.442
N17980 G1 Z-1.225 F60
N17990 G2 Y32.103 I39.859 J9.603 F300
N18000 G1 Z-1.05
N18010 G2 X91.266 Y35.942 I39.859 J-9.603
N18020 G1 Z-1.225 F60
N18030 G2 X95.015 Y43.879 I38.734 J-13.442 F300
N18040 G3 X94.949 Y44.154 I-0.171 J0.104 F1200
N18050 G1 X94.778 Y44.259
N18060 X94.734 Y44.286 Z-1.218
N18070 X94.693 Y44.311 Z-1.198
N18080 X94.658 Y44.332 Z-1.166
N18090 X94.631 Y44.349 Z-1.125
N18100 X94.614 Y44.359 Z-1.077
N18110 X94.608 Y44.363 Z-1.025
N18120 G0 Z1
N18130 X94.399 Y44.022
N18140 Z0.5
N18150 G1 Z-0.725 F60
N18160 Z-1.05
N18170 X94.405 Y44.018 Z-1.102
N18180 X94.422 Y44.008 Z-1.15
N18190 X94.449 Y43.991 Z-1.191
N18200 X94.485 Y43.97 Z-1.223
N18210 X94.526 Y43.944 Z-1.243
N18220 X94.57 Y43.917 Z-1.25
N18230 X94.741 Y43.813
N18240 G3 X95.015 Y43.879 I0.104 J0.171
N18250 G2 X95.492 Y44.64 I34.985 J-21.379 F300
N18260 X96.333 Y45.1 I0.842 J-0.54
N18270 G1 X102.75
N18280 Z-1.05
N18290 X106.75
N18300 Z-1.25 F60
N18310 X119.583 F300
N18320 Z-1.05
N18330 X123.583
N18340 Z-1.25 F60
N18350 X136.417 F300
N18360 Z-1.05
N18370 X140.417
N18380 Z-1.25 F60
N18390 X153.25 F300
N18400 Z-1.05
N18410 X157.25
N18420 Z-1.25 F60
N18430 X163.667 F300
N18440 G2 X164.509 Y44.64 I0 J-1
N18450 X168.734 Y35.942 I-34.509 J-22.14
N18460 G1 Z-1.05
N18470 G2 X169.86 Y32.103 I-38.734 J-13.442
N18480 G1 Z-1.25 F60
N18490 G2 Y12.897 I-39.86 J-9.603 F300
N18500 G1 Z-1.05
N18510 G2 X168.734 Y9.058 I-39.86 J9.603
N18520 G1 Z-1.25 F60
N18530 G2 X164.509 Y0.36 I-38.734 J13.442 F300
N18540 X163.667 Y-0.1 I-0.842 J0.54
N18550 G1 X157.25
N18560 Z-1.05
N18570 X153.25
N18580 Z-1.25 F60
N18590 X140.417 F300
N18600 Z-1.05
N18610 X136.417
N18620 Z-1.25 F60
N18630 X123.583 F300
N18640 Z-1.05
N18650 X119.583
N18660 Z-1.25 F60
N18670 X106.75 F300
N18680 Z-1.05
N18690 X102.75
N18700 Z-1.25 F60
N18710 X96.333 F300
N18720 G2 X95.492 Y0.36 I0 J1
N18730 X91.266 Y9.058 I34.508 J22.14
N18740 G1 Z-1.05
N18750 G2 X90.141 Y12.897 I38.734 J13.442
N18760 G1 Z-1.25 F60
N18770 G2 Y32.103 I39.859 J9.603 F300
N18780 G1 Z-1.05
N18790 G2 X91.266 Y35.942 I39.859 J-9.603
N18800 G1 Z-1.25 F60
N18810 G2 X95.015 Y43.879 I38.734 J-13.442 F300
N18820 G3 X94.949 Y44.154 I-0.171 J0.104 F1200
N18830 G1 X94.778 Y44.259
N18840 X94.734 Y44.286 Z-1.243
N18850 X94.693 Y44.311 Z-1.223
N18860 X94.658 Y44.332 Z-1.191
N18870 X94.631 Y44.349 Z-1.15
N18880 X94.614 Y44.359 Z-1.102
N18890 X94.608 Y44.363 Z-1.05
N18900 G0 Z1
N18910 X94.399 Y44.022
N18920 Z0.5
N18930 G1 Z-0.75 F60
N18940 Z-1.075
N18950 X94.405 Y44.018 Z-1.127
N18960 X94.422 Y44.008 Z-1.175
N18970 X94.449 Y43.991 Z-1.216
N18980 X94.485 Y43.97 Z-1.248
N18990 X94.526 Y43.944 Z-1.268
N19000 X94.57 Y43.917 Z-1.275
N19010 X94.741 Y43.813
N19020 G3 X95.015 Y43.879 I0.104 J0.171
N19030 G2 X95.492 Y44.64 I34.985 J-21.379 F300
N19040 X96.333 Y45.1 I0.842 J-0.54
N19050 G1 X102.75
N19060 Z-1.05
N19070 X106.75
N19080 Z-1.275 F60
N19090 X119.583 F300
N19100 Z-1.05
N19110 X123.583
N19120 Z-1.275 F60
N19130 X136.417 F300
N19140 Z-1.05
N19150 X140.417
N19160 Z-1.275 F60
N19170 X153.25 F300
N19180 Z-1.05
N19190 X157.25
N19200 Z-1.275 F60
N19210 X163.667 F300
N19220 G2 X164.509 Y44.64 I0 J-1
N19230 X168.734 Y35.942 I-34.509 J-22.14
N19240 G1 Z-1.05
N19250 G2 X169.86 Y32.103 I-38.734 J-13.442
N19260 G1 Z-1.275 F60
N19270 G2 Y12.897 I-39.86 J-9.603 F300
N19280 G1 Z-1.05
N19290 G2 X168.734 Y9.058 I-39.86 J9.603
N19300 G1 Z-1.275 F60
N19310 G2 X164.509 Y0.36 I-38.734 J13.442 F300
N19320 X163.667 Y-0.1 I-0.842 J0.54
N19330 G1 X157.25
N19340 Z-1.05
N19350 X153.25
N19360 Z-1.275 F60
N19370 X140.417 F300
N19380 Z-1.05
N19390 X136.417
N19400 Z-1.275 F60
N19410 X123.583 F300
N19420 Z-1.05
N19430 X119.583
N19440 Z-1.275 F60
N19450 X106.75 F300
N19460 Z-1.05
N19470 X102.75
N19480 Z-1.275 F60
N19490 X96.333 F300
N19500 G2 X95.492 Y0.36 I0 J1
N19510 X91.266 Y9.058 I34.508 J22.14
N19520 G1 Z-1.05
N19530 G2 X90.141 Y12.897 I38.734 J13.442
N19540 G1 Z-1.275 F60
N19550 G2 Y32.103 I39.859 J9.603 F300
N19560 G1 Z-1.05
N19570 G2 X91.266 Y35.942 I39.859 J-9.603
N19580 G1 Z-1.275 F60
N19590 G2 X95.015 Y43.879 I38.734 J-13.442 F300
N19600 G3 X94.949 Y44.154 I-0.171 J0.104 F1200
N19610 G1 X94.778 Y44.259
N19620 X94.734 Y44.286 Z-1.268
N19630 X94.693 Y44.311 Z-1.248
N19640 X94.658 Y44.332 Z-1.216
N19650 X94.631 Y44.349 Z-1.175
N19660 X94.614 Y44.359 Z-1.127
N19670 X94.608 Y44.363 Z-1.075
N19680 G0 Z1
N19690 X94.399 Y44.022
N19700 Z0.5
N19710 G1 Z-0.775 F60
N19720 Z-1.1
N19730 X94.405 Y44.018 Z-1.152
N19740 X94.422 Y44.008 Z-1.2
N19750 X94.449 Y43.991 Z-1.241
N19760 X94.485 Y43.97 Z-1.273
N19770 X94.526 Y43.944 Z-1.293
N19780 X94.57 Y43.917 Z-1.3
N19790 X94.741 Y43.813
N19800 G3 X95.015 Y43.879 I0.104 J0.171
N19810 G2 X95.492 Y44.64 I34.985 J-21.379 F300
N19820 X96.333 Y45.1 I0.842 J-0.54
N19830 G1 X102.75
N19840 Z-1.05
N19850 X106.75
N19860 Z-1.3 F60
N19870 X119.583 F300
N19880 Z-1.05
N19890 X123.583
N19900 Z-1.3 F60
N19910 X136.417 F300
N19920 Z-1.05
N19930 X140.417
N19940 Z-1.3 F60
N19950 X153.25 F300
N19960 Z-1.05
N19970 X157.25
N19980 Z-1.3 F60
N19990 X163.667 F300
N20000 G2 X164.509 Y44.64 I0 J-1
N20010 X168.734 Y35.942 I-34.509 J-22.14
N20020 G1 Z-1.05
N20030 G2 X169.86 Y32.103 I-38.734 J-13.442
N20040 G1 Z-1.3 F60
N20050 G2 Y12.897 I-39.86 J-9.603 F300
N20060 G1 Z-1.05
N20070 G2 X168.734 Y9.058 I-39.86 J9.603
N20080 G1 Z-1.3 F60
N20090 G2 X164.509 Y0.36 I-38.734 J13.442 F300
N20100 X163.667 Y-0.1 I-0.842 J0.54
N20110 G1 X157.25
N20120 Z-1.05
N20130 X153.25
N20140 Z-1.3 F60
N20150 X140.417 F300
N20160 Z-1.05
N20170 X136.417
N20180 Z-1.3 F60
N20190 X123.583 F300
N20200 Z-1.05
N20210 X119.583
N20220 Z-1.3 F60
N20230 X106.75 F300
N20240 Z-1.05
N20250 X102.75
N20260 Z-1.3 F60
N20270 X96.333 F300
N20280 G2 X95.492 Y0.36 I0 J1
N20290 X91.266 Y9.058 I34.508 J22.14
N20300 G1 Z-1.05
N20310 G2 X90.141 Y12.897 I38.734 J13.442
N20320 G1 Z-1.3 F60
N20330 G2 Y32.103 I39.859 J9.603 F300
N20340 G1 Z-1.05
N20350 G2 X91.266 Y35.942 I39.859 J-9.603
N20360 G1 Z-1.3 F60
N20370 G2 X95.015 Y43.879 I38.734 J-13.442 F300
N20380 G3 X94.949 Y44.154 I-0.171 J0.104 F1200
N20390 G1 X94.778 Y44.259
N20400 X94.734 Y44.286 Z-1.293
N20410 X94.693 Y44.311 Z-1.273
N20420 X94.658 Y44.332 Z-1.241
N20430 X94.631 Y44.349 Z-1.2
N20440 X94.614 Y44.359 Z-1.152
N20450 X94.608 Y44.363 Z-1.1
N20460 G0 Z1
N20470 X94.399 Y44.022
N20480 Z0.5
N20490 G1 Z-0.8 F60
N20500 Z-1.125
N20510 X94.405 Y44.018 Z-1.177
N20520 X94.422 Y44.008 Z-1.225
N20530 X94.449 Y43.991 Z-1.266
N20540 X94.485 Y43.97 Z-1.298
N20550 X94.526 Y43.944 Z-1.318
N20560 X94.57 Y43.917 Z-1.325
N20570 X94.741 Y43.813
N20580 G3 X95.015 Y43.879 I0.104 J0.171
N20590 G2 X95.492 Y44.64 I34.985 J-21.379 F300
N20600 X96.333 Y45.1 I0.842 J-0.54
N20610 G1 X102.75
N20620 Z-1.05
N20630 X106.75
N20640 Z-1.325 F60
N20650 X119.583 F300
N20660 Z-1.05
N20670 X123.583
N20680 Z-1.325 F60
N20690 X136.417 F300
N20700 Z-1.05
N20710 X140.417
N20720 Z-1.325 F60
N20730 X153.25 F300
N20740 Z-1.05
N20750 X157.25
N20760 Z-1.325 F60
N20770 X163.667 F300
N20780 G2 X164.509 Y44.64 I0 J-1
N20790 X168.734 Y35.942 I-34.509 J-22.14
N20800 G1 Z-1.05
N20810 G2 X169.86 Y32.103 I-38.734 J-13.442
N20820 G1 Z-1.325 F60
N20830 G2 Y12.897 I-39.86 J-9.603 F300
N20840 G1 Z-1.05
N20850 G2 X168.734 Y9.058 I-39.86 J9.603
N20860 G1 Z-1.325 F60
N20870 G2 X164.509 Y0.36 I-38.734 J13.442 F300
N20880 X163.667 Y-0.1 I-0.842 J0.54
N20890 G1 X157.25
N20900 Z-1.05
N20910 X153.25
N20920 Z-1.325 F60
N20930 X140.417 F300
N20940 Z-1.05
N20950 X136.417
N20960 Z-1.325 F60
N20970 X123.583 F300
N20980 Z-1.05
N20990 X119.583
N21000 Z-1.325 F60
N21010 X106.75 F300
N21020 Z-1.05
N21030 X102.75
N21040 Z-1.325 F60
N21050 X96.333 F300
N21060 G2 X95.492 Y0.36 I0 J1
N21070 X91.266 Y9.058 I34.508 J22.14
N21080 G1 Z-1.05
N21090 G2 X90.141 Y12.897 I38.734 J13.442
N21100 G1 Z-1.325 F60
N21110 G2 Y32.103 I39.859 J9.603 F300
N21120 G1 Z-1.05
N21130 G2 X91.266 Y35.942 I39.859 J-9.603
N21140 G1 Z-1.325 F60
N21150 G2 X95.015 Y43.879 I38.734 J-13.442 F300
N21160 G3 X94.949 Y44.154 I-0.171 J0.104 F1200
N21170 G1 X94.778 Y44.259
N21180 X94.734 Y44.286 Z-1.318
N21190 X94.693 Y44.311 Z-1.298
N21200 X94.658 Y44.332 Z-1.266
N21210 X94.631 Y44.349 Z-1.225
N21220 X94.614 Y44.359 Z-1.177
N21230 X94.608 Y44.363 Z-1.125
N21240 G0 Z1
N21250 X94.399 Y44.022
N21260 Z0.5
N21270 G1 Z-0.825 F60
N21280 Z-1.15
N21290 X94.405 Y44.018 Z-1.202
N21300 X94.422 Y44.008 Z-1.25
N21310 X94.449 Y43.991 Z-1.291
N21320 X94.485 Y43.97 Z-1.323
N21330 X94.526 Y43.944 Z-1.343
N21340 X94.57 Y43.917 Z-1.35
N21350 X94.741 Y43.813
N21360 G3 X95.015 Y43.879 I0.104 J0.171
N21370 G2 X95.492 Y44.64 I34.985 J-21.379 F300
N21380 X96.333 Y45.1 I0.842 J-0.54
N21390 G1 X102.75
N21400 Z-1.05
N21410 X106.75
N21420 Z-1.35 F60
N21430 X119.583 F300
N21440 Z-1.05
N21450 X123.583
N21460 Z-1.35 F60
N21470 X136.417 F300
N21480 Z-1.05
N21490 X140.417
N21500 Z-1.35 F60
N21510 X153.25 F300
N21520 Z-1.05
N21530 X157.25
N21540 Z-1.35 F60
N21550 X163.667 F300
N21560 G2 X164.509 Y44.64 I0 J-1
N21570 X168.734 Y35.942 I-34.509 J-22.14
N21580 G1 Z-1.05
N21590 G2 X169.86 Y32.103 I-38.734 J-13.442
N21600 G1 Z-1.35 F60
N21610 G2 Y12.897 I-39.86 J-9.603 F300
N21620 G1 Z-1.05
N21630 G2 X168.734 Y9.058 I-39.86 J9.603
N21640 G1 Z-1.35 F60
N21650 G2 X164.509 Y0.36 I-38.734 J13.442 F300
N21660 X163.667 Y-0.1 I-0.842 J0.54
N21670 G1 X157.25
N21680 Z-1.05
N21690 X153.25
N21700 Z-1.35 F60
N21710 X140.417 F300
N21720 Z-1.05
N21730 X136.417
N21740 Z-1.35 F60
N21750 X123.583 F300
N21760 Z-1.05
N21770 X119.583
N21780 Z-1.35 F60
N21790 X106.75 F300
N21800 Z-1.05
N21810 X102.75
N21820 Z-1.35 F60
N21830 X96.333 F300
N21840 G2 X95.492 Y0.36 I0 J1
N21850 X91.266 Y9.058 I34.508 J22.14
N21860 G1 Z-1.05
N21870 G2 X90.141 Y12.897 I38.734 J13.442
N21880 G1 Z-1.35 F60
N21890 G2 Y32.103 I39.859 J9.603 F300
N21900 G1 Z-1.05
N21910 G2 X91.266 Y35.942 I39.859 J-9.603
N21920 G1 Z-1.35 F60
N21930 G2 X95.015 Y43.879 I38.734 J-13.442 F300
N21940 G3 X94.949 Y44.154 I-0.171 J0.104 F1200
N21950 G1 X94.778 Y44.259
N21960 X94.734 Y44.286 Z-1.343
N21970 X94.693 Y44.311 Z-1.323
N21980 X94.658 Y44.332 Z-1.291
N21990 X94.631 Y44.349 Z-1.25
N22000 X94.614 Y44.359 Z-1.202
N22010 X94.608 Y44.363 Z-1.15
N22020 G0 Z1
N22030 X94.399 Y44.022
N22040 Z0.5
N22050 G1 Z-0.85 F60
N22060 Z-1.175
N22070 X94.405 Y44.018 Z-1.227
N22080 X94.422 Y44.008 Z-1.275
N22090 X94.449 Y43.991 Z-1.316
N22100 X94.485 Y43.97 Z-1.348
N22110 X94.526 Y43.944 Z-1.368
N22120 X94.57 Y43.917 Z-1.375
N22130 X94.741 Y43.813
N22140 G3 X95.015 Y43.879 I0.104 J0.171
N22150 G2 X95.492 Y44.64 I34.985 J-21.379 F300
N22160 X96.333 Y45.1 I0.842 J-0.54
N22170 G1 X102.75
N22180 Z-1.05
N22190 X106.75
N22200 Z-1.375 F60
N22210 X119.583 F300
N22220 Z-1.05
N22230 X123.583
N22240 Z-1.375 F60
N22250 X136.417 F300
N22260 Z-1.05
N22270 X140.417
N22280 Z-1.375 F60
N22290 X153.25 F300
N22300 Z-1.05
N22310 X157.25
N22320 Z-1.375 F60
N22330 X163.667 F300
N22340 G2 X164.509 Y44.64 I0 J-1
N22350 X168.734 Y35.942 I-34.509 J-22.14
N22360 G1 Z-1.05
N22370 G2 X169.86 Y32.103 I-38.734 J-13.442
N22380 G1 Z-1.375 F60
N22390 G2 Y12.897 I-39.86 J-9.603 F300
N22400 G1 Z-1.05
N22410 G2 X168.734 Y9.058 I-39.86 J9.603
N22420 G1 Z-1.375 F60
N22430 G2 X164.509 Y0.36 I-38.734 J13.442 F300
N22440 X163.667 Y-0.1 I-0.842 J0.54
N22450 G1 X157.25
N22460 Z-1.05
N22470 X153.25
N22480 Z-1.375 F60
N22490 X140.417 F300
N22500 Z-1.05
N22510 X136.417
N22520 Z-1.375 F60
N22530 X123.583 F300
N22540 Z-1.05
N22550 X119.583
N22560 Z-1.375 F60
N22570 X106.75 F300
N22580 Z-1.05
N22590 X102.75
N22600 Z-1.375 F60
N22610 X96.333 F300
N22620 G2 X95.492 Y0.36 I0 J1
N22630 X91.266 Y9.058 I34.508 J22.14
N22640 G1 Z-1.05
N22650 G2 X90.141 Y12.897 I38.734 J13.442
N22660 G1 Z-1.375 F60
N22670 G2 Y32.103 I39.859 J9.603 F300
N22680 G1 Z-1.05
N22690 G2 X91.266 Y35.942 I39.859 J-9.603
N22700 G1 Z-1.375 F60
N22710 G2 X95.015 Y43.879 I38.734 J-13.442 F300
N22720 G3 X94.949 Y44.154 I-0.171 J0.104 F1200
N22730 G1 X94.778 Y44.259
N22740 X94.734 Y44.286 Z-1.368
N22750 X94.693 Y44.311 Z-1.348
N22760 X94.658 Y44.332 Z-1.316
N22770 X94.631 Y44.349 Z-1.275
N22780 X94.614 Y44.359 Z-1.227
N22790 X94.608 Y44.363 Z-1.175
N22800 G0 Z1
N22810 X94.399 Y44.022
N22820 Z0.5
N22830 G1 Z-0.875 F60
N22840 Z-1.2
N22850 X94.405 Y44.018 Z-1.252
N22860 X94.422 Y44.008 Z-1.3
N22870 X94.449 Y43.991 Z-1.341
N22880 X94.485 Y43.97 Z-1.373
N22890 X94.526 Y43.944 Z-1.393
N22900 X94.57 Y43.917 Z-1.4
N22910 X94.741 Y43.813
N22920 G3 X95.015 Y43.879 I0.104 J0.171
N22930 G2 X95.492 Y44.64 I34.985 J-21.379 F300
N22940 X96.333 Y45.1 I0.842 J-0.54
N22950 G1 X102.75
N22960 Z-1.05
N22970 X106.75
N22980 Z-1.4 F60
N22990 X119.583 F300
N23000 Z-1.05
N23010 X123.583
N23020 Z-1.4 F60
N23030 X136.417 F300
N23040 Z-1.05
N23050 X140.417
N23060 Z-1.4 F60
N23070 X153.25 F300
N23080 Z-1.05
N23090 X157.25
N23100 Z-1.4 F60
N23110 X163.667 F300
N23120 G2 X164.509 Y44.64 I0 J-1
N23130 X168.734 Y35.942 I-34.509 J-22.14
N23140 G1 Z-1.05
N23150 G2 X169.86 Y32.103 I-38.734 J-13.442
N23160 G1 Z-1.4 F60
N23170 G2 Y12.897 I-39.86 J-9.603 F300
N23180 G1 Z-1.05
N23190 G2 X168.734 Y9.058 I-39.86 J9.603
N23200 G1 Z-1.4 F60
N23210 G2 X164.509 Y0.36 I-38.734 J13.442 F300
N23220 X163.667 Y-0.1 I-0.842 J0.54
N23230 G1 X157.25
N23240 Z-1.05
N23250 X153.25
N23260 Z-1.4 F60
N23270 X140.417 F300
N23280 Z-1.05
N23290 X136.417
N23300 Z-1.4 F60
N23310 X123.583 F300
N23320 Z-1.05
N23330 X119.583
N23340 Z-1.4 F60
N23350 X106.75 F300
N23360 Z-1.05
N23370 X102.75
N23380 Z-1.4 F60
N23390 X96.333 F300
N23400 G2 X95.492 Y0.36 I0 J1
N23410 X91.266 Y9.058 I34.508 J22.14
N23420 G1 Z-1.05
N23430 G2 X90.141 Y12.897 I38.734 J13.442
N23440 G1 Z-1.4 F60
N23450 G2 Y32.103 I39.859 J9.603 F300
N23460 G1 Z-1.05
N23470 G2 X91.266 Y35.942 I39.859 J-9.603
N23480 G1 Z-1.4 F60
N23490 G2 X95.015 Y43.879 I38.734 J-13.442 F300
N23500 G3 X94.949 Y44.154 I-0.171 J0.104 F1200
N23510 G1 X94.778 Y44.259
N23520 X94.734 Y44.286 Z-1.393
N23530 X94.693 Y44.311 Z-1.373
N23540 X94.658 Y44.332 Z-1.341
N23550 X94.631 Y44.349 Z-1.3
N23560 X94.614 Y44.359 Z-1.252
N23570 X94.608 Y44.363 Z-1.2
N23580 G0 Z1
N23590 X94.399 Y44.022
N23600 Z0.5
N23610 G1 Z-0.9 F60
N23620 Z-1.225
N23630 X94.405 Y44.018 Z-1.277
N23640 X94.422 Y44.008 Z-1.325
N23650 X94.449 Y43.991 Z-1.366
N23660 X94.485 Y43.97 Z-1.398
N23670 X94.526 Y43.944 Z-1.418
N23680 X94.57 Y43.917 Z-1.425
N23690 X94.741 Y43.813
N23700 G3 X95.015 Y43.879 I0.104 J0.171
N23710 G2 X95.492 Y44.64 I34.985 J-21.379 F300
N23720 X96.333 Y45.1 I0.842 J-0.54
N23730 G1 X102.75
N23740 Z-1.05
N23750 X106.75
N23760 Z-1.425 F60
N23770 X119.583 F300
N23780 Z-1.05
N23790 X123.583
N23800 Z-1.425 F60
N23810 X136.417 F300
N23820 Z-1.05
N23830 X140.417
N23840 Z-1.425 F60
N23850 X153.25 F300
N23860 Z-1.05
N23870 X157.25
N23880 Z-1.425 F60
N23890 X163.667 F300
N23900 G2 X164.509 Y44.64 I0 J-1
N23910 X168.734 Y35.942 I-34.509 J-22.14
N23920 G1 Z-1.05
N23930 G2 X169.86 Y32.103 I-38.734 J-13.442
N23940 G1 Z-1.425 F60
N23950 G2 Y12.897 I-39.86 J-9.603 F300
N23960 G1 Z-1.05
N23970 G2 X168.734 Y9.058 I-39.86 J9.603
N23980 G1 Z-1.425 F60
N23990 G2 X164.509 Y0.36 I-38.734 J13.442 F300
N24000 X163.667 Y-0.1 I-0.842 J0.54
N24010 G1 X157.25
N24020 Z-1.05
N24030 X153.25
N24040 Z-1.425 F60
N24050 X140.417 F300
N24060 Z-1.05
N24070 X136.417
N24080 Z-1.425 F60
N24090 X123.583 F300
N24100 Z-1.05
N24110 X119.583
N24120 Z-1.425 F60
N24130 X106.75 F300
N24140 Z-1.05
N24150 X102.75
N24160 Z-1.425 F60
N24170 X96.333 F300
N24180 G2 X95.492 Y0.36 I0 J1
N24190 X91.266 Y9.058 I34.508 J22.14
N24200 G1 Z-1.05
N24210 G2 X90.141 Y12.897 I38.734 J13.442
N24220 G1 Z-1.425 F60
N24230 G2 Y32.103 I39.859 J9.603 F300
N24240 G1 Z-1.05
N24250 G2 X91.266 Y35.942 I39.859 J-9.603
N24260 G1 Z-1.425 F60
N24270 G2 X95.015 Y43.879 I38.734 J-13.442 F300
N24280 G3 X94.949 Y44.154 I-0.171 J0.104 F1200
N24290 G1 X94.778 Y44.259
N24300 X94.734 Y44.286 Z-1.418
N24310 X94.693 Y44.311 Z-1.398
N24320 X94.658 Y44.332 Z-1.366
N24330 X94.631 Y44.349 Z-1.325
N24340 X94.614 Y44.359 Z-1.277
N24350 X94.608 Y44.363 Z-1.225
N24360 G0 Z1
N24370 X94.399 Y44.022
N24380 Z0.5
N24390 G1 Z-0.925 F60
N24400 Z-1.25
N24410 X94.405 Y44.018 Z-1.302
N24420 X94.422 Y44.008 Z-1.35
N24430 X94.449 Y43.991 Z-1.391
N24440 X94.485 Y43.97 Z-1.423
N24450 X94.526 Y43.944 Z-1.443
N24460 X94.57 Y43.917 Z-1.45
N24470 X94.741 Y43.813
N24480 G3 X95.015 Y43.879 I0.104 J0.171
N24490 G2 X95.492 Y44.64 I34.985 J-21.379 F300
N24500 X96.333 Y45.1 I0.842 J-0.54
N24510 G1 X102.75
N24520 Z-1.05
N24530 X106.75
N24540 Z-1.45 F60
N24550 X119.583 F300
N24560 Z-1.05
N24570 X123.583
N24580 Z-1.45 F60
N24590 X136.417 F300
N24600 Z-1.05
N24610 X140.417
N24620 Z-1.45 F60
N24630 X153.25 F300
N24640 Z-1.05
N24650 X157.25
N24660 Z-1.45 F60
N24670 X163.667 F300
N24680 G2 X164.509 Y44.64 I0 J-1
N24690 X168.734 Y35.942 I-34.509 J-22.14
N24700 G1 Z-1.05
N24710 G2 X169.86 Y32.103 I-38.734 J-13.442
N24720 G1 Z-1.45 F60
N24730 G2 Y12.897 I-39.86 J-9.603 F300
N24740 G1 Z-1.05
N24750 G2 X168.734 Y9.058 I-39.86 J9.603
N24760 G1 Z-1.45 F60
N24770 G2 X164.509 Y0.36 I-38.734 J13.442 F300
N24780 X163.667 Y-0.1 I-0.842 J0.54
N24790 G1 X157.25
N24800 Z-1.05
N24810 X153.25
N24820 Z-1.45 F60
N24830 X140.417 F300
N24840 Z-1.05
N24850 X136.417
N24860 Z-1.45 F60
N24870 X123.583 F300
N24880 Z-1.05
N24890 X119.583
N24900 Z-1.45 F60
N24910 X106.75 F300
N24920 Z-1.05
N24930 X102.75
N24940 Z-1.45 F60
N24950 X96.333 F300
N24960 G2 X95.492 Y0.36 I0 J1
N24970 X91.266 Y9.058 I34.508 J22.14
N24980 G1 Z-1.05
N24990 G2 X90.141 Y12.897 I38.734 J13.442
N25000 G1 Z-1.45 F60
N25010 G2 Y32.103 I39.859 J9.603 F300
N25020 G1 Z-1.05
N25030 G2 X91.266 Y35.942 I39.859 J-9.603
N25040 G1 Z-1.45 F60
N25050 G2 X95.015 Y43.879 I38.734 J-13.442 F300
N25060 G3 X94.949 Y44.154 I-0.171 J0.104 F1200
N25070 G1 X94.778 Y44.259
N25080 X94.734 Y44.286 Z-1.443
N25090 X94.693 Y44.311 Z-1.423
N25100 X94.658 Y44.332 Z-1.391
N25110 X94.631 Y44.349 Z-1.35
N25120 X94.614 Y44.359 Z-1.302
N25130 X94.608 Y44.363 Z-1.25
N25140 G0 Z1
N25150 X94.399 Y44.022
N25160 Z0.5
N25170 G1 Z-0.95 F60
N25180 Z-1.275
N25190 X94.405 Y44.018 Z-1.327
N25200 X94.422 Y44.008 Z-1.375
N25210 X94.449 Y43.991 Z-1.416
N25220 X94.485 Y43.97 Z-1.448
N25230 X94.526 Y43.944 Z-1.468
N25240 X94.57 Y43.917 Z-1.475
N25250 X94.741 Y43.813
N25260 G3 X95.015 Y43.879 I0.104 J0.171
N25270 G2 X95.492 Y44.64 I34.985 J-21.379 F300
N25280 X96.333 Y45.1 I0.842 J-0.54
N25290 G1 X102.75
N25300 Z-1.05
N25310 X106.75
N25320 Z-1.475 F60
N25330 X119.583 F300
N25340 Z-1.05
N25350 X123.583
N25360 Z-1.475 F60
N25370 X136.417 F300
N25380 Z-1.05
N25390 X140.417
N25400 Z-1.475 F60
N25410 X153.25 F300
N25420 Z-1.05
N25430 X157.25
N25440 Z-1.475 F60
N25450 X163.667 F300
N25460 G2 X164.509 Y44.64 I0 J-1
N25470 X168.734 Y35.942 I-34.509 J-22.14
N25480 G1 Z-1.05
N25490 G2 X169.86 Y32.103 I-38.734 J-13.442
N25500 G1 Z-1.475 F60
N25510 G2 Y12.897 I-39.86 J-9.603 F300
N25520 G1 Z-1.05
N25530 G2 X168.734 Y9.058 I-39.86 J9.603
N25540 G1 Z-1.475 F60
N25550 G2 X164.509 Y0.36 I-38.734 J13.442 F300
N25560 X163.667 Y-0.1 I-0.842 J0.54
N25570 G1 X157.25
N25580 Z-1.05
N25590 X153.25
N25600 Z-1.475 F60
N25610 X140.417 F300
N25620 Z-1.05
N25630 X136.417
N25640 Z-1.475 F60
N25650 X123.583 F300
N25660 Z-1.05
N25670 X119.583
N25680 Z-1.475 F60
N25690 X106.75 F300
N25700 Z-1.05
N25710 X102.75
N25720 Z-1.475 F60
N25730 X96.333 F300
N25740 G2 X95.492 Y0.36 I0 J1
N25750 X91.266 Y9.058 I34.508 J22.14
N25760 G1 Z-1.05
N25770 G2 X90.141 Y12.897 I38.734 J13.442
N25780 G1 Z-1.475 F60
N25790 G2 Y32.103 I39.859 J9.603 F300
N25800 G1 Z-1.05
N25810 G2 X91.266 Y35.942 I39.859 J-9.603
N25820 G1 Z-1.475 F60
N25830 G2 X95.015 Y43.879 I38.734 J-13.442 F300
N25840 G3 X94.949 Y44.154 I-0.171 J0.104 F1200
N25850 G1 X94.778 Y44.259
N25860 X94.734 Y44.286 Z-1.468
N25870 X94.693 Y44.311 Z-1.448
N25880 X94.658 Y44.332 Z-1.416
N25890 X94.631 Y44.349 Z-1.375
N25900 X94.614 Y44.359 Z-1.327
N25910 X94.608 Y44.363 Z-1.275
N25920 G0 Z1
N25930 X94.399 Y44.022
N25940 Z0.5
N25950 G1 Z-0.975 F60
N25960 Z-1.3
N25970 X94.405 Y44.018 Z-1.352
N25980 X94.422 Y44.008 Z-1.4
N25990 X94.449 Y43.991 Z-1.441
N26000 X94.485 Y43.97 Z-1.473
N26010 X94.526 Y43.944 Z-1.493
N26020 X94.57 Y43.917 Z-1.5
N26030 X94.741 Y43.813
N26040 G3 X95.015 Y43.879 I0.104 J0.171
N26050 G2 X95.492 Y44.64 I34.985 J-21.379 F300
N26060 X96.333 Y45.1 I0.842 J-0.54
N26070 G1 X102.75
N26080 Z-1.05
N26090 X106.75
N26100 Z-1.5 F60
N26110 X119.583 F300
N26120 Z-1.05
N26130 X123.583
N26140 Z-1.5 F60
N26150 X136.417 F300
N26160 Z-1.05
N26170 X140.417
N26180 Z-1.5 F60
N26190 X153.25 F300
N26200 Z-1.05
N26210 X157.25
N26220 Z-1.5 F60
N26230 X163.667 F300
N26240 G2 X164.509 Y44.64 I0 J-1
N26250 X168.734 Y35.942 I-34.509 J-22.14
N26260 G1 Z-1.05
N26270 G2 X169.86 Y32.103 I-38.734 J-13.442
N26280 G1 Z-1.5 F60
N26290 G2 Y12.897 I-39.86 J-9.603 F300
N26300 G1 Z-1.05
N26310 G2 X168.734 Y9.058 I-39.86 J9.603
N26320 G1 Z-1.5 F60
N26330 G2 X164.509 Y0.36 I-38.734 J13.442 F300
N26340 X163.667 Y-0.1 I-0.842 J0.54
N26350 G1 X157.25
N26360 Z-1.05
N26370 X153.25
N26380 Z-1.5 F60
N26390 X140.417 F300
N26400 Z-1.05
N26410 X136.417
N26420 Z-1.5 F60
N26430 X123.583 F300
N26440 Z-1.05
N26450 X119.583
N26460 Z-1.5 F60
N26470 X106.75 F300
N26480 Z-1.05
N26490 X102.75
N26500 Z-1.5 F60
N26510 X96.333 F300
N26520 G2 X95.492 Y0.36 I0 J1
N26530 X91.266 Y9.058 I34.508 J22.14
N26540 G1 Z-1.05
N26550 G2 X90.141 Y12.897 I38.734 J13.442
N26560 G1 Z-1.5 F60
N26570 G2 Y32.103 I39.859 J9.603 F300
N26580 G1 Z-1.05
N26590 G2 X91.266 Y35.942 I39.859 J-9.603
N26600 G1 Z-1.5 F60
N26610 G2 X95.015 Y43.879 I38.734 J-13.442 F300
N26620 G3 X94.949 Y44.154 I-0.171 J0.104 F1200
N26630 G1 X94.778 Y44.259
N26640 X94.734 Y44.286 Z-1.493
N26650 X94.693 Y44.311 Z-1.473
N26660 X94.658 Y44.332 Z-1.441
N26670 X94.631 Y44.349 Z-1.4
N26680 X94.614 Y44.359 Z-1.352
N26690 X94.608 Y44.363 Z-1.3
N26700 G0 Z1
N26710 X94.399 Y44.022
N26720 Z0.5
N26730 G1 Z-1 F60
N26740 Z-1.325
N26750 X94.405 Y44.018 Z-1.377
N26760 X94.422 Y44.008 Z-1.425
N26770 X94.449 Y43.991 Z-1.466
N26780 X94.485 Y43.97 Z-1.498
N26790 X94.526 Y43.944 Z-1.518
N26800 X94.57 Y43.917 Z-1.525
N26810 X94.741 Y43.813
N26820 G3 X95.015 Y43.879 I0.104 J0.171
N26830 G2 X95.492 Y44.64 I34.985 J-21.379 F300
N26840 X96.333 Y45.1 I0.842 J-0.54
N26850 G1 X102.75
N26860 Z-1.05
N26870 X106.75
N26880 Z-1.525 F60
N26890 X119.583 F300
N26900 Z-1.05
N26910 X123.583
N26920 Z-1.525 F60
N26930 X136.417 F300
N26940 Z-1.05
N26950 X140.417
N26960 Z-1.525 F60
N26970 X153.25 F300
N26980 Z-1.05
N26990 X157.25
N27000 Z-1.525 F60
N27010 X163.667 F300
N27020 G2 X164.509 Y44.64 I0 J-1
N27030 X168.734 Y35.942 I-34.509 J-22.14
N27040 G1 Z-1.05
N27050 G2 X169.86 Y32.103 I-38.734 J-13.442
N27060 G1 Z-1.525 F60
N27070 G2 Y12.897 I-39.86 J-9.603 F300
N27080 G1 Z-1.05
N27090 G2 X168.734 Y9.058 I-39.86 J9.603
N27100 G1 Z-1.525 F60
N27110 G2 X164.509 Y0.36 I-38.734 J13.442 F300
N27120 X163.667 Y-0.1 I-0.842 J0.54
N27130 G1 X157.25
N27140 Z-1.05
N27150 X153.25
N27160 Z-1.525 F60
N27170 X140.417 F300
N27180 Z-1.05
N27190 X136.417
N27200 Z-1.525 F60
N27210 X123.583 F300
N27220 Z-1.05
N27230 X119.583
N27240 Z-1.525 F60
N27250 X106.75 F300
N27260 Z-1.05
N27270 X102.75
N27280 Z-1.525 F60
N27290 X96.333 F300
N27300 G2 X95.492 Y0.36 I0 J1
N27310 X91.266 Y9.058 I34.508 J22.14
N27320 G1 Z-1.05
N27330 G2 X90.141 Y12.897 I38.734 J13.442
N27340 G1 Z-1.525 F60
N27350 G2 Y32.103 I39.859 J9.603 F300
N27360 G1 Z-1.05
N27370 G2 X91.266 Y35.942 I39.859 J-9.603
N27380 G1 Z-1.525 F60
N27390 G2 X95.015 Y43.879 I38.734 J-13.442 F300
N27400 G3 X94.949 Y44.154 I-0.171 J0.104 F1200
N27410 G1 X94.778 Y44.259
N27420 X94.734 Y44.286 Z-1.518
N27430 X94.693 Y44.311 Z-1.498
N27440 X94.658 Y44.332 Z-1.466
N27450 X94.631 Y44.349 Z-1.425
N27460 X94.614 Y44.359 Z-1.377
N27470 X94.608 Y44.363 Z-1.325
N27480 G0 Z1
N27490 X94.399 Y44.022
N27500 Z0.5
N27510 G1 Z-1.025 F60
N27520 Z-1.35
N27530 X94.405 Y44.018 Z-1.402
N27540 X94.422 Y44.008 Z-1.45
N27550 X94.449 Y43.991 Z-1.491
N27560 X94.485 Y43.97 Z-1.523
N27570 X94.526 Y43.944 Z-1.543
N27580 X94.57 Y43.917 Z-1.55
N27590 X94.741 Y43.813
N27600 G3 X95.015 Y43.879 I0.104 J0.171
N27610 G2 X95.492 Y44.64 I34.985 J-21.379 F300
N27620 X96.333 Y45.1 I0.842 J-0.54
N27630 G1 X102.75
N27640 Z-1.05
N27650 X106.75
N27660 Z-1.55 F60
N27670 X119.583 F300
N27680 Z-1.05
N27690 X123.583
N27700 Z-1.55 F60
N27710 X136.417 F300
N27720 Z-1.05
N27730 X140.417
N27740 Z-1.55 F60
N27750 X153.25 F300
N27760 Z-1.05
N27770 X157.25
N27780 Z-1.55 F60
N27790 X163.667 F300
N27800 G2 X164.509 Y44.64 I0 J-1
N27810 X168.734 Y35.942 I-34.509 J-22.14
N27820 G1 Z-1.05
N27830 G2 X169.86 Y32.103 I-38.734 J-13.442
N27840 G1 Z-1.55 F60
N27850 G2 Y12.897 I-39.86 J-9.603 F300
N27860 G1 Z-1.05
N27870 G2 X168.734 Y9.058 I-39.86 J9.603
N27880 G1 Z-1.55 F60
N27890 G2 X164.509 Y0.36 I-38.734 J13.442 F300
N27900 X163.667 Y-0.1 I-0.842 J0.54
N27910 G1 X157.25
N27920 Z-1.05
N27930 X153.25
N27940 Z-1.55 F60
N27950 X140.417 F300
N27960 Z-1.05
N27970 X136.417
N27980 Z-1.55 F60
N27990 X123.583 F300
N28000 Z-1.05
N28010 X119.583
N28020 Z-1.55 F60
N28030 X106.75 F300
N28040 Z-1.05
N28050 X102.75
N28060 Z-1.55 F60
N28070 X96.333 F300
N28080 G2 X95.492 Y0.36 I0 J1
N28090 X91.266 Y9.058 I34.508 J22.14
N28100 G1 Z-1.05
N28110 G2 X90.141 Y12.897 I38.734 J13.442
N28120 G1 Z-1.55 F60
N28130 G2 Y32.103 I39.859 J9.603 F300
N28140 G1 Z-1.05
N28150 G2 X91.266 Y35.942 I39.859 J-9.603
N28160 G1 Z-1.55 F60
N28170 G2 X95.015 Y43.879 I38.734 J-13.442 F300
N28180 G3 X94.949 Y44.154 I-0.171 J0.104 F1200
N28190 G1 X94.778 Y44.259
N28200 X94.734 Y44.286 Z-1.543
N28210 X94.693 Y44.311 Z-1.523
N28220 X94.658 Y44.332 Z-1.491
N28230 X94.631 Y44.349 Z-1.45
N28240 X94.614 Y44.359 Z-1.402
N28250 X94.608 Y44.363 Z-1.35
N28260 G0 Z1
N28270 X94.879 Y99.796
N28280 Z0.5
N28290 G1 Z0.175 F60
N28300 X94.884 Y99.792 Z0.123
N28310 X94.901 Y99.781 Z0.075
N28320 X94.928 Y99.764 Z0.034
N28330 X94.963 Y99.742 Z0.002
N28340 X95.003 Y99.716 Z-0.018
N28350 X95.047 Y99.688 Z-0.025
N28360 X95.215 Y99.58
N28370 G3 X95.492 Y99.64 I0.108 J0.168
N28380 G2 X96.333 Y100.1 I0.842 J-0.54 F300
N28390 G1 X163.667
N28400 G2 X164.509 Y99.64 I0 J-1
N28410 Y55.36 I-34.509 J-22.14
N28420 X163.667 Y54.9 I-0.842 J0.54
N28430 G1 X96.333
N28440 G2 X95.492 Y55.36 I0 J1
N28450 Y99.64 I34.508 J22.14
N28460 G3 X95.431 Y99.916 I-0.168 J0.108 F1200
N28470 G1 X95.263 Y100.024
N28480 X95.22 Y100.052 Z-0.018
N28490 X95.179 Y100.078 Z0.002
N28500 X95.144 Y100.101 Z0.034
N28510 X95.117 Y100.118 Z0.075
N28520 X95.1 Y100.129 Z0.123
N28530 X95.095 Y100.132 Z0.175
N28540 G0 Z1
N28550 X94.879 Y99.796
N28560 Z0.5
N28570 G1 Z0.475 F60
N28580 Z0.15
N28590 X94.884 Y99.792 Z0.098
N28600 X94.901 Y99.781 Z0.05
N28610 X94.928 Y99.764 Z0.009
N28620 X94.963 Y99.742 Z-0.023
N28630 X95.003 Y99.716 Z-0.043
N28640 X95.047 Y99.688 Z-0.05
N28650 X95.215 Y99.58
N28660 G3 X95.492 Y99.64 I0.108 J0.168
N28670 G2 X96.333 Y100.1 I0.842 J-0.54 F300
N28680 G1 X163.667
N28690 G2 X164.509 Y99.64 I0 J-1
N28700 Y55.36 I-34.509 J-22.14
N28710 X163.667 Y54.9 I-0.842 J0.54
N28720 G1 X96.333
N28730 G2 X95.492 Y55.36 I0 J1
N28740 Y99.64 I34.508 J22.14
N28750 G3 X95.431 Y99.916 I-0.168 J0.108 F1200
N28760 G1 X95.263 Y100.024
N28770 X95.22 Y100.052 Z-0.043
N28780 X95.179 Y100.078 Z-0.023
N28790 X95.144 Y100.101 Z0.009
N28800 X95.117 Y100.118 Z0.05
N28810 X95.1 Y100.129 Z0.098
N28820 X95.095 Y100.132 Z0.15
N28830 G0 Z1
N28840 X94.879 Y99.796
N28850 Z0.5
N28860 G1 Z0.45 F60
N28870 Z0.125
N28880 X94.884 Y99.792 Z0.073
N28890 X94.901 Y99.781 Z0.025
N28900 X94.928 Y99.764 Z-0.016
N28910 X94.963 Y99.742 Z-0.048
N28920 X95.003 Y99.716 Z-0.068
N28930 X95.047 Y99.688 Z-0.075
N28940 X95.215 Y99.58
N28950 G3 X95.492 Y99.64 I0.108 J0.168
N28960 G2 X96.333 Y100.1 I0.842 J-0.54 F300
N28970 G1 X163.667
N28980 G2 X164.509 Y99.64 I0 J-1
N28990 Y55.36 I-34.509 J-22.14
N29000 X163.667 Y54.9 I-0.842 J0.54
N29010 G1 X96.333
N29020 G2 X95.492 Y55.36 I0 J1
N29030 Y99.64 I34.508 J22.14
N29040 G3 X95.431 Y99.916 I-0.168 J0.108 F1200
N29050 G1 X95.263 Y100.024
N29060 X95.22 Y100.052 Z-0.068
N29070 X95.179 Y100.078 Z-0.048
N29080 X95.144 Y100.101 Z-0.016
N29090 X95.117 Y100.118 Z0.025
N29100 X95.1 Y100.129 Z0.073
N29110 X95.095 Y100.132 Z0.125
N29120 G0 Z1
N29130 X94.879 Y99.796
N29140 Z0.5
N29150 G1 Z0.425 F60
N29160 Z0.1
N29170 X94.884 Y99.792 Z0.048
N29180 X94.901 Y99.781 Z0
N29190 X94.928 Y99.764 Z-0.041
N29200 X94.963 Y99.742 Z-0.073
N29210 X95.003 Y99.716 Z-0.093
N29220 X95.047 Y99.688 Z-0.1
N29230 X95.215 Y99.58
N29240 G3 X95.492 Y99.64 I0.108 J0.168
N29250 G2 X96.333 Y100.1 I0.842 J-0.54 F300
N29260 G1 X163.667
N29270 G2 X164.509 Y99.64 I0 J-1
N29280 Y55.36 I-34.509 J-22.14
N29290 X163.667 Y54.9 I-0.842 J0.54
N29300 G1 X96.333
N29310 G2 X95.492 Y55.36 I0 J1
N29320 Y99.64 I34.508 J22.14
N29330 G3 X95.431 Y99.916 I-0.168 J0.108 F1200
N29340 G1 X95.263 Y100.024
N29350 X95.22 Y100.052 Z-0.093
N29360 X95.179 Y100.078 Z-0.073
N29370 X95.144 Y100.101 Z-0.041
N29380 X95.117 Y100.118 Z0
N29390 X95.1 Y100.129 Z0.048
N29400 X95.095 Y100.132 Z0.1
N29410 G0 Z1
N29420 X94.879 Y99.796
N29430 Z0.5
N29440 G1 Z0.4 F60
N29450 Z0.075
N29460 X94.884 Y99.792 Z0.023
N29470 X94.901 Y99.781 Z-0.025
N29480 X94.928 Y99.764 Z-0.066
N29490 X94.963 Y99.742 Z-0.098
N29500 X95.003 Y99.716 Z-0.118
N29510 X95.047 Y99.688 Z-0.125
N29520 X95.215 Y99.58
N29530 G3 X95.492 Y99.64 I0.108 J0.168
N29540 G2 X96.333 Y100.1 I0.842 J-0.54 F300
N29550 G1 X163.667
N29560 G2 X164.509 Y99.64 I0 J-1
N29570 Y55.36 I-34.509 J-22.14
N29580 X163.667 Y54.9 I-0.842 J0.54
N29590 G1 X96.333
N29600 G2 X95.492 Y55.36 I0 J1
N29610 Y99.64 I34.508 J22.14
N29620 G3 X95.431 Y99.916 I-0.168 J0.108 F1200
N29630 G1 X95.263 Y100.024
N29640 X95.22 Y100.052 Z-0.118
N29650 X95.179 Y100.078 Z-0.098
N29660 X95.144 Y100.101 Z-0.066
N29670 X95.117 Y100.118 Z-0.025
N29680 X95.1 Y100.129 Z0.023
N29690 X95.095 Y100.132 Z0.075
N29700 G0 Z1
N29710 X94.879 Y99.796
N29720 Z0.5
N29730 G1 Z0.375 F60
N29740 Z0.05
N29750 X94.884 Y99.792 Z-0.002
N29760 X94.901 Y99.781 Z-0.05
N29770 X94.928 Y99.764 Z-0.091
N29780 X94.963 Y99.742 Z-0.123
N29790 X95.003 Y99.716 Z-0.143
N29800 X95.047 Y99.688 Z-0.15
N29810 X95.215 Y99.58
N29820 G3 X95.492 Y99.64 I0.108 J0.168
N29830 G2 X96.333 Y100.1 I0.842 J-0.54 F300
N29840 G1 X163.667
N29850 G2 X164.509 Y99.64 I0 J-1
N29860 Y55.36 I-34.509 J-22.14
N29870 X163.667 Y54.9 I-0.842 J0.54
N29880 G1 X96.333
N29890 G2 X95.492 Y55.36 I0 J1
N29900 Y99.64 I34.508 J22.14
N29910 G3 X95.431 Y99.916 I-0.168 J0.108 F1200
N29920 G1 X95.263 Y100.024
N29930 X95.22 Y100.052 Z-0.143
N29940 X95.179 Y100.078 Z-0.123
N29950 X95.144 Y100.101 Z-0.091
N29960 X95.117 Y100.118 Z-0.05
N29970 X95.1 Y100.129 Z-0.002
N29980 X95.095 Y100.132 Z0.05
N29990 G0 Z1
N30000 X94.879 Y99.796
N30010 Z0.5
N30020 G1 Z0.35 F60
N30030 Z0.025
N30040 X94.884 Y99.792 Z-0.027
N30050 X94.901 Y99.781 Z-0.075
N30060 X94.928 Y99.764 Z-0.116
N30070 X94.963 Y99.742 Z-0.148
N30080 X95.003 Y99.716 Z-0.168
N30090 X95.047 Y99.688 Z-0.175
N30100 X95.215 Y99.58
N30110 G3 X95.492 Y99.64 I0.108 J0.168
N30120 G2 X96.333 Y100.1 I0.842 J-0.54 F300
N30130 G1 X163.667
N30140 G2 X164.509 Y99.64 I0 J-1
N30150 Y55.36 I-34.509 J-22.14
N30160 X163.667 Y54.9 I-0.842 J0.54
N30170 G1 X96.333
N30180 G2 X95.492 Y55.36 I0 J1
N30190 Y99.64 I34.508 J22.14
N30200 G3 X95.431 Y99.916 I-0.168 J0.108 F1200
N30210 G1 X95.263 Y100.024
N30220 X95.22 Y100.052 Z-0.168
N30230 X95.179 Y100.078 Z-0.148
N30240 X95.144 Y100.101 Z-0.116
N30250 X95.117 Y100.118 Z-0.075
N30260 X95.1 Y100.129 Z-0.027
N30270 X95.095 Y100.132 Z0.025
N30280 G0 Z1
N30290 X94.879 Y99.796
N30300 Z0.5
N30310 G1 Z0.325 F60
N30320 Z0
N30330 X94.884 Y99.792 Z-0.052
N30340 X94.901 Y99.781 Z-0.1
N30350 X94.928 Y99.764 Z-0.141
N30360 X94.963 Y99.742 Z-0.173
N30370 X95.003 Y99.716 Z-0.193
N30380 X95.047 Y99.688 Z-0.2
N30390 X95.215 Y99.58
N30400 G3 X95.492 Y99.64 I0.108 J0.168
N30410 G2 X96.333 Y100.1 I0.842 J-0.54 F300
N30420 G1 X163.667
N30430 G2 X164.509 Y99.64 I0 J-1
N30440 Y55.36 I-34.509 J-22.14
N30450 X163.667 Y54.9 I-0.842 J0.54
N30460 G1 X96.333
N30470 G2 X95.492 Y55.36 I0 J1
N30480 Y99.64 I34.508 J22.14
N30490 G3 X95.431 Y99.916 I-0.168 J0.108 F1200
N30500 G1 X95.263 Y100.024
N30510 X95.22 Y100.052 Z-0.193
N30520 X95.179 Y100.078 Z-0.173
N30530 X95.144 Y100.101 Z-0.141
N30540 X95.117 Y100.118 Z-0.1
N30550 X95.1 Y100.129 Z-0.052
N30560 X95.095 Y100.132 Z0
N30570 G0 Z1
N30580 X94.879 Y99.796
N30590 Z0.5
N30600 G1 Z0.3 F60
N30610 Z-0.025
N30620 X94.884 Y99.792 Z-0.077
N30630 X94.901 Y99.781 Z-0.125
N30640 X94.928 Y99.764 Z-0.166
N30650 X94.963 Y99.742 Z-0.198
N30660 X95.003 Y99.716 Z-0.218
N30670 X95.047 Y99.688 Z-0.225
N30680 X95.215 Y99.58
N30690 G3 X95.492 Y99.64 I0.108 J0.168
N30700 G2 X96.333 Y100.1 I0.842 J-0.54 F300
N30710 G1 X163.667
N30720 G2 X164.509 Y99.64 I0 J-1
N30730 Y55.36 I-34.509 J-22.14
N30740 X163.667 Y54.9 I-0.842 J0.54
N30750 G1 X96.333
N30760 G2 X95.492 Y55.36 I0 J1
N30770 Y99.64 I34.508 J22.14
N30780 G3 X95.431 Y99.916 I-0.168 J0.108 F1200
N30790 G1 X95.263 Y100.024
N30800 X95.22 Y100.052 Z-0.218
N30810 X95.179 Y100.078 Z-0.198
N30820 X95.144 Y100.101 Z-0.166
N30830 X95.117 Y100.118 Z-0.125
N30840 X95.1 Y100.129 Z-0.077
N30850 X95.095 Y100.132 Z-0.025
N30860 G0 Z1
N30870 X94.879 Y99.796
N30880 Z0.5
N30890 G1 Z0.275 F60
N30900 Z-0.05
N30910 X94.884 Y99.792 Z-0.102
N30920 X94.901 Y99.781 Z-0.15
N30930 X94.928 Y99.764 Z-0.191
N30940 X94.963 Y99.742 Z-0.223
N30950 X95.003 Y99.716 Z-0.243
N30960 X95.047 Y99.688 Z-0.25
N30970 X95.215 Y99.58
N30980 G3 X95.492 Y99.64 I0.108 J0.168
N30990 G2 X96.333 Y100.1 I0.842 J-0.54 F300
N31000 G1 X163.667
N31010 G2 X164.509 Y99.64 I0 J-1
N31020 Y55.36 I-34.509 J-22.14
N31030 X163.667 Y54.9 I-0.842 J0.54
N31040 G1 X96.333
N31050 G2 X95.492 Y55.36 I0 J1
N31060 Y99.64 I34.508 J22.14
N31070 G3 X95.431 Y99.916 I-0.168 J0.108 F1200
N31080 G1 X95.263 Y100.024
N31090 X95.22 Y100.052 Z-0.243
N31100 X95.179 Y100.078 Z-0.223
N31110 X95.144 Y100.101 Z-0.191
N31120 X95.117 Y100.118 Z-0.15
N31130 X95.1 Y100.129 Z-0.102
N31140 X95.095 Y100.132 Z-0.05
N31150 G0 Z1
N31160 X94.879 Y99.796
N31170 Z0.5
N31180 G1 Z0.25 F60
N31190 Z-0.075
N31200 X94.884 Y99.792 Z-0.127
N31210 X94.901 Y99.781 Z-0.175
N31220 X94.928 Y99.764 Z-0.216
N31230 X94.963 Y99.742 Z-0.248
N31240 X95.003 Y99.716 Z-0.268
N31250 X95.047 Y99.688 Z-0.275
N31260 X95.215 Y99.58
N31270 G3 X95.492 Y99.64 I0.108 J0.168
N31280 G2 X96.333 Y100.1 I0.842 J-0.54 F300
N31290 G1 X163.667
N31300 G2 X164.509 Y99.64 I0 J-1
N31310 Y55.36 I-34.509 J-22.14
N31320 X163.667 Y54.9 I-0.842 J0.54
N31330 G1 X96.333
N31340 G2 X95.492 Y55.36 I0 J1
N31350 Y99.64 I34.508 J22.14
N31360 G3 X95.431 Y99.916 I-0.168 J0.108 F1200
N31370 G1 X95.263 Y100.024
N31380 X95.22 Y100.052 Z-0.268
N31390 X95.179 Y100.078 Z-0.248
N31400 X95.144 Y100.101 Z-0.216
N31410 X95.117 Y100.118 Z-0.175
N31420 X95.1 Y100.129 Z-0.127
N31430 X95.095 Y100.132 Z-0.075
N31440 G0 Z1
N31450 X94.879 Y99.796
N31460 Z0.5
N31470 G1 Z0.225 F60
N31480 Z-0.1
N31490 X94.884 Y99.792 Z-0.152
N31500 X94.901 Y99.781 Z-0.2
N31510 X94.928 Y99.764 Z-0.241
N31520 X94.963 Y99.742 Z-0.273
N31530 X95.003 Y99.716 Z-0.293
N31540 X95.047 Y99.688 Z-0.3
N31550 X95.215 Y99.58
N31560 G3 X95.492 Y99.64 I0.108 J0.168
N31570 G2 X96.333 Y100.1 I0.842 J-0.54 F300
N31580 G1 X163.667
N31590 G2 X164.509 Y99.64 I0 J-1
N31600 Y55.36 I-34.509 J-22.14
N31610 X163.667 Y54.9 I-0.842 J0.54
N31620 G1 X96.333
N31630 G2 X95.492 Y55.36 I0 J1
N31640 Y99.64 I34.508 J22.14
N31650 G3 X95.431 Y99.916 I-0.168 J0.108 F1200
N31660 G1 X95.263 Y100.024
N31670 X95.22 Y100.052 Z-0.293
N31680 X95.179 Y100.078 Z-0.273
N31690 X95.144 Y100.101 Z-0.241
N31700 X95.117 Y100.118 Z-0.2
N31710 X95.1 Y100.129 Z-0.152
N31720 X95.095 Y100.132 Z-0.1
N31730 G0 Z1
N31740 X94.879 Y99.796
N31750 Z0.5
N31760 G1 Z0.2 F60
N31770 Z-0.125
N31780 X94.884 Y99.792 Z-0.177
N31790 X94.901 Y99.781 Z-0.225
N31800 X94.928 Y99.764 Z-0.266
N31810 X94.963 Y99.742 Z-0.298
N31820 X95.003 Y99.716 Z-0.318
N31830 X95.047 Y99.688 Z-0.325
N31840 X95.215 Y99.58
N31850 G3 X95.492 Y99.64 I0.108 J0.168
N31860 G2 X96.333 Y100.1 I0.842 J-0.54 F300
N31870 G1 X163.667
N31880 G2 X164.509 Y99.64 I0 J-1
N31890 Y55.36 I-34.509 J-22.14
N31900 X163.667 Y54.9 I-0.842 J0.54
N31910 G1 X96.333
N31920 G2 X95.492 Y55.36 I0 J1
N31930 Y99.64 I34.508 J22.14
N31940 G3 X95.431 Y99.916 I-0.168 J0.108 F1200
N31950 G1 X95.263 Y100.024
N31960 X95.22 Y100.052 Z-0.318
N31970 X95.179 Y100.078 Z-0.298
N31980 X95.144 Y100.101 Z-0.266
N31990 X95.117 Y100.118 Z-0.225
N32000 X95.1 Y100.129 Z-0.177
N32010 X95.095 Y100.132 Z-0.125
N32020 G0 Z1
N32030 X94.879 Y99.796
N32040 Z0.5
N32050 G1 Z0.175 F60
N32060 Z-0.15
N32070 X94.884 Y99.792 Z-0.202
N32080 X94.901 Y99.781 Z-0.25
N32090 X94.928 Y99.764 Z-0.291
N32100 X94.963 Y99.742 Z-0.323
N32110 X95.003 Y99.716 Z-0.343
N32120 X95.047 Y99.688 Z-0.35
N32130 X95.215 Y99.58
N32140 G3 X95.492 Y99.64 I0.108 J0.168
N32150 G2 X96.333 Y100.1 I0.842 J-0.54 F300
N32160 G1 X163.667
N32170 G2 X164.509 Y99.64 I0 J-1
N32180 Y55.36 I-34.509 J-22.14
N32190 X163.667 Y54.9 I-0.842 J0.54
N32200 G1 X96.333
N32210 G2 X95.492 Y55.36 I0 J1
N32220 Y99.64 I34.508 J22.14
N32230 G3 X95.431 Y99.916 I-0.168 J0.108 F1200
N32240 G1 X95.263 Y100.024
N32250 X95.22 Y100.052 Z-0.343
N32260 X95.179 Y100.078 Z-0.323
N32270 X95.144 Y100.101 Z-0.291
N32280 X95.117 Y100.118 Z-0.25
N32290 X95.1 Y100.129 Z-0.202
N32300 X95.095 Y100.132 Z-0.15
N32310 G0 Z1
N32320 X94.879 Y99.796
N32330 Z0.5
N32340 G1 Z0.15 F60
N32350 Z-0.175
N32360 X94.884 Y99.792 Z-0.227
N32370 X94.901 Y99.781 Z-0.275
N32380 X94.928 Y99.764 Z-0.316
N32390 X94.963 Y99.742 Z-0.348
N32400 X95.003 Y99.716 Z-0.368
N32410 X95.047 Y99.688 Z-0.375
N32420 X95.215 Y99.58
N32430 G3 X95.492 Y99.64 I0.108 J0.168
N32440 G2 X96.333 Y100.1 I0.842 J-0.54 F300
N32450 G1 X163.667
N32460 G2 X164.509 Y99.64 I0 J-1
N32470 Y55.36 I-34.509 J-22.14
N32480 X163.667 Y54.9 I-0.842 J0.54
N32490 G1 X96.333
N32500 G2 X95.492 Y55.36 I0 J1
N32510 Y99.64 I34.508 J22.14
N32520 G3 X95.431 Y99.916 I-0.168 J0.108 F1200
N32530 G1 X95.263 Y100.024
N32540 X95.22 Y100.052 Z-0.368
N32550 X95.179 Y100.078 Z-0.348
N32560 X95.144 Y100.101 Z-0.316
N32570 X95.117 Y100.118 Z-0.275
N32580 X95.1 Y100.129 Z-0.227
N32590 X95.095 Y100.132 Z-0.175
N32600 G0 Z1
N32610 X94.879 Y99.796
N32620 Z0.5
N32630 G1 Z0.125 F60
N32640 Z-0.2
N32650 X94.884 Y99.792 Z-0.252
N32660 X94.901 Y99.781 Z-0.3
N32670 X94.928 Y99.764 Z-0.341
N32680 X94.963 Y99.742 Z-0.373
N32690 X95.003 Y99.716 Z-0.393
N32700 X95.047 Y99.688 Z-0.4
N32710 X95.215 Y99.58
N32720 G3 X95.492 Y99.64 I0.108 J0.168
N32730 G2 X96.333 Y100.1 I0.842 J-0.54 F300
N32740 G1 X163.667
N32750 G2 X164.509 Y99.64 I0 J-1
N32760 Y55.36 I-34.509 J-22.14
N32770 X163.667 Y54.9 I-0.842 J0.54
N32780 G1 X96.333
N32790 G2 X95.492 Y55.36 I0 J1
N32800 Y99.64 I34.508 J22.14
N32810 G3 X95.431 Y99.916 I-0.168 J0.108 F1200
N32820 G1 X95.263 Y100.024
N32830 X95.22 Y100.052 Z-0.393
N32840 X95.179 Y100.078 Z-0.373
N32850 X95.144 Y100.101 Z-0.341
N32860 X95.117 Y100.118 Z-0.3
N32870 X95.1 Y100.129 Z-0.252
N32880 X95.095 Y100.132 Z-0.2
N32890 G0 Z1
N32900 X94.879 Y99.796
N32910 Z0.5
N32920 G1 Z0.1 F60
N32930 Z-0.225
N32940 X94.884 Y99.792 Z-0.277
N32950 X94.901 Y99.781 Z-0.325
N32960 X94.928 Y99.764 Z-0.366
N32970 X94.963 Y99.742 Z-0.398
N32980 X95.003 Y99.716 Z-0.418
N32990 X95.047 Y99.688 Z-0.425
N33000 X95.215 Y99.58
N33010 G3 X95.492 Y99.64 I0.108 J0.168
N33020 G2 X96.333 Y100.1 I0.842 J-0.54 F300
N33030 G1 X163.667
N33040 G2 X164.509 Y99.64 I0 J-1
N33050 Y55.36 I-34.509 J-22.14
N33060 X163.667 Y54.9 I-0.842 J0.54
N33070 G1 X96.333
N33080 G2 X95.492 Y55.36 I0 J1
N33090 Y99.64 I34.508 J22.14
N33100 G3 X95.431 Y99.916 I-0.168 J0.108 F1200
N33110 G1 X95.263 Y100.024
N33120 X95.22 Y100.052 Z-0.418
N33130 X95.179 Y100.078 Z-0.398
N33140 X95.144 Y100.101 Z-0.366
N33150 X95.117 Y100.118 Z-0.325
N33160 X95.1 Y100.129 Z-0.277
N33170 X95.095 Y100.132 Z-0.225
N33180 G0 Z1
N33190 X94.879 Y99.796
N33200 Z0.5
N33210 G1 Z0.075 F60
N33220 Z-0.25
N33230 X94.884 Y99.792 Z-0.302
N33240 X94.901 Y99.781 Z-0.35
N33250 X94.928 Y99.764 Z-0.391
N33260 X94.963 Y99.742 Z-0.423
N33270 X95.003 Y99.716 Z-0.443
N33280 X95.047 Y99.688 Z-0.45
N33290 X95.215 Y99.58
N33300 G3 X95.492 Y99.64 I0.108 J0.168
N33310 G2 X96.333 Y100.1 I0.842 J-0.54 F300
N33320 G1 X163.667
N33330 G2 X164.509 Y99.64 I0 J-1
N33340 Y55.36 I-34.509 J-22.14
N33350 X163.667 Y54.9 I-0.842 J0.54
N33360 G1 X96.333
N33370 G2 X95.492 Y55.36 I0 J1
N33380 Y99.64 I34.508 J22.14
N33390 G3 X95.431 Y99.916 I-0.168 J0.108 F1200
N33400 G1 X95.263 Y100.024
N33410 X95.22 Y100.052 Z-0.443
N33420 X95.179 Y100.078 Z-0.423
N33430 X95.144 Y100.101 Z-0.391
N33440 X95.117 Y100.118 Z-0.35
N33450 X95.1 Y100.129 Z-0.302
N33460 X95.095 Y100.132 Z-0.25
N33470 G0 Z1
N33480 X94.879 Y99.796
N33490 Z0.5
N33500 G1 Z0.05 F60
N33510 Z-0.275
N33520 X94.884 Y99.792 Z-0.327
N33530 X94.901 Y99.781 Z-0.375
N33540 X94.928 Y99.764 Z-0.416
N33550 X94.963 Y99.742 Z-0.448
N33560 X95.003 Y99.716 Z-0.468
N33570 X95.047 Y99.688 Z-0.475
N33580 X95.215 Y99.58
N33590 G3 X95.492 Y99.64 I0.108 J0.168
N33600 G2 X96.333 Y100.1 I0.842 J-0.54 F300
N33610 G1 X163.667
N33620 G2 X164.509 Y99.64 I0 J-1
N33630 Y55.36 I-34.509 J-22.14
N33640 X163.667 Y54.9 I-0.842 J0.54
N33650 G1 X96.333
N33660 G2 X95.492 Y55.36 I0 J1
N33670 Y99.64 I34.508 J22.14
N33680 G3 X95.431 Y99.916 I-0.168 J0.108 F1200
N33690 G1 X95.263 Y100.024
N33700 X95.22 Y100.052 Z-0.468
N33710 X95.179 Y100.078 Z-0.448
N33720 X95.144 Y100.101 Z-0.416
N33730 X95.117 Y100.118 Z-0.375
N33740 X95.1 Y100.129 Z-0.327
N33750 X95.095 Y100.132 Z-0.275
N33760 G0 Z1
N33770 X94.879 Y99.796
N33780 Z0.5
N33790 G1 Z0.025 F60
N33800 Z-0.3
N33810 X94.884 Y99.792 Z-0.352
N33820 X94.901 Y99.781 Z-0.4
N33830 X94.928 Y99.764 Z-0.441
N33840 X94.963 Y99.742 Z-0.473
N33850 X95.003 Y99.716 Z-0.493
N33860 X95.047 Y99.688 Z-0.5
N33870 X95.215 Y99.58
N33880 G3 X95.492 Y99.64 I0.108 J0.168
N33890 G2 X96.333 Y100.1 I0.842 J-0.54 F300
N33900 G1 X163.667
N33910 G2 X164.509 Y99.64 I0 J-1
N33920 Y55.36 I-34.509 J-22.14
N33930 X163.667 Y54.9 I-0.842 J0.54
N33940 G1 X96.333
N33950 G2 X95.492 Y55.36 I0 J1
N33960 Y99.64 I34.508 J22.14
N33970 G3 X95.431 Y99.916 I-0.168 J0.108 F1200
N33980 G1 X95.263 Y100.024
N33990 X95.22 Y100.052 Z-0.493
N34000 X95.179 Y100.078 Z-0.473
N34010 X95.144 Y100.101 Z-0.441
N34020 X95.117 Y100.118 Z-0.4
N34030 X95.1 Y100.129 Z-0.352
N34040 X95.095 Y100.132 Z-0.3
N34050 G0 Z1
N34060 X94.879 Y99.796
N34070 Z0.5
N34080 G1 Z0 F60
N34090 Z-0.325
N34100 X94.884 Y99.792 Z-0.377
N34110 X94.901 Y99.781 Z-0.425
N34120 X94.928 Y99.764 Z-0.466
N34130 X94.963 Y99.742 Z-0.498
N34140 X95.003 Y99.716 Z-0.518
N34150 X95.047 Y99.688 Z-0.525
N34160 X95.215 Y99.58
N34170 G3 X95.492 Y99.64 I0.108 J0.168
N34180 G2 X96.333 Y100.1 I0.842 J-0.54 F300
N34190 G1 X163.667
N34200 G2 X164.509 Y99.64 I0 J-1
N34210 Y55.36 I-34.509 J-22.14
N34220 X163.667 Y54.9 I-0.842 J0.54
N34230 G1 X96.333
N34240 G2 X95.492 Y55.36 I0 J1
N34250 Y99.64 I34.508 J22.14
N34260 G3 X95.431 Y99.916 I-0.168 J0.108 F1200
N34270 G1 X95.263 Y100.024
N34280 X95.22 Y100.052 Z-0.518
N34290 X95.179 Y100.078 Z-0.498
N34300 X95.144 Y100.101 Z-0.466
N34310 X95.117 Y100.118 Z-0.425
N34320 X95.1 Y100.129 Z-0.377
N34330 X95.095 Y100.132 Z-0.325
N34340 G0 Z1
N34350 X94.879 Y99.796
N34360 Z0.5
N34370 G1 Z-0.025 F60
N34380 Z-0.35
N34390 X94.884 Y99.792 Z-0.402
N34400 X94.901 Y99.781 Z-0.45
N34410 X94.928 Y99.764 Z-0.491
N34420 X94.963 Y99.742 Z-0.523
N34430 X95.003 Y99.716 Z-0.543
N34440 X95.047 Y99.688 Z-0.55
N34450 X95.215 Y99.58
N34460 G3 X95.492 Y99.64 I0.108 J0.168
N34470 G2 X96.333 Y100.1 I0.842 J-0.54 F300
N34480 G1 X163.667
N34490 G2 X164.509 Y99.64 I0 J-1
N34500 Y55.36 I-34.509 J-22.14
N34510 X163.667 Y54.9 I-0.842 J0.54
N34520 G1 X96.333
N34530 G2 X95.492 Y55.36 I0 J1
N34540 Y99.64 I34.508 J22.14
N34550 G3 X95.431 Y99.916 I-0.168 J0.108 F1200
N34560 G1 X95.263 Y100.024
N34570 X95.22 Y100.052 Z-0.543
N34580 X95.179 Y100.078 Z-0.523
N34590 X95.144 Y100.101 Z-0.491
N34600 X95.117 Y100.118 Z-0.45
N34610 X95.1 Y100.129 Z-0.402
N34620 X95.095 Y100.132 Z-0.35
N34630 G0 Z1
N34640 X94.879 Y99.796
N34650 Z0.5
N34660 G1 Z-0.05 F60
N34670 Z-0.375
N34680 X94.884 Y99.792 Z-0.427
N34690 X94.901 Y99.781 Z-0.475
N34700 X94.928 Y99.764 Z-0.516
N34710 X94.963 Y99.742 Z-0.548
N34720 X95.003 Y99.716 Z-0.568
N34730 X95.047 Y99.688 Z-0.575
N34740 X95.215 Y99.58
N34750 G3 X95.492 Y99.64 I0.108 J0.168
N34760 G2 X96.333 Y100.1 I0.842 J-0.54 F300
N34770 G1 X163.667
N34780 G2 X164.509 Y99.64 I0 J-1
N34790 Y55.36 I-34.509 J-22.14
N34800 X163.667 Y54.9 I-0.842 J0.54
N34810 G1 X96.333
N34820 G2 X95.492 Y55.36 I0 J1
N34830 Y99.64 I34.508 J22.14
N34840 G3 X95.431 Y99.916 I-0.168 J0.108 F1200
N34850 G1 X95.263 Y100.024
N34860 X95.22 Y100.052 Z-0.568
N34870 X95.179 Y100.078 Z-0.548
N34880 X95.144 Y100.101 Z-0.516
N34890 X95.117 Y100.118 Z-0.475
N34900 X95.1 Y100.129 Z-0.427
N34910 X95.095 Y100.132 Z-0.375
N34920 G0 Z1
N34930 X94.879 Y99.796
N34940 Z0.5
N34950 G1 Z-0.075 F60
N34960 Z-0.4
N34970 X94.884 Y99.792 Z-0.452
N34980 X94.901 Y99.781 Z-0.5
N34990 X94.928 Y99.764 Z-0.541
N35000 X94.963 Y99.742 Z-0.573
N35010 X95.003 Y99.716 Z-0.593
N35020 X95.047 Y99.688 Z-0.6
N35030 X95.215 Y99.58
N35040 G3 X95.492 Y99.64 I0.108 J0.168
N35050 G2 X96.333 Y100.1 I0.842 J-0.54 F300
N35060 G1 X163.667
N35070 G2 X164.509 Y99.64 I0 J-1
N35080 Y55.36 I-34.509 J-22.14
N35090 X163.667 Y54.9 I-0.842 J0.54
N35100 G1 X96.333
N35110 G2 X95.492 Y55.36 I0 J1
N35120 Y99.64 I34.508 J22.14
N35130 G3 X95.431 Y99.916 I-0.168 J0.108 F1200
N35140 G1 X95.263 Y100.024
N35150 X95.22 Y100.052 Z-0.593
N35160 X95.179 Y100.078 Z-0.573
N35170 X95.144 Y100.101 Z-0.541
N35180 X95.117 Y100.118 Z-0.5
N35190 X95.1 Y100.129 Z-0.452
N35200 X95.095 Y100.132 Z-0.4
N35210 G0 Z1
N35220 X94.879 Y99.796
N35230 Z0.5
N35240 G1 Z-0.1 F60
N35250 Z-0.425
N35260 X94.884 Y99.792 Z-0.477
N35270 X94.901 Y99.781 Z-0.525
N35280 X94.928 Y99.764 Z-0.566
N35290 X94.963 Y99.742 Z-0.598
N35300 X95.003 Y99.716 Z-0.618
N35310 X95.047 Y99.688 Z-0.625
N35320 X95.215 Y99.58
N35330 G3 X95.492 Y99.64 I0.108 J0.168
N35340 G2 X96.333 Y100.1 I0.842 J-0.54 F300
N35350 G1 X163.667
N35360 G2 X164.509 Y99.64 I0 J-1
N35370 Y55.36 I-34.509 J-22.14
N35380 X163.667 Y54.9 I-0.842 J0.54
N35390 G1 X96.333
N35400 G2 X95.492 Y55.36 I0 J1
N35410 Y99.64 I34.508 J22.14
N35420 G3 X95.431 Y99.916 I-0.168 J0.108 F1200
N35430 G1 X95.263 Y100.024
N35440 X95.22 Y100.052 Z-0.618
N35450 X95.179 Y100.078 Z-0.598
N35460 X95.144 Y100.101 Z-0.566
N35470 X95.117 Y100.118 Z-0.525
N35480 X95.1 Y100.129 Z-0.477
N35490 X95.095 Y100.132 Z-0.425
N35500 G0 Z1
N35510 X94.879 Y99.796
N35520 Z0.5
N35530 G1 Z-0.125 F60
N35540 Z-0.45
N35550 X94.884 Y99.792 Z-0.502
N35560 X94.901 Y99.781 Z-0.55
N35570 X94.928 Y99.764 Z-0.591
N35580 X94.963 Y99.742 Z-0.623
N35590 X95.003 Y99.716 Z-0.643
N35600 X95.047 Y99.688 Z-0.65
N35610 X95.215 Y99.58
N35620 G3 X95.492 Y99.64 I0.108 J0.168
N35630 G2 X96.333 Y100.1 I0.842 J-0.54 F300
N35640 G1 X163.667
N35650 G2 X164.509 Y99.64 I0 J-1
N35660 Y55.36 I-34.509 J-22.14
N35670 X163.667 Y54.9 I-0.842 J0.54
N35680 G1 X96.333
N35690 G2 X95.492 Y55.36 I0 J1
N35700 Y99.64 I34.508 J22.14
N35710 G3 X95.431 Y99.916 I-0.168 J0.108 F1200
N35720 G1 X95.263 Y100.024
N35730 X95.22 Y100.052 Z-0.643
N35740 X95.179 Y100.078 Z-0.623
N35750 X95.144 Y100.101 Z-0.591
N35760 X95.117 Y100.118 Z-0.55
N35770 X95.1 Y100.129 Z-0.502
N35780 X95.095 Y100.132 Z-0.45
N35790 G0 Z1
N35800 X94.879 Y99.796
N35810 Z0.5
N35820 G1 Z-0.15 F60
N35830 Z-0.475
N35840 X94.884 Y99.792 Z-0.527
N35850 X94.901 Y99.781 Z-0.575
N35860 X94.928 Y99.764 Z-0.616
N35870 X94.963 Y99.742 Z-0.648
N35880 X95.003 Y99.716 Z-0.668
N35890 X95.047 Y99.688 Z-0.675
N35900 X95.215 Y99.58
N35910 G3 X95.492 Y99.64 I0.108 J0.168
N35920 G2 X96.333 Y100.1 I0.842 J-0.54 F300
N35930 G1 X163.667
N35940 G2 X164.509 Y99.64 I0 J-1
N35950 Y55.36 I-34.509 J-22.14
N35960 X163.667 Y54.9 I-0.842 J0.54
N35970 G1 X96.333
N35980 G2 X95.492 Y55.36 I0 J1
N35990 Y99.64 I34.508 J22.14
N36000 G3 X95.431 Y99.916 I-0.168 J0.108 F1200
N36010 G1 X95.263 Y100.024
N36020 X95.22 Y100.052 Z-0.668
N36030 X95.179 Y100.078 Z-0.648
N36040 X95.144 Y100.101 Z-0.616
N36050 X95.117 Y100.118 Z-0.575
N36060 X95.1 Y100.129 Z-0.527
N36070 X95.095 Y100.132 Z-0.475
N36080 G0 Z1
N36090 X94.879 Y99.796
N36100 Z0.5
N36110 G1 Z-0.175 F60
N36120 Z-0.5
N36130 X94.884 Y99.792 Z-0.552
N36140 X94.901 Y99.781 Z-0.6
N36150 X94.928 Y99.764 Z-0.641
N36160 X94.963 Y99.742 Z-0.673
N36170 X95.003 Y99.716 Z-0.693
N36180 X95.047 Y99.688 Z-0.7
N36190 X95.215 Y99.58
N36200 G3 X95.492 Y99.64 I0.108 J0.168
N36210 G2 X96.333 Y100.1 I0.842 J-0.54 F300
N36220 G1 X163.667
N36230 G2 X164.509 Y99.64 I0 J-1
N36240 Y55.36 I-34.509 J-22.14
N36250 X163.667 Y54.9 I-0.842 J0.54
N36260 G1 X96.333
N36270 G2 X95.492 Y55.36 I0 J1
N36280 Y99.64 I34.508 J22.14
N36290 G3 X95.431 Y99.916 I-0.168 J0.108 F1200
N36300 G1 X95.263 Y100.024
N36310 X95.22 Y100.052 Z-0.693
N36320 X95.179 Y100.078 Z-0.673
N36330 X95.144 Y100.101 Z-0.641
N36340 X95.117 Y100.118 Z-0.6
N36350 X95.1 Y100.129 Z-0.552
N36360 X95.095 Y100.132 Z-0.5
N36370 G0 Z1
N36380 X94.879 Y99.796
N36390 Z0.5
N36400 G1 Z-0.2 F60
N36410 Z-0.525
N36420 X94.884 Y99.792 Z-0.577
N36430 X94.901 Y99.781 Z-0.625
N36440 X94.928 Y99.764 Z-0.666
N36450 X94.963 Y99.742 Z-0.698
N36460 X95.003 Y99.716 Z-0.718
N36470 X95.047 Y99.688 Z-0.725
N36480 X95.215 Y99.58
N36490 G3 X95.492 Y99.64 I0.108 J0.168
N36500 G2 X96.333 Y100.1 I0.842 J-0.54 F300
N36510 G1 X163.667
N36520 G2 X164.509 Y99.64 I0 J-1
N36530 Y55.36 I-34.509 J-22.14
N36540 X163.667 Y54.9 I-0.842 J0.54
N36550 G1 X96.333
N36560 G2 X95.492 Y55.36 I0 J1
N36570 Y99.64 I34.508 J22.14
N36580 G3 X95.431 Y99.916 I-0.168 J0.108 F1200
N36590 G1 X95.263 Y100.024
N36600 X95.22 Y100.052 Z-0.718
N36610 X95.179 Y100.078 Z-0.698
N36620 X95.144 Y100.101 Z-0.666
N36630 X95.117 Y100.118 Z-0.625
N36640 X95.1 Y100.129 Z-0.577
N36650 X95.095 Y100.132 Z-0.525
N36660 G0 Z1
N36670 X94.879 Y99.796
N36680 Z0.5
N36690 G1 Z-0.225 F60
N36700 Z-0.55
N36710 X94.884 Y99.792 Z-0.602
N36720 X94.901 Y99.781 Z-0.65
N36730 X94.928 Y99.764 Z-0.691
N36740 X94.963 Y99.742 Z-0.723
N36750 X95.003 Y99.716 Z-0.743
N36760 X95.047 Y99.688 Z-0.75
N36770 X95.215 Y99.58
N36780 G3 X95.492 Y99.64 I0.108 J0.168
N36790 G2 X96.333 Y100.1 I0.842 J-0.54 F300
N36800 G1 X163.667
N36810 G2 X164.509 Y99.64 I0 J-1
N36820 Y55.36 I-34.509 J-22.14
N36830 X163.667 Y54.9 I-0.842 J0.54
N36840 G1 X96.333
N36850 G2 X95.492 Y55.36 I0 J1
N36860 Y99.64 I34.508 J22.14
N36870 G3 X95.431 Y99.916 I-0.168 J0.108 F1200
N36880 G1 X95.263 Y100.024
N36890 X95.22 Y100.052 Z-0.743
N36900 X95.179 Y100.078 Z-0.723
N36910 X95.144 Y100.101 Z-0.691
N36920 X95.117 Y100.118 Z-0.65
N36930 X95.1 Y100.129 Z-0.602
N36940 X95.095 Y100.132 Z-0.55
N36950 G0 Z1
N36960 X94.879 Y99.796
N36970 Z0.5
N36980 G1 Z-0.25 F60
N36990 Z-0.575
N37000 X94.884 Y99.792 Z-0.627
N37010 X94.901 Y99.781 Z-0.675
N37020 X94.928 Y99.764 Z-0.716
N37030 X94.963 Y99.742 Z-0.748
N37040 X95.003 Y99.716 Z-0.768
N37050 X95.047 Y99.688 Z-0.775
N37060 X95.215 Y99.58
N37070 G3 X95.492 Y99.64 I0.108 J0.168
N37080 G2 X96.333 Y100.1 I0.842 J-0.54 F300
N37090 G1 X163.667
N37100 G2 X164.509 Y99.64 I0 J-1
N37110 Y55.36 I-34.509 J-22.14
N37120 X163.667 Y54.9 I-0.842 J0.54
N37130 G1 X96.333
N37140 G2 X95.492 Y55.36 I0 J1
N37150 Y99.64 I34.508 J22.14
N37160 G3 X95.431 Y99.916 I-0.168 J0.108 F1200
N37170 G1 X95.263 Y100.024
N37180 X95.22 Y100.052 Z-0.768
N37190 X95.179 Y100.078 Z-0.748
N37200 X95.144 Y100.101 Z-0.716
N37210 X95.117 Y100.118 Z-0.675
N37220 X95.1 Y100.129 Z-0.627
N37230 X95.095 Y100.132 Z-0.575
N37240 G0 Z1
N37250 X94.879 Y99.796
N37260 Z0.5
N37270 G1 Z-0.275 F60
N37280 Z-0.6
N37290 X94.884 Y99.792 Z-0.652
N37300 X94.901 Y99.781 Z-0.7
N37310 X94.928 Y99.764 Z-0.741
N37320 X94.963 Y99.742 Z-0.773
N37330 X95.003 Y99.716 Z-0.793
