%
(???????2??????)
(T1 D=2 CR=0 - ZMIN=-1.55 - flat end mill)
N10 G90 G94
N20 G17
N30 G21

(2D ??1)
N40 T1 M6
N50 S5600 M3
N60 G54
N70 G0 X17.036 Y67.041
N80 G43 Z2
N90 Z0.5
N100 G1 Z0.175 F60
N110 G19 G3 Y67.241 Z-0.025 J0.2 K0
N120 G1 Y67.441
N130 G17 G3 X16.836 Y67.641 I-0.2 J0
N140 G1 X0.132 F300
N150 G2 X-0.868 Y68.641 I0 J1
N160 G1 Y126.359
N170 G2 X0.132 Y127.359 I1 J0
N180 G1 X5.576
N190 G2 X7.687 Y122.228 I0 J-3
N200 G3 X25.984 Y103.754 I9.148 J-9.237
N210 Y122.228 I-9.148 J9.237
N220 G2 X28.095 Y127.359 I2.111 J2.131
N230 G1 X102.258
N240 G2 X104.369 Y122.227 I0 J-3
N250 G3 X122.666 Y103.755 I9.149 J-9.236
N260 Y122.227 I-9.149 J9.236
N270 G2 X124.777 Y127.359 I2.111 J2.132
N280 G1 X129.868
N290 G2 X130.868 Y126.359 I0 J-1
N300 G1 Y68.641
N310 G2 X129.868 Y67.641 I-1 J0
N320 G1 X16.836
N330 G3 X16.636 Y67.441 I0 J-0.2 F1200
N340 G1 Y67.241
N350 G19 G2 Y67.041 Z0.175 J0 K0.2
N360 G0 Z1
N370 X17.036
N380 Z0.5
N390 G1 Z0.475 F60
N400 Z0.15
N410 G3 Y67.241 Z-0.05 J0.2 K0
N420 G1 Y67.441
N430 G17 G3 X16.836 Y67.641 I-0.2 J0
N440 G1 X0.132 F300
N450 G2 X-0.868 Y68.641 I0 J1
N460 G1 Y126.359
N470 G2 X0.132 Y127.359 I1 J0
N480 G1 X5.576
N490 G2 X7.687 Y122.228 I0 J-3
N500 G3 X25.984 Y103.754 I9.148 J-9.237
N510 Y122.228 I-9.148 J9.237
N520 G2 X28.095 Y127.359 I2.111 J2.131
N530 G1 X102.258
N540 G2 X104.369 Y122.227 I0 J-3
N550 G3 X122.666 Y103.755 I9.149 J-9.236
N560 Y122.227 I-9.149 J9.236
N570 G2 X124.777 Y127.359 I2.111 J2.132
N580 G1 X129.868
N590 G2 X130.868 Y126.359 I0 J-1
N600 G1 Y68.641
N610 G2 X129.868 Y67.641 I-1 J0
N620 G1 X16.836
N630 G3 X16.636 Y67.441 I0 J-0.2 F1200
N640 G1 Y67.241
N650 G19 G2 Y67.041 Z0.15 J0 K0.2
N660 G0 Z1
N670 X17.036
N680 Z0.5
N690 G1 Z0.45 F60
N700 Z0.125
N710 G3 Y67.241 Z-0.075 J0.2 K0
N720 G1 Y67.441
N730 G17 G3 X16.836 Y67.641 I-0.2 J0
N740 G1 X0.132 F300
N750 G2 X-0.868 Y68.641 I0 J1
N760 G1 Y126.359
N770 G2 X0.132 Y127.359 I1 J0
N780 G1 X5.576
N790 G2 X7.687 Y122.228 I0 J-3
N800 G3 X25.984 Y103.754 I9.148 J-9.237
N810 Y122.228 I-9.148 J9.237
N820 G2 X28.095 Y127.359 I2.111 J2.131
N830 G1 X102.258
N840 G2 X104.369 Y122.227 I0 J-3
N850 G3 X122.666 Y103.755 I9.149 J-9.236
N860 Y122.227 I-9.149 J9.236
N870 G2 X124.777 Y127.359 I2.111 J2.132
N880 G1 X129.868
N890 G2 X130.868 Y126.359 I0 J-1
N900 G1 Y68.641
N910 G2 X129.868 Y67.641 I-1 J0
N920 G1 X16.836
N930 G3 X16.636 Y67.441 I0 J-0.2 F1200
N940 G1 Y67.241
N950 G19 G2 Y67.041 Z0.125 J0 K0.2
N960 G0 Z1
N970 X17.036
N980 Z0.5
N990 G1 Z0.425 F60
N1000 Z0.1
N1010 G3 Y67.241 Z-0.1 J0.2 K0
N1020 G1 Y67.441
N1030 G17 G3 X16.836 Y67.641 I-0.2 J0
N1040 G1 X0.132 F300
N1050 G2 X-0.868 Y68.641 I0 J1
N1060 G1 Y126.359
N1070 G2 X0.132 Y127.359 I1 J0
N1080 G1 X5.576
N1090 G2 X7.687 Y122.228 I0 J-3
N1100 G3 X25.984 Y103.754 I9.148 J-9.237
N1110 Y122.228 I-9.148 J9.237
N1120 G2 X28.095 Y127.359 I2.111 J2.131
N1130 G1 X102.258
N1140 G2 X104.369 Y122.227 I0 J-3
N1150 G3 X122.666 Y103.755 I9.149 J-9.236
N1160 Y122.227 I-9.149 J9.236
N1170 G2 X124.777 Y127.359 I2.111 J2.132
N1180 G1 X129.868
N1190 G2 X130.868 Y126.359 I0 J-1
N1200 G1 Y68.641
N1210 G2 X129.868 Y67.641 I-1 J0
N1220 G1 X16.836
N1230 G3 X16.636 Y67.441 I0 J-0.2 F1200
N1240 G1 Y67.241
N1250 G19 G2 Y67.041 Z0.1 J0 K0.2
N1260 G0 Z1
N1270 X17.036
N1280 Z0.5
N1290 G1 Z0.4 F60
N1300 Z0.075
N1310 G3 Y67.241 Z-0.125 J0.2 K0
N1320 G1 Y67.441
N1330 G17 G3 X16.836 Y67.641 I-0.2 J0
N1340 G1 X0.132 F300
N1350 G2 X-0.868 Y68.641 I0 J1
N1360 G1 Y126.359
N1370 G2 X0.132 Y127.359 I1 J0
N1380 G1 X5.576
N1390 G2 X7.687 Y122.228 I0 J-3
N1400 G3 X25.984 Y103.754 I9.148 J-9.237
N1410 Y122.228 I-9.148 J9.237
N1420 G2 X28.095 Y127.359 I2.111 J2.131
N1430 G1 X102.258
N1440 G2 X104.369 Y122.227 I0 J-3
N1450 G3 X122.666 Y103.755 I9.149 J-9.236
N1460 Y122.227 I-9.149 J9.236
N1470 G2 X124.777 Y127.359 I2.111 J2.132
N1480 G1 X129.868
N1490 G2 X130.868 Y126.359 I0 J-1
N1500 G1 Y68.641
N1510 G2 X129.868 Y67.641 I-1 J0
N1520 G1 X16.836
N1530 G3 X16.636 Y67.441 I0 J-0.2 F1200
N1540 G1 Y67.241
N1550 G19 G2 Y67.041 Z0.075 J0 K0.2
N1560 G0 Z1
N1570 X17.036
N1580 Z0.5
N1590 G1 Z0.375 F60
N1600 Z0.05
N1610 G3 Y67.241 Z-0.15 J0.2 K0
N1620 G1 Y67.441
N1630 G17 G3 X16.836 Y67.641 I-0.2 J0
N1640 G1 X0.132 F300
N1650 G2 X-0.868 Y68.641 I0 J1
N1660 G1 Y126.359
N1670 G2 X0.132 Y127.359 I1 J0
N1680 G1 X5.576
N1690 G2 X7.687 Y122.228 I0 J-3
N1700 G3 X25.984 Y103.754 I9.148 J-9.237
N1710 Y122.228 I-9.148 J9.237
N1720 G2 X28.095 Y127.359 I2.111 J2.131
N1730 G1 X102.258
N1740 G2 X104.369 Y122.227 I0 J-3
N1750 G3 X122.666 Y103.755 I9.149 J-9.236
N1760 Y122.227 I-9.149 J9.236
N1770 G2 X124.777 Y127.359 I2.111 J2.132
N1780 G1 X129.868
N1790 G2 X130.868 Y126.359 I0 J-1
N1800 G1 Y68.641
N1810 G2 X129.868 Y67.641 I-1 J0
N1820 G1 X16.836
N1830 G3 X16.636 Y67.441 I0 J-0.2 F1200
N1840 G1 Y67.241
N1850 G19 G2 Y67.041 Z0.05 J0 K0.2
N1860 G0 Z1
N1870 X17.036
N1880 Z0.5
N1890 G1 Z0.35 F60
N1900 Z0.025
N1910 G3 Y67.241 Z-0.175 J0.2 K0
N1920 G1 Y67.441
N1930 G17 G3 X16.836 Y67.641 I-0.2 J0
N1940 G1 X0.132 F300
N1950 G2 X-0.868 Y68.641 I0 J1
N1960 G1 Y126.359
N1970 G2 X0.132 Y127.359 I1 J0
N1980 G1 X5.576
N1990 G2 X7.687 Y122.228 I0 J-3
N2000 G3 X25.984 Y103.754 I9.148 J-9.237
N2010 Y122.228 I-9.148 J9.237
N2020 G2 X28.095 Y127.359 I2.111 J2.131
N2030 G1 X102.258
N2040 G2 X104.369 Y122.227 I0 J-3
N2050 G3 X122.666 Y103.755 I9.149 J-9.236
N2060 Y122.227 I-9.149 J9.236
N2070 G2 X124.777 Y127.359 I2.111 J2.132
N2080 G1 X129.868
N2090 G2 X130.868 Y126.359 I0 J-1
N2100 G1 Y68.641
N2110 G2 X129.868 Y67.641 I-1 J0
N2120 G1 X16.836
N2130 G3 X16.636 Y67.441 I0 J-0.2 F1200
N2140 G1 Y67.241
N2150 G19 G2 Y67.041 Z0.025 J0 K0.2
N2160 G0 Z1
N2170 X17.036
N2180 Z0.5
N2190 G1 Z0.325 F60
N2200 Z0
N2210 G3 Y67.241 Z-0.2 J0.2 K0
N2220 G1 Y67.441
N2230 G17 G3 X16.836 Y67.641 I-0.2 J0
N2240 G1 X0.132 F300
N2250 G2 X-0.868 Y68.641 I0 J1
N2260 G1 Y126.359
N2270 G2 X0.132 Y127.359 I1 J0
N2280 G1 X5.576
N2290 G2 X7.687 Y122.228 I0 J-3
N2300 G3 X25.984 Y103.754 I9.148 J-9.237
N2310 Y122.228 I-9.148 J9.237
N2320 G2 X28.095 Y127.359 I2.111 J2.131
N2330 G1 X102.258
N2340 G2 X104.369 Y122.227 I0 J-3
N2350 G3 X122.666 Y103.755 I9.149 J-9.236
N2360 Y122.227 I-9.149 J9.236
N2370 G2 X124.777 Y127.359 I2.111 J2.132
N2380 G1 X129.868
N2390 G2 X130.868 Y126.359 I0 J-1
N2400 G1 Y68.641
N2410 G2 X129.868 Y67.641 I-1 J0
N2420 G1 X16.836
N2430 G3 X16.636 Y67.441 I0 J-0.2 F1200
N2440 G1 Y67.241
N2450 G19 G2 Y67.041 Z0 J0 K0.2
N2460 G0 Z1
N2470 X17.036
N2480 Z0.5
N2490 G1 Z0.3 F60
N2500 Z-0.025
N2510 G3 Y67.241 Z-0.225 J0.2 K0
N2520 G1 Y67.441
N2530 G17 G3 X16.836 Y67.641 I-0.2 J0
N2540 G1 X0.132 F300
N2550 G2 X-0.868 Y68.641 I0 J1
N2560 G1 Y126.359
N2570 G2 X0.132 Y127.359 I1 J0
N2580 G1 X5.576
N2590 G2 X7.687 Y122.228 I0 J-3
N2600 G3 X25.984 Y103.754 I9.148 J-9.237
N2610 Y122.228 I-9.148 J9.237
N2620 G2 X28.095 Y127.359 I2.111 J2.131
N2630 G1 X102.258
N2640 G2 X104.369 Y122.227 I0 J-3
N2650 G3 X122.666 Y103.755 I9.149 J-9.236
N2660 Y122.227 I-9.149 J9.236
N2670 G2 X124.777 Y127.359 I2.111 J2.132
N2680 G1 X129.868
N2690 G2 X130.868 Y126.359 I0 J-1
N2700 G1 Y68.641
N2710 G2 X129.868 Y67.641 I-1 J0
N2720 G1 X16.836
N2730 G3 X16.636 Y67.441 I0 J-0.2 F1200
N2740 G1 Y67.241
N2750 G19 G2 Y67.041 Z-0.025 J0 K0.2
N2760 G0 Z1
N2770 X17.036
N2780 Z0.5
N2790 G1 Z0.275 F60
N2800 Z-0.05
N2810 G3 Y67.241 Z-0.25 J0.2 K0
N2820 G1 Y67.441
N2830 G17 G3 X16.836 Y67.641 I-0.2 J0
N2840 G1 X0.132 F300
N2850 G2 X-0.868 Y68.641 I0 J1
N2860 G1 Y126.359
N2870 G2 X0.132 Y127.359 I1 J0
N2880 G1 X5.576
N2890 G2 X7.687 Y122.228 I0 J-3
N2900 G3 X25.984 Y103.754 I9.148 J-9.237
N2910 Y122.228 I-9.148 J9.237
N2920 G2 X28.095 Y127.359 I2.111 J2.131
N2930 G1 X102.258
N2940 G2 X104.369 Y122.227 I0 J-3
N2950 G3 X122.666 Y103.755 I9.149 J-9.236
N2960 Y122.227 I-9.149 J9.236
N2970 G2 X124.777 Y127.359 I2.111 J2.132
N2980 G1 X129.868
N2990 G2 X130.868 Y126.359 I0 J-1
N3000 G1 Y68.641
N3010 G2 X129.868 Y67.641 I-1 J0
N3020 G1 X16.836
N3030 G3 X16.636 Y67.441 I0 J-0.2 F1200
N3040 G1 Y67.241
N3050 G19 G2 Y67.041 Z-0.05 J0 K0.2
N3060 G0 Z1
N3070 X17.036
N3080 Z0.5
N3090 G1 Z0.25 F60
N3100 Z-0.075
N3110 G3 Y67.241 Z-0.275 J0.2 K0
N3120 G1 Y67.441
N3130 G17 G3 X16.836 Y67.641 I-0.2 J0
N3140 G1 X0.132 F300
N3150 G2 X-0.868 Y68.641 I0 J1
N3160 G1 Y126.359
N3170 G2 X0.132 Y127.359 I1 J0
N3180 G1 X5.576
N3190 G2 X7.687 Y122.228 I0 J-3
N3200 G3 X25.984 Y103.754 I9.148 J-9.237
N3210 Y122.228 I-9.148 J9.237
N3220 G2 X28.095 Y127.359 I2.111 J2.131
N3230 G1 X102.258
N3240 G2 X104.369 Y122.227 I0 J-3
N3250 G3 X122.666 Y103.755 I9.149 J-9.236
N3260 Y122.227 I-9.149 J9.236
N3270 G2 X124.777 Y127.359 I2.111 J2.132
N3280 G1 X129.868
N3290 G2 X130.868 Y126.359 I0 J-1
N3300 G1 Y68.641
N3310 G2 X129.868 Y67.641 I-1 J0
N3320 G1 X16.836
N3330 G3 X16.636 Y67.441 I0 J-0.2 F1200
N3340 G1 Y67.241
N3350 G19 G2 Y67.041 Z-0.075 J0 K0.2
N3360 G0 Z1
N3370 X17.036
N3380 Z0.5
N3390 G1 Z0.225 F60
N3400 Z-0.1
N3410 G3 Y67.241 Z-0.3 J0.2 K0
N3420 G1 Y67.441
N3430 G17 G3 X16.836 Y67.641 I-0.2 J0
N3440 G1 X0.132 F300
N3450 G2 X-0.868 Y68.641 I0 J1
N3460 G1 Y126.359
N3470 G2 X0.132 Y127.359 I1 J0
N3480 G1 X5.576
N3490 G2 X7.687 Y122.228 I0 J-3
N3500 G3 X25.984 Y103.754 I9.148 J-9.237
N3510 Y122.228 I-9.148 J9.237
N3520 G2 X28.095 Y127.359 I2.111 J2.131
N3530 G1 X102.258
N3540 G2 X104.369 Y122.227 I0 J-3
N3550 G3 X122.666 Y103.755 I9.149 J-9.236
N3560 Y122.227 I-9.149 J9.236
N3570 G2 X124.777 Y127.359 I2.111 J2.132
N3580 G1 X129.868
N3590 G2 X130.868 Y126.359 I0 J-1
N3600 G1 Y68.641
N3610 G2 X129.868 Y67.641 I-1 J0
N3620 G1 X16.836
N3630 G3 X16.636 Y67.441 I0 J-0.2 F1200
N3640 G1 Y67.241
N3650 G19 G2 Y67.041 Z-0.1 J0 K0.2
N3660 G0 Z1
N3670 X17.036
N3680 Z0.5
N3690 G1 Z0.2 F60
N3700 Z-0.125
N3710 G3 Y67.241 Z-0.325 J0.2 K0
N3720 G1 Y67.441
N3730 G17 G3 X16.836 Y67.641 I-0.2 J0
N3740 G1 X0.132 F300
N3750 G2 X-0.868 Y68.641 I0 J1
N3760 G1 Y126.359
N3770 G2 X0.132 Y127.359 I1 J0
N3780 G1 X5.576
N3790 G2 X7.687 Y122.228 I0 J-3
N3800 G3 X25.984 Y103.754 I9.148 J-9.237
N3810 Y122.228 I-9.148 J9.237
N3820 G2 X28.095 Y127.359 I2.111 J2.131
N3830 G1 X102.258
N3840 G2 X104.369 Y122.227 I0 J-3
N3850 G3 X122.666 Y103.755 I9.149 J-9.236
N3860 Y122.227 I-9.149 J9.236
N3870 G2 X124.777 Y127.359 I2.111 J2.132
N3880 G1 X129.868
N3890 G2 X130.868 Y126.359 I0 J-1
N3900 G1 Y68.641
N3910 G2 X129.868 Y67.641 I-1 J0
N3920 G1 X16.836
N3930 G3 X16.636 Y67.441 I0 J-0.2 F1200
N3940 G1 Y67.241
N3950 G19 G2 Y67.041 Z-0.125 J0 K0.2
N3960 G0 Z1
N3970 X17.036
N3980 Z0.5
N3990 G1 Z0.175 F60
N4000 Z-0.15
N4010 G3 Y67.241 Z-0.35 J0.2 K0
N4020 G1 Y67.441
N4030 G17 G3 X16.836 Y67.641 I-0.2 J0
N4040 G1 X0.132 F300
N4050 G2 X-0.868 Y68.641 I0 J1
N4060 G1 Y126.359
N4070 G2 X0.132 Y127.359 I1 J0
N4080 G1 X5.576
N4090 G2 X7.687 Y122.228 I0 J-3
N4100 G3 X25.984 Y103.754 I9.148 J-9.237
N4110 Y122.228 I-9.148 J9.237
N4120 G2 X28.095 Y127.359 I2.111 J2.131
N4130 G1 X102.258
N4140 G2 X104.369 Y122.227 I0 J-3
N4150 G3 X122.666 Y103.755 I9.149 J-9.236
N4160 Y122.227 I-9.149 J9.236
N4170 G2 X124.777 Y127.359 I2.111 J2.132
N4180 G1 X129.868
N4190 G2 X130.868 Y126.359 I0 J-1
N4200 G1 Y68.641
N4210 G2 X129.868 Y67.641 I-1 J0
N4220 G1 X16.836
N4230 G3 X16.636 Y67.441 I0 J-0.2 F1200
N4240 G1 Y67.241
N4250 G19 G2 Y67.041 Z-0.15 J0 K0.2
N4260 G0 Z1
N4270 X17.036
N4280 Z0.5
N4290 G1 Z0.15 F60
N4300 Z-0.175
N4310 G3 Y67.241 Z-0.375 J0.2 K0
N4320 G1 Y67.441
N4330 G17 G3 X16.836 Y67.641 I-0.2 J0
N4340 G1 X0.132 F300
N4350 G2 X-0.868 Y68.641 I0 J1
N4360 G1 Y126.359
N4370 G2 X0.132 Y127.359 I1 J0
N4380 G1 X5.576
N4390 G2 X7.687 Y122.228 I0 J-3
N4400 G3 X25.984 Y103.754 I9.148 J-9.237
N4410 Y122.228 I-9.148 J9.237
N4420 G2 X28.095 Y127.359 I2.111 J2.131
N4430 G1 X102.258
N4440 G2 X104.369 Y122.227 I0 J-3
N4450 G3 X122.666 Y103.755 I9.149 J-9.236
N4460 Y122.227 I-9.149 J9.236
N4470 G2 X124.777 Y127.359 I2.111 J2.132
N4480 G1 X129.868
N4490 G2 X130.868 Y126.359 I0 J-1
N4500 G1 Y68.641
N4510 G2 X129.868 Y67.641 I-1 J0
N4520 G1 X16.836
N4530 G3 X16.636 Y67.441 I0 J-0.2 F1200
N4540 G1 Y67.241
N4550 G19 G2 Y67.041 Z-0.175 J0 K0.2
N4560 G0 Z1
N4570 X17.036
N4580 Z0.5
N4590 G1 Z0.125 F60
N4600 Z-0.2
N4610 G3 Y67.241 Z-0.4 J0.2 K0
N4620 G1 Y67.441
N4630 G17 G3 X16.836 Y67.641 I-0.2 J0
N4640 G1 X0.132 F300
N4650 G2 X-0.868 Y68.641 I0 J1
N4660 G1 Y126.359
N4670 G2 X0.132 Y127.359 I1 J0
N4680 G1 X5.576
N4690 G2 X7.687 Y122.228 I0 J-3
N4700 G3 X25.984 Y103.754 I9.148 J-9.237
N4710 Y122.228 I-9.148 J9.237
N4720 G2 X28.095 Y127.359 I2.111 J2.131
N4730 G1 X102.258
N4740 G2 X104.369 Y122.227 I0 J-3
N4750 G3 X122.666 Y103.755 I9.149 J-9.236
N4760 Y122.227 I-9.149 J9.236
N4770 G2 X124.777 Y127.359 I2.111 J2.132
N4780 G1 X129.868
N4790 G2 X130.868 Y126.359 I0 J-1
N4800 G1 Y68.641
N4810 G2 X129.868 Y67.641 I-1 J0
N4820 G1 X16.836
N4830 G3 X16.636 Y67.441 I0 J-0.2 F1200
N4840 G1 Y67.241
N4850 G19 G2 Y67.041 Z-0.2 J0 K0.2
N4860 G0 Z1
N4870 X17.036
N4880 Z0.5
N4890 G1 Z0.1 F60
N4900 Z-0.225
N4910 G3 Y67.241 Z-0.425 J0.2 K0
N4920 G1 Y67.441
N4930 G17 G3 X16.836 Y67.641 I-0.2 J0
N4940 G1 X0.132 F300
N4950 G2 X-0.868 Y68.641 I0 J1
N4960 G1 Y126.359
N4970 G2 X0.132 Y127.359 I1 J0
N4980 G1 X5.576
N4990 G2 X7.687 Y122.228 I0 J-3
N5000 G3 X25.984 Y103.754 I9.148 J-9.237
N5010 Y122.228 I-9.148 J9.237
N5020 G2 X28.095 Y127.359 I2.111 J2.131
N5030 G1 X102.258
N5040 G2 X104.369 Y122.227 I0 J-3
N5050 G3 X122.666 Y103.755 I9.149 J-9.236
N5060 Y122.227 I-9.149 J9.236
N5070 G2 X124.777 Y127.359 I2.111 J2.132
N5080 G1 X129.868
N5090 G2 X130.868 Y126.359 I0 J-1
N5100 G1 Y68.641
N5110 G2 X129.868 Y67.641 I-1 J0
N5120 G1 X16.836
N5130 G3 X16.636 Y67.441 I0 J-0.2 F1200
N5140 G1 Y67.241
N5150 G19 G2 Y67.041 Z-0.225 J0 K0.2
N5160 G0 Z1
N5170 X17.036
N5180 Z0.5
N5190 G1 Z0.075 F60
N5200 Z-0.25
N5210 G3 Y67.241 Z-0.45 J0.2 K0
N5220 G1 Y67.441
N5230 G17 G3 X16.836 Y67.641 I-0.2 J0
N5240 G1 X0.132 F300
N5250 G2 X-0.868 Y68.641 I0 J1
N5260 G1 Y126.359
N5270 G2 X0.132 Y127.359 I1 J0
N5280 G1 X5.576
N5290 G2 X7.687 Y122.228 I0 J-3
N5300 G3 X25.984 Y103.754 I9.148 J-9.237
N5310 Y122.228 I-9.148 J9.237
N5320 G2 X28.095 Y127.359 I2.111 J2.131
N5330 G1 X102.258
N5340 G2 X104.369 Y122.227 I0 J-3
N5350 G3 X122.666 Y103.755 I9.149 J-9.236
N5360 Y122.227 I-9.149 J9.236
N5370 G2 X124.777 Y127.359 I2.111 J2.132
N5380 G1 X129.868
N5390 G2 X130.868 Y126.359 I0 J-1
N5400 G1 Y68.641
N5410 G2 X129.868 Y67.641 I-1 J0
N5420 G1 X16.836
N5430 G3 X16.636 Y67.441 I0 J-0.2 F1200
N5440 G1 Y67.241
N5450 G19 G2 Y67.041 Z-0.25 J0 K0.2
N5460 G0 Z1
N5470 X17.036
N5480 Z0.5
N5490 G1 Z0.05 F60
N5500 Z-0.275
N5510 G3 Y67.241 Z-0.475 J0.2 K0
N5520 G1 Y67.441
N5530 G17 G3 X16.836 Y67.641 I-0.2 J0
N5540 G1 X0.132 F300
N5550 G2 X-0.868 Y68.641 I0 J1
N5560 G1 Y126.359
N5570 G2 X0.132 Y127.359 I1 J0
N5580 G1 X5.576
N5590 G2 X7.687 Y122.228 I0 J-3
N5600 G3 X25.984 Y103.754 I9.148 J-9.237
N5610 Y122.228 I-9.148 J9.237
N5620 G2 X28.095 Y127.359 I2.111 J2.131
N5630 G1 X102.258
N5640 G2 X104.369 Y122.227 I0 J-3
N5650 G3 X122.666 Y103.755 I9.149 J-9.236
N5660 Y122.227 I-9.149 J9.236
N5670 G2 X124.777 Y127.359 I2.111 J2.132
N5680 G1 X129.868
N5690 G2 X130.868 Y126.359 I0 J-1
N5700 G1 Y68.641
N5710 G2 X129.868 Y67.641 I-1 J0
N5720 G1 X16.836
N5730 G3 X16.636 Y67.441 I0 J-0.2 F1200
N5740 G1 Y67.241
N5750 G19 G2 Y67.041 Z-0.275 J0 K0.2
N5760 G0 Z1
N5770 X17.036
N5780 Z0.5
N5790 G1 Z0.025 F60
N5800 Z-0.3
N5810 G3 Y67.241 Z-0.5 J0.2 K0
N5820 G1 Y67.441
N5830 G17 G3 X16.836 Y67.641 I-0.2 J0
N5840 G1 X0.132 F300
N5850 G2 X-0.868 Y68.641 I0 J1
N5860 G1 Y126.359
N5870 G2 X0.132 Y127.359 I1 J0
N5880 G1 X5.576
N5890 G2 X7.687 Y122.228 I0 J-3
N5900 G3 X25.984 Y103.754 I9.148 J-9.237
N5910 Y122.228 I-9.148 J9.237
N5920 G2 X28.095 Y127.359 I2.111 J2.131
N5930 G1 X102.258
N5940 G2 X104.369 Y122.227 I0 J-3
N5950 G3 X122.666 Y103.755 I9.149 J-9.236
N5960 Y122.227 I-9.149 J9.236
N5970 G2 X124.777 Y127.359 I2.111 J2.132
N5980 G1 X129.868
N5990 G2 X130.868 Y126.359 I0 J-1
N6000 G1 Y68.641
N6010 G2 X129.868 Y67.641 I-1 J0
N6020 G1 X16.836
N6030 G3 X16.636 Y67.441 I0 J-0.2 F1200
N6040 G1 Y67.241
N6050 G19 G2 Y67.041 Z-0.3 J0 K0.2
N6060 G0 Z1
N6070 X17.036
N6080 Z0.5
N6090 G1 Z0 F60
N6100 Z-0.325
N6110 G3 Y67.241 Z-0.525 J0.2 K0
N6120 G1 Y67.441
N6130 G17 G3 X16.836 Y67.641 I-0.2 J0
N6140 G1 X0.132 F300
N6150 G2 X-0.868 Y68.641 I0 J1
N6160 G1 Y126.359
N6170 G2 X0.132 Y127.359 I1 J0
N6180 G1 X5.576
N6190 G2 X7.687 Y122.228 I0 J-3
N6200 G3 X25.984 Y103.754 I9.148 J-9.237
N6210 Y122.228 I-9.148 J9.237
N6220 G2 X28.095 Y127.359 I2.111 J2.131
N6230 G1 X102.258
N6240 G2 X104.369 Y122.227 I0 J-3
N6250 G3 X122.666 Y103.755 I9.149 J-9.236
N6260 Y122.227 I-9.149 J9.236
N6270 G2 X124.777 Y127.359 I2.111 J2.132
N6280 G1 X129.868
N6290 G2 X130.868 Y126.359 I0 J-1
N6300 G1 Y68.641
N6310 G2 X129.868 Y67.641 I-1 J0
N6320 G1 X16.836
N6330 G3 X16.636 Y67.441 I0 J-0.2 F1200
N6340 G1 Y67.241
N6350 G19 G2 Y67.041 Z-0.325 J0 K0.2
N6360 G0 Z1
N6370 X17.036
N6380 Z0.5
N6390 G1 Z-0.025 F60
N6400 Z-0.35
N6410 G3 Y67.241 Z-0.55 J0.2 K0
N6420 G1 Y67.441
N6430 G17 G3 X16.836 Y67.641 I-0.2 J0
N6440 G1 X0.132 F300
N6450 G2 X-0.868 Y68.641 I0 J1
N6460 G1 Y126.359
N6470 G2 X0.132 Y127.359 I1 J0
N6480 G1 X5.576
N6490 G2 X7.687 Y122.228 I0 J-3
N6500 G3 X25.984 Y103.754 I9.148 J-9.237
N6510 Y122.228 I-9.148 J9.237
N6520 G2 X28.095 Y127.359 I2.111 J2.131
N6530 G1 X102.258
N6540 G2 X104.369 Y122.227 I0 J-3
N6550 G3 X122.666 Y103.755 I9.149 J-9.236
N6560 Y122.227 I-9.149 J9.236
N6570 G2 X124.777 Y127.359 I2.111 J2.132
N6580 G1 X129.868
N6590 G2 X130.868 Y126.359 I0 J-1
N6600 G1 Y68.641
N6610 G2 X129.868 Y67.641 I-1 J0
N6620 G1 X16.836
N6630 G3 X16.636 Y67.441 I0 J-0.2 F1200
N6640 G1 Y67.241
N6650 G19 G2 Y67.041 Z-0.35 J0 K0.2
N6660 G0 Z1
N6670 X17.036
N6680 Z0.5
N6690 G1 Z-0.05 F60
N6700 Z-0.375
N6710 G3 Y67.241 Z-0.575 J0.2 K0
N6720 G1 Y67.441
N6730 G17 G3 X16.836 Y67.641 I-0.2 J0
N6740 G1 X0.132 F300
N6750 G2 X-0.868 Y68.641 I0 J1
N6760 G1 Y126.359
N6770 G2 X0.132 Y127.359 I1 J0
N6780 G1 X5.576
N6790 G2 X7.687 Y122.228 I0 J-3
N6800 G3 X25.984 Y103.754 I9.148 J-9.237
N6810 Y122.228 I-9.148 J9.237
N6820 G2 X28.095 Y127.359 I2.111 J2.131
N6830 G1 X102.258
N6840 G2 X104.369 Y122.227 I0 J-3
N6850 G3 X122.666 Y103.755 I9.149 J-9.236
N6860 Y122.227 I-9.149 J9.236
N6870 G2 X124.777 Y127.359 I2.111 J2.132
N6880 G1 X129.868
N6890 G2 X130.868 Y126.359 I0 J-1
N6900 G1 Y68.641
N6910 G2 X129.868 Y67.641 I-1 J0
N6920 G1 X16.836
N6930 G3 X16.636 Y67.441 I0 J-0.2 F1200
N6940 G1 Y67.241
N6950 G19 G2 Y67.041 Z-0.375 J0 K0.2
N6960 G0 Z1
N6970 X17.036
N6980 Z0.5
N6990 G1 Z-0.075 F60
N7000 Z-0.4
N7010 G3 Y67.241 Z-0.6 J0.2 K0
N7020 G1 Y67.441
N7030 G17 G3 X16.836 Y67.641 I-0.2 J0
N7040 G1 X0.132 F300
N7050 G2 X-0.868 Y68.641 I0 J1
N7060 G1 Y126.359
N7070 G2 X0.132 Y127.359 I1 J0
N7080 G1 X5.576
N7090 G2 X7.687 Y122.228 I0 J-3
N7100 G3 X25.984 Y103.754 I9.148 J-9.237
N7110 Y122.228 I-9.148 J9.237
N7120 G2 X28.095 Y127.359 I2.111 J2.131
N7130 G1 X102.258
N7140 G2 X104.369 Y122.227 I0 J-3
N7150 G3 X122.666 Y103.755 I9.149 J-9.236
N7160 Y122.227 I-9.149 J9.236
N7170 G2 X124.777 Y127.359 I2.111 J2.132
N7180 G1 X129.868
N7190 G2 X130.868 Y126.359 I0 J-1
N7200 G1 Y68.641
N7210 G2 X129.868 Y67.641 I-1 J0
N7220 G1 X16.836
N7230 G3 X16.636 Y67.441 I0 J-0.2 F1200
N7240 G1 Y67.241
N7250 G19 G2 Y67.041 Z-0.4 J0 K0.2
N7260 G0 Z1
N7270 X17.036
N7280 Z0.5
N7290 G1 Z-0.1 F60
N7300 Z-0.425
N7310 G3 Y67.241 Z-0.625 J0.2 K0
N7320 G1 Y67.441
N7330 G17 G3 X16.836 Y67.641 I-0.2 J0
N7340 G1 X0.132 F300
N7350 G2 X-0.868 Y68.641 I0 J1
N7360 G1 Y126.359
N7370 G2 X0.132 Y127.359 I1 J0
N7380 G1 X5.576
N7390 G2 X7.687 Y122.228 I0 J-3
N7400 G3 X25.984 Y103.754 I9.148 J-9.237
N7410 Y122.228 I-9.148 J9.237
N7420 G2 X28.095 Y127.359 I2.111 J2.131
N7430 G1 X102.258
N7440 G2 X104.369 Y122.227 I0 J-3
N7450 G3 X122.666 Y103.755 I9.149 J-9.236
N7460 Y122.227 I-9.149 J9.236
N7470 G2 X124.777 Y127.359 I2.111 J2.132
N7480 G1 X129.868
N7490 G2 X130.868 Y126.359 I0 J-1
N7500 G1 Y68.641
N7510 G2 X129.868 Y67.641 I-1 J0
N7520 G1 X16.836
N7530 G3 X16.636 Y67.441 I0 J-0.2 F1200
N7540 G1 Y67.241
N7550 G19 G2 Y67.041 Z-0.425 J0 K0.2
N7560 G0 Z1
N7570 X17.036
N7580 Z0.5
N7590 G1 Z-0.125 F60
N7600 Z-0.45
N7610 G3 Y67.241 Z-0.65 J0.2 K0
N7620 G1 Y67.441
N7630 G17 G3 X16.836 Y67.641 I-0.2 J0
N7640 G1 X0.132 F300
N7650 G2 X-0.868 Y68.641 I0 J1
N7660 G1 Y126.359
N7670 G2 X0.132 Y127.359 I1 J0
N7680 G1 X5.576
N7690 G2 X7.687 Y122.228 I0 J-3
N7700 G3 X25.984 Y103.754 I9.148 J-9.237
N7710 Y122.228 I-9.148 J9.237
N7720 G2 X28.095 Y127.359 I2.111 J2.131
N7730 G1 X102.258
N7740 G2 X104.369 Y122.227 I0 J-3
N7750 G3 X122.666 Y103.755 I9.149 J-9.236
N7760 Y122.227 I-9.149 J9.236
N7770 G2 X124.777 Y127.359 I2.111 J2.132
N7780 G1 X129.868
N7790 G2 X130.868 Y126.359 I0 J-1
N7800 G1 Y68.641
N7810 G2 X129.868 Y67.641 I-1 J0
N7820 G1 X16.836
N7830 G3 X16.636 Y67.441 I0 J-0.2 F1200
N7840 G1 Y67.241
N7850 G19 G2 Y67.041 Z-0.45 J0 K0.2
N7860 G0 Z1
N7870 X17.036
N7880 Z0.5
N7890 G1 Z-0.15 F60
N7900 Z-0.475
N7910 G3 Y67.241 Z-0.675 J0.2 K0
N7920 G1 Y67.441
N7930 G17 G3 X16.836 Y67.641 I-0.2 J0
N7940 G1 X0.132 F300
N7950 G2 X-0.868 Y68.641 I0 J1
N7960 G1 Y126.359
N7970 G2 X0.132 Y127.359 I1 J0
N7980 G1 X5.576
N7990 G2 X7.687 Y122.228 I0 J-3
N8000 G3 X25.984 Y103.754 I9.148 J-9.237
N8010 Y122.228 I-9.148 J9.237
N8020 G2 X28.095 Y127.359 I2.111 J2.131
N8030 G1 X102.258
N8040 G2 X104.369 Y122.227 I0 J-3
N8050 G3 X122.666 Y103.755 I9.149 J-9.236
N8060 Y122.227 I-9.149 J9.236
N8070 G2 X124.777 Y127.359 I2.111 J2.132
N8080 G1 X129.868
N8090 G2 X130.868 Y126.359 I0 J-1
N8100 G1 Y68.641
N8110 G2 X129.868 Y67.641 I-1 J0
N8120 G1 X16.836
N8130 G3 X16.636 Y67.441 I0 J-0.2 F1200
N8140 G1 Y67.241
N8150 G19 G2 Y67.041 Z-0.475 J0 K0.2
N8160 G0 Z1
N8170 X17.036
N8180 Z0.5
N8190 G1 Z-0.175 F60
N8200 Z-0.5
N8210 G3 Y67.241 Z-0.7 J0.2 K0
N8220 G1 Y67.441
N8230 G17 G3 X16.836 Y67.641 I-0.2 J0
N8240 G1 X0.132 F300
N8250 G2 X-0.868 Y68.641 I0 J1
N8260 G1 Y126.359
N8270 G2 X0.132 Y127.359 I1 J0
N8280 G1 X5.576
N8290 G2 X7.687 Y122.228 I0 J-3
N8300 G3 X25.984 Y103.754 I9.148 J-9.237
N8310 Y122.228 I-9.148 J9.237
N8320 G2 X28.095 Y127.359 I2.111 J2.131
N8330 G1 X102.258
N8340 G2 X104.369 Y122.227 I0 J-3
N8350 G3 X122.666 Y103.755 I9.149 J-9.236
N8360 Y122.227 I-9.149 J9.236
N8370 G2 X124.777 Y127.359 I2.111 J2.132
N8380 G1 X129.868
N8390 G2 X130.868 Y126.359 I0 J-1
N8400 G1 Y68.641
N8410 G2 X129.868 Y67.641 I-1 J0
N8420 G1 X16.836
N8430 G3 X16.636 Y67.441 I0 J-0.2 F1200
N8440 G1 Y67.241
N8450 G19 G2 Y67.041 Z-0.5 J0 K0.2
N8460 G0 Z1
N8470 X17.036
N8480 Z0.5
N8490 G1 Z-0.2 F60
N8500 Z-0.525
N8510 G3 Y67.241 Z-0.725 J0.2 K0
N8520 G1 Y67.441
N8530 G17 G3 X16.836 Y67.641 I-0.2 J0
N8540 G1 X0.132 F300
N8550 G2 X-0.868 Y68.641 I0 J1
N8560 G1 Y126.359
N8570 G2 X0.132 Y127.359 I1 J0
N8580 G1 X5.576
N8590 G2 X7.687 Y122.228 I0 J-3
N8600 G3 X25.984 Y103.754 I9.148 J-9.237
N8610 Y122.228 I-9.148 J9.237
N8620 G2 X28.095 Y127.359 I2.111 J2.131
N8630 G1 X102.258
N8640 G2 X104.369 Y122.227 I0 J-3
N8650 G3 X122.666 Y103.755 I9.149 J-9.236
N8660 Y122.227 I-9.149 J9.236
N8670 G2 X124.777 Y127.359 I2.111 J2.132
N8680 G1 X129.868
N8690 G2 X130.868 Y126.359 I0 J-1
N8700 G1 Y68.641
N8710 G2 X129.868 Y67.641 I-1 J0
N8720 G1 X16.836
N8730 G3 X16.636 Y67.441 I0 J-0.2 F1200
N8740 G1 Y67.241
N8750 G19 G2 Y67.041 Z-0.525 J0 K0.2
N8760 G0 Z1
N8770 X17.036
N8780 Z0.5
N8790 G1 Z-0.225 F60
N8800 Z-0.55
N8810 G3 Y67.241 Z-0.75 J0.2 K0
N8820 G1 Y67.441
N8830 G17 G3 X16.836 Y67.641 I-0.2 J0
N8840 G1 X0.132 F300
N8850 G2 X-0.868 Y68.641 I0 J1
N8860 G1 Y126.359
N8870 G2 X0.132 Y127.359 I1 J0
N8880 G1 X5.576
N8890 G2 X7.687 Y122.228 I0 J-3
N8900 G3 X25.984 Y103.754 I9.148 J-9.237
N8910 Y122.228 I-9.148 J9.237
N8920 G2 X28.095 Y127.359 I2.111 J2.131
N8930 G1 X102.258
N8940 G2 X104.369 Y122.227 I0 J-3
N8950 G3 X122.666 Y103.755 I9.149 J-9.236
N8960 Y122.227 I-9.149 J9.236
N8970 G2 X124.777 Y127.359 I2.111 J2.132
N8980 G1 X129.868
N8990 G2 X130.868 Y126.359 I0 J-1
N9000 G1 Y68.641
N9010 G2 X129.868 Y67.641 I-1 J0
N9020 G1 X16.836
N9030 G3 X16.636 Y67.441 I0 J-0.2 F1200
N9040 G1 Y67.241
N9050 G19 G2 Y67.041 Z-0.55 J0 K0.2
N9060 G0 Z1
N9070 X17.036
N9080 Z0.5
N9090 G1 Z-0.25 F60
N9100 Z-0.575
N9110 G3 Y67.241 Z-0.775 J0.2 K0
N9120 G1 Y67.441
N9130 G17 G3 X16.836 Y67.641 I-0.2 J0
N9140 G1 X0.132 F300
N9150 G2 X-0.868 Y68.641 I0 J1
N9160 G1 Y126.359
N9170 G2 X0.132 Y127.359 I1 J0
N9180 G1 X5.576
N9190 G2 X7.687 Y122.228 I0 J-3
N9200 G3 X25.984 Y103.754 I9.148 J-9.237
N9210 Y122.228 I-9.148 J9.237
N9220 G2 X28.095 Y127.359 I2.111 J2.131
N9230 G1 X102.258
N9240 G2 X104.369 Y122.227 I0 J-3
N9250 G3 X122.666 Y103.755 I9.149 J-9.236
N9260 Y122.227 I-9.149 J9.236
N9270 G2 X124.777 Y127.359 I2.111 J2.132
N9280 G1 X129.868
N9290 G2 X130.868 Y126.359 I0 J-1
N9300 G1 Y68.641
N9310 G2 X129.868 Y67.641 I-1 J0
N9320 G1 X16.836
N9330 G3 X16.636 Y67.441 I0 J-0.2 F1200
N9340 G1 Y67.241
N9350 G19 G2 Y67.041 Z-0.575 J0 K0.2
N9360 G0 Z1
N9370 X17.036
N9380 Z0.5
N9390 G1 Z-0.275 F60
N9400 Z-0.6
N9410 G3 Y67.241 Z-0.8 J0.2 K0
N9420 G1 Y67.441
N9430 G17 G3 X16.836 Y67.641 I-0.2 J0
N9440 G1 X0.132 F300
N9450 G2 X-0.868 Y68.641 I0 J1
N9460 G1 Y126.359
N9470 G2 X0.132 Y127.359 I1 J0
N9480 G1 X5.576
N9490 G2 X7.687 Y122.228 I0 J-3
N9500 G3 X25.984 Y103.754 I9.148 J-9.237
N9510 Y122.228 I-9.148 J9.237
N9520 G2 X28.095 Y127.359 I2.111 J2.131
N9530 G1 X102.258
N9540 G2 X104.369 Y122.227 I0 J-3
N9550 G3 X122.666 Y103.755 I9.149 J-9.236
N9560 Y122.227 I-9.149 J9.236
N9570 G2 X124.777 Y127.359 I2.111 J2.132
N9580 G1 X129.868
N9590 G2 X130.868 Y126.359 I0 J-1
N9600 G1 Y68.641
N9610 G2 X129.868 Y67.641 I-1 J0
N9620 G1 X16.836
N9630 G3 X16.636 Y67.441 I0 J-0.2 F1200
N9640 G1 Y67.241
N9650 G19 G2 Y67.041 Z-0.6 J0 K0.2
N9660 G0 Z1
N9670 X17.036
N9680 Z0.5
N9690 G1 Z-0.3 F60
N9700 Z-0.625
N9710 G3 Y67.241 Z-0.825 J0.2 K0
N9720 G1 Y67.441
N9730 G17 G3 X16.836 Y67.641 I-0.2 J0
N9740 G1 X0.132 F300
N9750 G2 X-0.868 Y68.641 I0 J1
N9760 G1 Y126.359
N9770 G2 X0.132 Y127.359 I1 J0
N9780 G1 X5.576
N9790 G2 X7.687 Y122.228 I0 J-3
N9800 G3 X25.984 Y103.754 I9.148 J-9.237
N9810 Y122.228 I-9.148 J9.237
N9820 G2 X28.095 Y127.359 I2.111 J2.131
N9830 G1 X102.258
N9840 G2 X104.369 Y122.227 I0 J-3
N9850 G3 X122.666 Y103.755 I9.149 J-9.236
N9860 Y122.227 I-9.149 J9.236
N9870 G2 X124.777 Y127.359 I2.111 J2.132
N9880 G1 X129.868
N9890 G2 X130.868 Y126.359 I0 J-1
N9900 G1 Y68.641
N9910 G2 X129.868 Y67.641 I-1 J0
N9920 G1 X16.836
N9930 G3 X16.636 Y67.441 I0 J-0.2 F1200
N9940 G1 Y67.241
N9950 G19 G2 Y67.041 Z-0.625 J0 K0.2
N9960 G0 Z1
N9970 X17.036
N9980 Z0.5
N9990 G1 Z-0.325 F60
N10000 Z-0.65
N10010 G3 Y67.241 Z-0.85 J0.2 K0
N10020 G1 Y67.441
N10030 G17 G3 X16.836 Y67.641 I-0.2 J0
N10040 G1 X0.132 F300
N10050 G2 X-0.868 Y68.641 I0 J1
N10060 G1 Y126.359
N10070 G2 X0.132 Y127.359 I1 J0
N10080 G1 X5.576
N10090 G2 X7.687 Y122.228 I0 J-3
N10100 G3 X25.984 Y103.754 I9.148 J-9.237
N10110 Y122.228 I-9.148 J9.237
N10120 G2 X28.095 Y127.359 I2.111 J2.131
N10130 G1 X102.258
N10140 G2 X104.369 Y122.227 I0 J-3
N10150 G3 X122.666 Y103.755 I9.149 J-9.236
N10160 Y122.227 I-9.149 J9.236
N10170 G2 X124.777 Y127.359 I2.111 J2.132
N10180 G1 X129.868
N10190 G2 X130.868 Y126.359 I0 J-1
N10200 G1 Y68.641
N10210 G2 X129.868 Y67.641 I-1 J0
N10220 G1 X16.836
N10230 G3 X16.636 Y67.441 I0 J-0.2 F1200
N10240 G1 Y67.241
N10250 G19 G2 Y67.041 Z-0.65 J0 K0.2
N10260 G0 Z1
N10270 X17.036
N10280 Z0.5
N10290 G1 Z-0.35 F60
N10300 Z-0.675
N10310 G3 Y67.241 Z-0.875 J0.2 K0
N10320 G1 Y67.441
N10330 G17 G3 X16.836 Y67.641 I-0.2 J0
N10340 G1 X0.132 F300
N10350 G2 X-0.868 Y68.641 I0 J1
N10360 G1 Y126.359
N10370 G2 X0.132 Y127.359 I1 J0
N10380 G1 X5.576
N10390 G2 X7.687 Y122.228 I0 J-3
N10400 G3 X25.984 Y103.754 I9.148 J-9.237
N10410 Y122.228 I-9.148 J9.237
N10420 G2 X28.095 Y127.359 I2.111 J2.131
N10430 G1 X102.258
N10440 G2 X104.369 Y122.227 I0 J-3
N10450 G3 X122.666 Y103.755 I9.149 J-9.236
N10460 Y122.227 I-9.149 J9.236
N10470 G2 X124.777 Y127.359 I2.111 J2.132
N10480 G1 X129.868
N10490 G2 X130.868 Y126.359 I0 J-1
N10500 G1 Y68.641
N10510 G2 X129.868 Y67.641 I-1 J0
N10520 G1 X16.836
N10530 G3 X16.636 Y67.441 I0 J-0.2 F1200
N10540 G1 Y67.241
N10550 G19 G2 Y67.041 Z-0.675 J0 K0.2
N10560 G0 Z1
N10570 X17.036
N10580 Z0.5
N10590 G1 Z-0.375 F60
N10600 Z-0.7
N10610 G3 Y67.241 Z-0.9 J0.2 K0
N10620 G1 Y67.441
N10630 G17 G3 X16.836 Y67.641 I-0.2 J0
N10640 G1 X0.132 F300
N10650 G2 X-0.868 Y68.641 I0 J1
N10660 G1 Y126.359
N10670 G2 X0.132 Y127.359 I1 J0
N10680 G1 X5.576
N10690 G2 X7.687 Y122.228 I0 J-3
N10700 G3 X25.984 Y103.754 I9.148 J-9.237
N10710 Y122.228 I-9.148 J9.237
N10720 G2 X28.095 Y127.359 I2.111 J2.131
N10730 G1 X102.258
N10740 G2 X104.369 Y122.227 I0 J-3
N10750 G3 X122.666 Y103.755 I9.149 J-9.236
N10760 Y122.227 I-9.149 J9.236
N10770 G2 X124.777 Y127.359 I2.111 J2.132
N10780 G1 X129.868
N10790 G2 X130.868 Y126.359 I0 J-1
N10800 G1 Y68.641
N10810 G2 X129.868 Y67.641 I-1 J0
N10820 G1 X16.836
N10830 G3 X16.636 Y67.441 I0 J-0.2 F1200
N10840 G1 Y67.241
N10850 G19 G2 Y67.041 Z-0.7 J0 K0.2
N10860 G0 Z1
N10870 X17.036
N10880 Z0.5
N10890 G1 Z-0.4 F60
N10900 Z-0.725
N10910 G3 Y67.241 Z-0.925 J0.2 K0
N10920 G1 Y67.441
N10930 G17 G3 X16.836 Y67.641 I-0.2 J0
N10940 G1 X0.132 F300
N10950 G2 X-0.868 Y68.641 I0 J1
N10960 G1 Y126.359
N10970 G2 X0.132 Y127.359 I1 J0
N10980 G1 X5.576
N10990 G2 X7.687 Y122.228 I0 J-3
N11000 G3 X25.984 Y103.754 I9.148 J-9.237
N11010 Y122.228 I-9.148 J9.237
N11020 G2 X28.095 Y127.359 I2.111 J2.131
N11030 G1 X102.258
N11040 G2 X104.369 Y122.227 I0 J-3
N11050 G3 X122.666 Y103.755 I9.149 J-9.236
N11060 Y122.227 I-9.149 J9.236
N11070 G2 X124.777 Y127.359 I2.111 J2.132
N11080 G1 X129.868
N11090 G2 X130.868 Y126.359 I0 J-1
N11100 G1 Y68.641
N11110 G2 X129.868 Y67.641 I-1 J0
N11120 G1 X16.836
N11130 G3 X16.636 Y67.441 I0 J-0.2 F1200
N11140 G1 Y67.241
N11150 G19 G2 Y67.041 Z-0.725 J0 K0.2
N11160 G0 Z1
N11170 X17.036
N11180 Z0.5
N11190 G1 Z-0.425 F60
N11200 Z-0.75
N11210 G3 Y67.241 Z-0.95 J0.2 K0
N11220 G1 Y67.441
N11230 G17 G3 X16.836 Y67.641 I-0.2 J0
N11240 G1 X0.132 F300
N11250 G2 X-0.868 Y68.641 I0 J1
N11260 G1 Y126.359
N11270 G2 X0.132 Y127.359 I1 J0
N11280 G1 X5.576
N11290 G2 X7.687 Y122.228 I0 J-3
N11300 G3 X25.984 Y103.754 I9.148 J-9.237
N11310 Y122.228 I-9.148 J9.237
N11320 G2 X28.095 Y127.359 I2.111 J2.131
N11330 G1 X102.258
N11340 G2 X104.369 Y122.227 I0 J-3
N11350 G3 X122.666 Y103.755 I9.149 J-9.236
N11360 Y122.227 I-9.149 J9.236
N11370 G2 X124.777 Y127.359 I2.111 J2.132
N11380 G1 X129.868
N11390 G2 X130.868 Y126.359 I0 J-1
N11400 G1 Y68.641
N11410 G2 X129.868 Y67.641 I-1 J0
N11420 G1 X16.836
N11430 G3 X16.636 Y67.441 I0 J-0.2 F1200
N11440 G1 Y67.241
N11450 G19 G2 Y67.041 Z-0.75 J0 K0.2
N11460 G0 Z1
N11470 X17.036
N11480 Z0.5
N11490 G1 Z-0.45 F60
N11500 Z-0.775
N11510 G3 Y67.241 Z-0.975 J0.2 K0
N11520 G1 Y67.441
N11530 G17 G3 X16.836 Y67.641 I-0.2 J0
N11540 G1 X0.132 F300
N11550 G2 X-0.868 Y68.641 I0 J1
N11560 G1 Y126.359
N11570 G2 X0.132 Y127.359 I1 J0
N11580 G1 X5.576
N11590 G2 X7.687 Y122.228 I0 J-3
N11600 G3 X25.984 Y103.754 I9.148 J-9.237
N11610 Y122.228 I-9.148 J9.237
N11620 G2 X28.095 Y127.359 I2.111 J2.131
N11630 G1 X102.258
N11640 G2 X104.369 Y122.227 I0 J-3
N11650 G3 X122.666 Y103.755 I9.149 J-9.236
N11660 Y122.227 I-9.149 J9.236
N11670 G2 X124.777 Y127.359 I2.111 J2.132
N11680 G1 X129.868
N11690 G2 X130.868 Y126.359 I0 J-1
N11700 G1 Y68.641
N11710 G2 X129.868 Y67.641 I-1 J0
N11720 G1 X16.836
N11730 G3 X16.636 Y67.441 I0 J-0.2 F1200
N11740 G1 Y67.241
N11750 G19 G2 Y67.041 Z-0.775 J0 K0.2
N11760 G0 Z1
N11770 X17.036
N11780 Z0.5
N11790 G1 Z-0.475 F60
N11800 Z-0.8
N11810 G3 Y67.241 Z-1 J0.2 K0
N11820 G1 Y67.441
N11830 G17 G3 X16.836 Y67.641 I-0.2 J0
N11840 G1 X0.132 F300
N11850 G2 X-0.868 Y68.641 I0 J1
N11860 G1 Y126.359
N11870 G2 X0.132 Y127.359 I1 J0
N11880 G1 X5.576
N11890 G2 X7.687 Y122.228 I0 J-3
N11900 G3 X25.984 Y103.754 I9.148 J-9.237
N11910 Y122.228 I-9.148 J9.237
N11920 G2 X28.095 Y127.359 I2.111 J2.131
N11930 G1 X102.258
N11940 G2 X104.369 Y122.227 I0 J-3
N11950 G3 X122.666 Y103.755 I9.149 J-9.236
N11960 Y122.227 I-9.149 J9.236
N11970 G2 X124.777 Y127.359 I2.111 J2.132
N11980 G1 X129.868
N11990 G2 X130.868 Y126.359 I0 J-1
N12000 G1 Y68.641
N12010 G2 X129.868 Y67.641 I-1 J0
N12020 G1 X16.836
N12030 G3 X16.636 Y67.441 I0 J-0.2 F1200
N12040 G1 Y67.241
N12050 G19 G2 Y67.041 Z-0.8 J0 K0.2
N12060 G0 Z1
N12070 X17.036
N12080 Z0.5
N12090 G1 Z-0.5 F60
N12100 Z-0.825
N12110 G3 Y67.241 Z-1.025 J0.2 K0
N12120 G1 Y67.441
N12130 G17 G3 X16.836 Y67.641 I-0.2 J0
N12140 G1 X0.132 F300
N12150 G2 X-0.868 Y68.641 I0 J1
N12160 G1 Y126.359
N12170 G2 X0.132 Y127.359 I1 J0
N12180 G1 X5.576
N12190 G2 X7.687 Y122.228 I0 J-3
N12200 G3 X25.984 Y103.754 I9.148 J-9.237
N12210 Y122.228 I-9.148 J9.237
N12220 G2 X28.095 Y127.359 I2.111 J2.131
N12230 G1 X102.258
N12240 G2 X104.369 Y122.227 I0 J-3
N12250 G3 X122.666 Y103.755 I9.149 J-9.236
N12260 Y122.227 I-9.149 J9.236
N12270 G2 X124.777 Y127.359 I2.111 J2.132
N12280 G1 X129.868
N12290 G2 X130.868 Y126.359 I0 J-1
N12300 G1 Y68.641
N12310 G2 X129.868 Y67.641 I-1 J0
N12320 G1 X16.836
N12330 G3 X16.636 Y67.441 I0 J-0.2 F1200
N12340 G1 Y67.241
N12350 G19 G2 Y67.041 Z-0.825 J0 K0.2
N12360 G0 Z1
N12370 X17.036
N12380 Z0.5
N12390 G1 Z-0.525 F60
N12400 Z-0.85
N12410 G3 Y67.241 Z-1.05 J0.2 K0
N12420 G1 Y67.441
N12430 G17 G3 X16.836 Y67.641 I-0.2 J0
N12440 G1 X0.132 F300
N12450 G2 X-0.868 Y68.641 I0 J1
N12460 G1 Y126.359
N12470 G2 X0.132 Y127.359 I1 J0
N12480 G1 X5.576
N12490 G2 X7.687 Y122.228 I0 J-3
N12500 G3 X25.984 Y103.754 I9.148 J-9.237
N12510 Y122.228 I-9.148 J9.237
N12520 G2 X28.095 Y127.359 I2.111 J2.131
N12530 G1 X102.258
N12540 G2 X104.369 Y122.227 I0 J-3
N12550 G3 X122.666 Y103.755 I9.149 J-9.236
N12560 Y122.227 I-9.149 J9.236
N12570 G2 X124.777 Y127.359 I2.111 J2.132
N12580 G1 X129.868
N12590 G2 X130.868 Y126.359 I0 J-1
N12600 G1 Y68.641
N12610 G2 X129.868 Y67.641 I-1 J0
N12620 G1 X16.836
N12630 G3 X16.636 Y67.441 I0 J-0.2 F1200
N12640 G1 Y67.241
N12650 G19 G2 Y67.041 Z-0.85 J0 K0.2
N12660 G0 Z1
N12670 X17.036
N12680 Z0.5
N12690 G1 Z-0.55 F60
N12700 Z-0.875
N12710 G3 Y67.241 Z-1.075 J0.2 K0
N12720 G1 Y67.441
N12730 G17 G3 X16.836 Y67.641 I-0.2 J0
N12740 G1 X10.241 F300
N12750 Z-1.05
N12760 X6.241
N12770 Z-1.075 F60
N12780 X0.132 F300
N12790 G2 X-0.868 Y68.641 I0 J1
N12800 G1 Y76.261
N12810 Z-1.05
N12820 Y80.261
N12830 Z-1.075 F60
N12840 Y95.5 F300
N12850 Z-1.05
N12860 Y99.5
N12870 Z-1.075 F60
N12880 Y114.739 F300
N12890 Z-1.05
N12900 Y118.739
N12910 Z-1.075 F60
N12920 Y126.359 F300
N12930 G2 X0.132 Y127.359 I1 J0
N12940 G1 X5.576
N12950 G2 X7.687 Y122.228 I0 J-3
N12960 G3 X4.643 Y117.503 I9.148 J-9.237
N12970 G1 Z-1.05
N12980 G3 X3.849 Y113.583 I12.192 J-4.512
N12990 G1 Z-1.075 F60
N13000 G3 X8.024 Y103.432 I12.987 J-0.592 F300
N13010 G1 Z-1.05
N13020 G3 X11.348 Y101.206 I8.811 J9.559
N13030 G1 Z-1.075 F60
N13040 G3 X22.323 I5.488 J11.785 F300
N13050 G1 Z-1.05
N13060 G3 X25.647 Y103.432 I-5.488 J11.785
N13070 G1 Z-1.075 F60
N13080 G3 X29.822 Y113.583 I-8.811 J9.559 F300
N13090 G1 Z-1.05
N13100 G3 X29.028 Y117.503 I-12.987 J-0.592
N13110 G1 Z-1.075 F60
N13120 G3 X25.984 Y122.228 I-12.192 J-4.512 F300
N13130 G2 X28.095 Y127.359 I2.111 J2.131
N13140 G1 X35.366
N13150 Z-1.05
N13160 X39.366
N13170 Z-1.075 F60
N13180 X53.906 F300
N13190 Z-1.05
N13200 X57.906
N13210 Z-1.075 F60
N13220 X72.447 F300
N13230 Z-1.05
N13240 X76.447
N13250 Z-1.075 F60
N13260 X90.988 F300
N13270 Z-1.05
N13280 X94.988
N13290 Z-1.075 F60
N13300 X102.258 F300
N13310 G2 X104.369 Y122.227 I0 J-3
N13320 G3 X101.325 Y117.503 I9.149 J-9.236
N13330 G1 Z-1.05
N13340 G3 X100.53 Y113.583 I12.192 J-4.512
N13350 G1 Z-1.075 F60
N13360 G3 X104.707 Y103.432 I12.987 J-0.592 F300
N13370 G1 Z-1.05
N13380 G3 X108.03 Y101.205 I8.811 J9.559
N13390 G1 Z-1.075 F60
N13400 G3 X119.005 I5.488 J11.786 F300
N13410 G1 Z-1.05
N13420 G3 X122.328 Y103.432 I-5.488 J11.786
N13430 G1 Z-1.075 F60
N13440 G3 X126.505 Y113.583 I-8.811 J9.559 F300
N13450 G1 Z-1.05
N13460 G3 X125.71 Y117.503 I-12.987 J-0.592
N13470 G1 Z-1.075 F60
N13480 G3 X122.666 Y122.227 I-12.192 J-4.512 F300
N13490 G2 X124.777 Y127.359 I2.111 J2.132
N13500 G1 X129.868
N13510 G2 X130.868 Y126.359 I0 J-1
N13520 G1 Y118.739
N13530 Z-1.05
N13540 Y114.739
N13550 Z-1.075 F60
N13560 Y99.5 F300
N13570 Z-1.05
N13580 Y95.5
N13590 Z-1.075 F60
N13600 Y80.261 F300
N13610 Z-1.05
N13620 Y76.261
N13630 Z-1.075 F60
N13640 Y68.641 F300
N13650 G2 X129.868 Y67.641 I-1 J0
N13660 G1 X123.759
N13670 Z-1.05
N13680 X119.759
N13690 Z-1.075 F60
N13700 X107.542 F300
N13710 Z-1.05
N13720 X103.542
N13730 Z-1.075 F60
N13740 X91.325 F300
N13750 Z-1.05
N13760 X87.325
N13770 Z-1.075 F60
N13780 X75.108 F300
N13790 Z-1.05
N13800 X71.108
N13810 Z-1.075 F60
N13820 X58.892 F300
N13830 Z-1.05
N13840 X54.892
N13850 Z-1.075 F60
N13860 X42.675 F300
N13870 Z-1.05
N13880 X38.675
N13890 Z-1.075 F60
N13900 X26.458 F300
N13910 Z-1.05
N13920 X22.458
N13930 Z-1.075 F60
N13940 X16.836 F300
N13950 G3 X16.636 Y67.441 I0 J-0.2 F1200
N13960 G1 Y67.241
N13970 G19 G2 Y67.041 Z-0.875 J0 K0.2
N13980 G0 Z1
N13990 X17.036
N14000 Z0.5
N14010 G1 Z-0.575 F60
N14020 Z-0.9
N14030 G3 Y67.241 Z-1.1 J0.2 K0
N14040 G1 Y67.441
N14050 G17 G3 X16.836 Y67.641 I-0.2 J0
N14060 G1 X10.241 F300
N14070 Z-1.05
N14080 X6.241
N14090 Z-1.1 F60
N14100 X0.132 F300
N14110 G2 X-0.868 Y68.641 I0 J1
N14120 G1 Y76.261
N14130 Z-1.05
N14140 Y80.261
N14150 Z-1.1 F60
N14160 Y95.5 F300
N14170 Z-1.05
N14180 Y99.5
N14190 Z-1.1 F60
N14200 Y114.739 F300
N14210 Z-1.05
N14220 Y118.739
N14230 Z-1.1 F60
N14240 Y126.359 F300
N14250 G2 X0.132 Y127.359 I1 J0
N14260 G1 X5.576
N14270 G2 X7.687 Y122.228 I0 J-3
N14280 G3 X4.643 Y117.503 I9.148 J-9.237
N14290 G1 Z-1.05
N14300 G3 X3.849 Y113.583 I12.192 J-4.512
N14310 G1 Z-1.1 F60
N14320 G3 X8.024 Y103.432 I12.987 J-0.592 F300
N14330 G1 Z-1.05
N14340 G3 X11.348 Y101.206 I8.811 J9.559
N14350 G1 Z-1.1 F60
N14360 G3 X22.323 I5.488 J11.785 F300
N14370 G1 Z-1.05
N14380 G3 X25.647 Y103.432 I-5.488 J11.785
N14390 G1 Z-1.1 F60
N14400 G3 X29.822 Y113.583 I-8.811 J9.559 F300
N14410 G1 Z-1.05
N14420 G3 X29.028 Y117.503 I-12.987 J-0.592
N14430 G1 Z-1.1 F60
N14440 G3 X25.984 Y122.228 I-12.192 J-4.512 F300
N14450 G2 X28.095 Y127.359 I2.111 J2.131
N14460 G1 X35.366
N14470 Z-1.05
N14480 X39.366
N14490 Z-1.1 F60
N14500 X53.906 F300
N14510 Z-1.05
N14520 X57.906
N14530 Z-1.1 F60
N14540 X72.447 F300
N14550 Z-1.05
N14560 X76.447
N14570 Z-1.1 F60
N14580 X90.988 F300
N14590 Z-1.05
N14600 X94.988
N14610 Z-1.1 F60
N14620 X102.258 F300
N14630 G2 X104.369 Y122.227 I0 J-3
N14640 G3 X101.325 Y117.503 I9.149 J-9.236
N14650 G1 Z-1.05
N14660 G3 X100.53 Y113.583 I12.192 J-4.512
N14670 G1 Z-1.1 F60
N14680 G3 X104.707 Y103.432 I12.987 J-0.592 F300
N14690 G1 Z-1.05
N14700 G3 X108.03 Y101.205 I8.811 J9.559
N14710 G1 Z-1.1 F60
N14720 G3 X119.005 I5.488 J11.786 F300
N14730 G1 Z-1.05
N14740 G3 X122.328 Y103.432 I-5.488 J11.786
N14750 G1 Z-1.1 F60
N14760 G3 X126.505 Y113.583 I-8.811 J9.559 F300
N14770 G1 Z-1.05
N14780 G3 X125.71 Y117.503 I-12.987 J-0.592
N14790 G1 Z-1.1 F60
N14800 G3 X122.666 Y122.227 I-12.192 J-4.512 F300
N14810 G2 X124.777 Y127.359 I2.111 J2.132
N14820 G1 X129.868
N14830 G2 X130.868 Y126.359 I0 J-1
N14840 G1 Y118.739
N14850 Z-1.05
N14860 Y114.739
N14870 Z-1.1 F60
N14880 Y99.5 F300
N14890 Z-1.05
N14900 Y95.5
N14910 Z-1.1 F60
N14920 Y80.261 F300
N14930 Z-1.05
N14940 Y76.261
N14950 Z-1.1 F60
N14960 Y68.641 F300
N14970 G2 X129.868 Y67.641 I-1 J0
N14980 G1 X123.759
N14990 Z-1.05
N15000 X119.759
N15010 Z-1.1 F60
N15020 X107.542 F300
N15030 Z-1.05
N15040 X103.542
N15050 Z-1.1 F60
N15060 X91.325 F300
N15070 Z-1.05
N15080 X87.325
N15090 Z-1.1 F60
N15100 X75.108 F300
N15110 Z-1.05
N15120 X71.108
N15130 Z-1.1 F60
N15140 X58.892 F300
N15150 Z-1.05
N15160 X54.892
N15170 Z-1.1 F60
N15180 X42.675 F300
N15190 Z-1.05
N15200 X38.675
N15210 Z-1.1 F60
N15220 X26.458 F300
N15230 Z-1.05
N15240 X22.458
N15250 Z-1.1 F60
N15260 X16.836 F300
N15270 G3 X16.636 Y67.441 I0 J-0.2 F1200
N15280 G1 Y67.241
N15290 G19 G2 Y67.041 Z-0.9 J0 K0.2
N15300 G0 Z1
N15310 X17.036
N15320 Z0.5
N15330 G1 Z-0.6 F60
N15340 Z-0.925
N15350 G3 Y67.241 Z-1.125 J0.2 K0
N15360 G1 Y67.441
N15370 G17 G3 X16.836 Y67.641 I-0.2 J0
N15380 G1 X10.241 F300
N15390 Z-1.05
N15400 X6.241
N15410 Z-1.125 F60
N15420 X0.132 F300
N15430 G2 X-0.868 Y68.641 I0 J1
N15440 G1 Y76.261
N15450 Z-1.05
N15460 Y80.261
N15470 Z-1.125 F60
N15480 Y95.5 F300
N15490 Z-1.05
N15500 Y99.5
N15510 Z-1.125 F60
N15520 Y114.739 F300
N15530 Z-1.05
N15540 Y118.739
N15550 Z-1.125 F60
N15560 Y126.359 F300
N15570 G2 X0.132 Y127.359 I1 J0
N15580 G1 X5.576
N15590 G2 X7.687 Y122.228 I0 J-3
N15600 G3 X4.643 Y117.503 I9.148 J-9.237
N15610 G1 Z-1.05
N15620 G3 X3.849 Y113.583 I12.192 J-4.512
N15630 G1 Z-1.125 F60
N15640 G3 X8.024 Y103.432 I12.987 J-0.592 F300
N15650 G1 Z-1.05
N15660 G3 X11.348 Y101.206 I8.811 J9.559
N15670 G1 Z-1.125 F60
N15680 G3 X22.323 I5.488 J11.785 F300
N15690 G1 Z-1.05
N15700 G3 X25.647 Y103.432 I-5.488 J11.785
N15710 G1 Z-1.125 F60
N15720 G3 X29.822 Y113.583 I-8.811 J9.559 F300
N15730 G1 Z-1.05
N15740 G3 X29.028 Y117.503 I-12.987 J-0.592
N15750 G1 Z-1.125 F60
N15760 G3 X25.984 Y122.228 I-12.192 J-4.512 F300
N15770 G2 X28.095 Y127.359 I2.111 J2.131
N15780 G1 X35.366
N15790 Z-1.05
N15800 X39.366
N15810 Z-1.125 F60
N15820 X53.906 F300
N15830 Z-1.05
N15840 X57.906
N15850 Z-1.125 F60
N15860 X72.447 F300
N15870 Z-1.05
N15880 X76.447
N15890 Z-1.125 F60
N15900 X90.988 F300
N15910 Z-1.05
N15920 X94.988
N15930 Z-1.125 F60
N15940 X102.258 F300
N15950 G2 X104.369 Y122.227 I0 J-3
N15960 G3 X101.325 Y117.503 I9.149 J-9.236
N15970 G1 Z-1.05
N15980 G3 X100.53 Y113.583 I12.192 J-4.512
N15990 G1 Z-1.125 F60
N16000 G3 X104.707 Y103.432 I12.987 J-0.592 F300
N16010 G1 Z-1.05
N16020 G3 X108.03 Y101.205 I8.811 J9.559
N16030 G1 Z-1.125 F60
N16040 G3 X119.005 I5.488 J11.786 F300
N16050 G1 Z-1.05
N16060 G3 X122.328 Y103.432 I-5.488 J11.786
N16070 G1 Z-1.125 F60
N16080 G3 X126.505 Y113.583 I-8.811 J9.559 F300
N16090 G1 Z-1.05
N16100 G3 X125.71 Y117.503 I-12.987 J-0.592
N16110 G1 Z-1.125 F60
N16120 G3 X122.666 Y122.227 I-12.192 J-4.512 F300
N16130 G2 X124.777 Y127.359 I2.111 J2.132
N16140 G1 X129.868
N16150 G2 X130.868 Y126.359 I0 J-1
N16160 G1 Y118.739
N16170 Z-1.05
N16180 Y114.739
N16190 Z-1.125 F60
N16200 Y99.5 F300
N16210 Z-1.05
N16220 Y95.5
N16230 Z-1.125 F60
N16240 Y80.261 F300
N16250 Z-1.05
N16260 Y76.261
N16270 Z-1.125 F60
N16280 Y68.641 F300
N16290 G2 X129.868 Y67.641 I-1 J0
N16300 G1 X123.759
N16310 Z-1.05
N16320 X119.759
N16330 Z-1.125 F60
N16340 X107.542 F300
N16350 Z-1.05
N16360 X103.542
N16370 Z-1.125 F60
N16380 X91.325 F300
N16390 Z-1.05
N16400 X87.325
N16410 Z-1.125 F60
N16420 X75.108 F300
N16430 Z-1.05
N16440 X71.108
N16450 Z-1.125 F60
N16460 X58.892 F300
N16470 Z-1.05
N16480 X54.892
N16490 Z-1.125 F60
N16500 X42.675 F300
N16510 Z-1.05
N16520 X38.675
N16530 Z-1.125 F60
N16540 X26.458 F300
N16550 Z-1.05
N16560 X22.458
N16570 Z-1.125 F60
N16580 X16.836 F300
N16590 G3 X16.636 Y67.441 I0 J-0.2 F1200
N16600 G1 Y67.241
N16610 G19 G2 Y67.041 Z-0.925 J0 K0.2
N16620 G0 Z1
N16630 X17.036
N16640 Z0.5
N16650 G1 Z-0.625 F60
N16660 Z-0.95
N16670 G3 Y67.241 Z-1.15 J0.2 K0
N16680 G1 Y67.441
N16690 G17 G3 X16.836 Y67.641 I-0.2 J0
N16700 G1 X10.241 F300
N16710 Z-1.05
N16720 X6.241
N16730 Z-1.15 F60
N16740 X0.132 F300
N16750 G2 X-0.868 Y68.641 I0 J1
N16760 G1 Y76.261
N16770 Z-1.05
N16780 Y80.261
N16790 Z-1.15 F60
N16800 Y95.5 F300
N16810 Z-1.05
N16820 Y99.5
N16830 Z-1.15 F60
N16840 Y114.739 F300
N16850 Z-1.05
N16860 Y118.739
N16870 Z-1.15 F60
N16880 Y126.359 F300
N16890 G2 X0.132 Y127.359 I1 J0
N16900 G1 X5.576
N16910 G2 X7.687 Y122.228 I0 J-3
N16920 G3 X4.643 Y117.503 I9.148 J-9.237
N16930 G1 Z-1.05
N16940 G3 X3.849 Y113.583 I12.192 J-4.512
N16950 G1 Z-1.15 F60
N16960 G3 X8.024 Y103.432 I12.987 J-0.592 F300
N16970 G1 Z-1.05
N16980 G3 X11.348 Y101.206 I8.811 J9.559
N16990 G1 Z-1.15 F60
N17000 G3 X22.323 I5.488 J11.785 F300
N17010 G1 Z-1.05
N17020 G3 X25.647 Y103.432 I-5.488 J11.785
N17030 G1 Z-1.15 F60
N17040 G3 X29.822 Y113.583 I-8.811 J9.559 F300
N17050 G1 Z-1.05
N17060 G3 X29.028 Y117.503 I-12.987 J-0.592
N17070 G1 Z-1.15 F60
N17080 G3 X25.984 Y122.228 I-12.192 J-4.512 F300
N17090 G2 X28.095 Y127.359 I2.111 J2.131
N17100 G1 X35.366
N17110 Z-1.05
N17120 X39.366
N17130 Z-1.15 F60
N17140 X53.906 F300
N17150 Z-1.05
N17160 X57.906
N17170 Z-1.15 F60
N17180 X72.447 F300
N17190 Z-1.05
N17200 X76.447
N17210 Z-1.15 F60
N17220 X90.988 F300
N17230 Z-1.05
N17240 X94.988
N17250 Z-1.15 F60
N17260 X102.258 F300
N17270 G2 X104.369 Y122.227 I0 J-3
N17280 G3 X101.325 Y117.503 I9.149 J-9.236
N17290 G1 Z-1.05
N17300 G3 X100.53 Y113.583 I12.192 J-4.512
N17310 G1 Z-1.15 F60
N17320 G3 X104.707 Y103.432 I12.987 J-0.592 F300
N17330 G1 Z-1.05
N17340 G3 X108.03 Y101.205 I8.811 J9.559
N17350 G1 Z-1.15 F60
N17360 G3 X119.005 I5.488 J11.786 F300
N17370 G1 Z-1.05
N17380 G3 X122.328 Y103.432 I-5.488 J11.786
N17390 G1 Z-1.15 F60
N17400 G3 X126.505 Y113.583 I-8.811 J9.559 F300
N17410 G1 Z-1.05
N17420 G3 X125.71 Y117.503 I-12.987 J-0.592
N17430 G1 Z-1.15 F60
N17440 G3 X122.666 Y122.227 I-12.192 J-4.512 F300
N17450 G2 X124.777 Y127.359 I2.111 J2.132
N17460 G1 X129.868
N17470 G2 X130.868 Y126.359 I0 J-1
N17480 G1 Y118.739
N17490 Z-1.05
N17500 Y114.739
N17510 Z-1.15 F60
N17520 Y99.5 F300
N17530 Z-1.05
N17540 Y95.5
N17550 Z-1.15 F60
N17560 Y80.261 F300
N17570 Z-1.05
N17580 Y76.261
N17590 Z-1.15 F60
N17600 Y68.641 F300
N17610 G2 X129.868 Y67.641 I-1 J0
N17620 G1 X123.759
N17630 Z-1.05
N17640 X119.759
N17650 Z-1.15 F60
N17660 X107.542 F300
N17670 Z-1.05
N17680 X103.542
N17690 Z-1.15 F60
N17700 X91.325 F300
N17710 Z-1.05
N17720 X87.325
N17730 Z-1.15 F60
N17740 X75.108 F300
N17750 Z-1.05
N17760 X71.108
N17770 Z-1.15 F60
N17780 X58.892 F300
N17790 Z-1.05
N17800 X54.892
N17810 Z-1.15 F60
N17820 X42.675 F300
N17830 Z-1.05
N17840 X38.675
N17850 Z-1.15 F60
N17860 X26.458 F300
N17870 Z-1.05
N17880 X22.458
N17890 Z-1.15 F60
N17900 X16.836 F300
N17910 G3 X16.636 Y67.441 I0 J-0.2 F1200
N17920 G1 Y67.241
N17930 G19 G2 Y67.041 Z-0.95 J0 K0.2
N17940 G0 Z1
N17950 X17.036
N17960 Z0.5
N17970 G1 Z-0.65 F60
N17980 Z-0.975
N17990 G3 Y67.241 Z-1.175 J0.2 K0
N18000 G1 Y67.441
N18010 G17 G3 X16.836 Y67.641 I-0.2 J0
N18020 G1 X10.241 F300
N18030 Z-1.05
N18040 X6.241
N18050 Z-1.175 F60
N18060 X0.132 F300
N18070 G2 X-0.868 Y68.641 I0 J1
N18080 G1 Y76.261
N18090 Z-1.05
N18100 Y80.261
N18110 Z-1.175 F60
N18120 Y95.5 F300
N18130 Z-1.05
N18140 Y99.5
N18150 Z-1.175 F60
N18160 Y114.739 F300
N18170 Z-1.05
N18180 Y118.739
N18190 Z-1.175 F60
N18200 Y126.359 F300
N18210 G2 X0.132 Y127.359 I1 J0
N18220 G1 X5.576
N18230 G2 X7.687 Y122.228 I0 J-3
N18240 G3 X4.643 Y117.503 I9.148 J-9.237
N18250 G1 Z-1.05
N18260 G3 X3.849 Y113.583 I12.192 J-4.512
N18270 G1 Z-1.175 F60
N18280 G3 X8.024 Y103.432 I12.987 J-0.592 F300
N18290 G1 Z-1.05
N18300 G3 X11.348 Y101.206 I8.811 J9.559
N18310 G1 Z-1.175 F60
N18320 G3 X22.323 I5.488 J11.785 F300
N18330 G1 Z-1.05
N18340 G3 X25.647 Y103.432 I-5.488 J11.785
N18350 G1 Z-1.175 F60
N18360 G3 X29.822 Y113.583 I-8.811 J9.559 F300
N18370 G1 Z-1.05
N18380 G3 X29.028 Y117.503 I-12.987 J-0.592
N18390 G1 Z-1.175 F60
N18400 G3 X25.984 Y122.228 I-12.192 J-4.512 F300
N18410 G2 X28.095 Y127.359 I2.111 J2.131
N18420 G1 X35.366
N18430 Z-1.05
N18440 X39.366
N18450 Z-1.175 F60
N18460 X53.906 F300
N18470 Z-1.05
N18480 X57.906
N18490 Z-1.175 F60
N18500 X72.447 F300
N18510 Z-1.05
N18520 X76.447
N18530 Z-1.175 F60
N18540 X90.988 F300
N18550 Z-1.05
N18560 X94.988
N18570 Z-1.175 F60
N18580 X102.258 F300
N18590 G2 X104.369 Y122.227 I0 J-3
N18600 G3 X101.325 Y117.503 I9.149 J-9.236
N18610 G1 Z-1.05
N18620 G3 X100.53 Y113.583 I12.192 J-4.512
N18630 G1 Z-1.175 F60
N18640 G3 X104.707 Y103.432 I12.987 J-0.592 F300
N18650 G1 Z-1.05
N18660 G3 X108.03 Y101.205 I8.811 J9.559
N18670 G1 Z-1.175 F60
N18680 G3 X119.005 I5.488 J11.786 F300
N18690 G1 Z-1.05
N18700 G3 X122.328 Y103.432 I-5.488 J11.786
N18710 G1 Z-1.175 F60
N18720 G3 X126.505 Y113.583 I-8.811 J9.559 F300
N18730 G1 Z-1.05
N18740 G3 X125.71 Y117.503 I-12.987 J-0.592
N18750 G1 Z-1.175 F60
N18760 G3 X122.666 Y122.227 I-12.192 J-4.512 F300
N18770 G2 X124.777 Y127.359 I2.111 J2.132
N18780 G1 X129.868
N18790 G2 X130.868 Y126.359 I0 J-1
N18800 G1 Y118.739
N18810 Z-1.05
N18820 Y114.739
N18830 Z-1.175 F60
N18840 Y99.5 F300
N18850 Z-1.05
N18860 Y95.5
N18870 Z-1.175 F60
N18880 Y80.261 F300
N18890 Z-1.05
N18900 Y76.261
N18910 Z-1.175 F60
N18920 Y68.641 F300
N18930 G2 X129.868 Y67.641 I-1 J0
N18940 G1 X123.759
N18950 Z-1.05
N18960 X119.759
N18970 Z-1.175 F60
N18980 X107.542 F300
N18990 Z-1.05
N19000 X103.542
N19010 Z-1.175 F60
N19020 X91.325 F300
N19030 Z-1.05
N19040 X87.325
N19050 Z-1.175 F60
N19060 X75.108 F300
N19070 Z-1.05
N19080 X71.108
N19090 Z-1.175 F60
N19100 X58.892 F300
N19110 Z-1.05
N19120 X54.892
N19130 Z-1.175 F60
N19140 X42.675 F300
N19150 Z-1.05
N19160 X38.675
N19170 Z-1.175 F60
N19180 X26.458 F300
N19190 Z-1.05
N19200 X22.458
N19210 Z-1.175 F60
N19220 X16.836 F300
N19230 G3 X16.636 Y67.441 I0 J-0.2 F1200
N19240 G1 Y67.241
N19250 G19 G2 Y67.041 Z-0.975 J0 K0.2
N19260 G0 Z1
N19270 X17.036
N19280 Z0.5
N19290 G1 Z-0.675 F60
N19300 Z-1
N19310 G3 Y67.241 Z-1.2 J0.2 K0
N19320 G1 Y67.441
N19330 G17 G3 X16.836 Y67.641 I-0.2 J0
N19340 G1 X10.241 F300
N19350 Z-1.05
N19360 X6.241
N19370 Z-1.2 F60
N19380 X0.132 F300
N19390 G2 X-0.868 Y68.641 I0 J1
N19400 G1 Y76.261
N19410 Z-1.05
N19420 Y80.261
N19430 Z-1.2 F60
N19440 Y95.5 F300
N19450 Z-1.05
N19460 Y99.5
N19470 Z-1.2 F60
N19480 Y114.739 F300
N19490 Z-1.05
N19500 Y118.739
N19510 Z-1.2 F60
N19520 Y126.359 F300
N19530 G2 X0.132 Y127.359 I1 J0
N19540 G1 X5.576
N19550 G2 X7.687 Y122.228 I0 J-3
N19560 G3 X4.643 Y117.503 I9.148 J-9.237
N19570 G1 Z-1.05
N19580 G3 X3.849 Y113.583 I12.192 J-4.512
N19590 G1 Z-1.2 F60
N19600 G3 X8.024 Y103.432 I12.987 J-0.592 F300
N19610 G1 Z-1.05
N19620 G3 X11.348 Y101.206 I8.811 J9.559
N19630 G1 Z-1.2 F60
N19640 G3 X22.323 I5.488 J11.785 F300
N19650 G1 Z-1.05
N19660 G3 X25.647 Y103.432 I-5.488 J11.785
N19670 G1 Z-1.2 F60
N19680 G3 X29.822 Y113.583 I-8.811 J9.559 F300
N19690 G1 Z-1.05
N19700 G3 X29.028 Y117.503 I-12.987 J-0.592
N19710 G1 Z-1.2 F60
N19720 G3 X25.984 Y122.228 I-12.192 J-4.512 F300
N19730 G2 X28.095 Y127.359 I2.111 J2.131
N19740 G1 X35.366
N19750 Z-1.05
N19760 X39.366
N19770 Z-1.2 F60
N19780 X53.906 F300
N19790 Z-1.05
N19800 X57.906
N19810 Z-1.2 F60
N19820 X72.447 F300
N19830 Z-1.05
N19840 X76.447
N19850 Z-1.2 F60
N19860 X90.988 F300
N19870 Z-1.05
N19880 X94.988
N19890 Z-1.2 F60
N19900 X102.258 F300
N19910 G2 X104.369 Y122.227 I0 J-3
N19920 G3 X101.325 Y117.503 I9.149 J-9.236
N19930 G1 Z-1.05
N19940 G3 X100.53 Y113.583 I12.192 J-4.512
N19950 G1 Z-1.2 F60
N19960 G3 X104.707 Y103.432 I12.987 J-0.592 F300
N19970 G1 Z-1.05
N19980 G3 X108.03 Y101.205 I8.811 J9.559
N19990 G1 Z-1.2 F60
N20000 G3 X119.005 I5.488 J11.786 F300
N20010 G1 Z-1.05
N20020 G3 X122.328 Y103.432 I-5.488 J11.786
N20030 G1 Z-1.2 F60
N20040 G3 X126.505 Y113.583 I-8.811 J9.559 F300
N20050 G1 Z-1.05
N20060 G3 X125.71 Y117.503 I-12.987 J-0.592
N20070 G1 Z-1.2 F60
N20080 G3 X122.666 Y122.227 I-12.192 J-4.512 F300
N20090 G2 X124.777 Y127.359 I2.111 J2.132
N20100 G1 X129.868
N20110 G2 X130.868 Y126.359 I0 J-1
N20120 G1 Y118.739
N20130 Z-1.05
N20140 Y114.739
N20150 Z-1.2 F60
N20160 Y99.5 F300
N20170 Z-1.05
N20180 Y95.5
N20190 Z-1.2 F60
N20200 Y80.261 F300
N20210 Z-1.05
N20220 Y76.261
N20230 Z-1.2 F60
N20240 Y68.641 F300
N20250 G2 X129.868 Y67.641 I-1 J0
N20260 G1 X123.759
N20270 Z-1.05
N20280 X119.759
N20290 Z-1.2 F60
N20300 X107.542 F300
N20310 Z-1.05
N20320 X103.542
N20330 Z-1.2 F60
N20340 X91.325 F300
N20350 Z-1.05
N20360 X87.325
N20370 Z-1.2 F60
N20380 X75.108 F300
N20390 Z-1.05
N20400 X71.108
N20410 Z-1.2 F60
N20420 X58.892 F300
N20430 Z-1.05
N20440 X54.892
N20450 Z-1.2 F60
N20460 X42.675 F300
N20470 Z-1.05
N20480 X38.675
N20490 Z-1.2 F60
N20500 X26.458 F300
N20510 Z-1.05
N20520 X22.458
N20530 Z-1.2 F60
N20540 X16.836 F300
N20550 G3 X16.636 Y67.441 I0 J-0.2 F1200
N20560 G1 Y67.241
N20570 G19 G2 Y67.041 Z-1 J0 K0.2
N20580 G0 Z1
N20590 X17.036
N20600 Z0.5
N20610 G1 Z-0.7 F60
N20620 Z-1.025
N20630 G3 Y67.241 Z-1.225 J0.2 K0
N20640 G1 Y67.441
N20650 G17 G3 X16.836 Y67.641 I-0.2 J0
N20660 G1 X10.241 F300
N20670 Z-1.05
N20680 X6.241
N20690 Z-1.225 F60
N20700 X0.132 F300
N20710 G2 X-0.868 Y68.641 I0 J1
N20720 G1 Y76.261
N20730 Z-1.05
N20740 Y80.261
N20750 Z-1.225 F60
N20760 Y95.5 F300
N20770 Z-1.05
N20780 Y99.5
N20790 Z-1.225 F60
N20800 Y114.739 F300
N20810 Z-1.05
N20820 Y118.739
N20830 Z-1.225 F60
N20840 Y126.359 F300
N20850 G2 X0.132 Y127.359 I1 J0
N20860 G1 X5.576
N20870 G2 X7.687 Y122.228 I0 J-3
N20880 G3 X4.643 Y117.503 I9.148 J-9.237
N20890 G1 Z-1.05
N20900 G3 X3.849 Y113.583 I12.192 J-4.512
N20910 G1 Z-1.225 F60
N20920 G3 X8.024 Y103.432 I12.987 J-0.592 F300
N20930 G1 Z-1.05
N20940 G3 X11.348 Y101.206 I8.811 J9.559
N20950 G1 Z-1.225 F60
N20960 G3 X22.323 I5.488 J11.785 F300
N20970 G1 Z-1.05
N20980 G3 X25.647 Y103.432 I-5.488 J11.785
N20990 G1 Z-1.225 F60
N21000 G3 X29.822 Y113.583 I-8.811 J9.559 F300
N21010 G1 Z-1.05
N21020 G3 X29.028 Y117.503 I-12.987 J-0.592
N21030 G1 Z-1.225 F60
N21040 G3 X25.984 Y122.228 I-12.192 J-4.512 F300
N21050 G2 X28.095 Y127.359 I2.111 J2.131
N21060 G1 X35.366
N21070 Z-1.05
N21080 X39.366
N21090 Z-1.225 F60
N21100 X53.906 F300
N21110 Z-1.05
N21120 X57.906
N21130 Z-1.225 F60
N21140 X72.447 F300
N21150 Z-1.05
N21160 X76.447
N21170 Z-1.225 F60
N21180 X90.988 F300
N21190 Z-1.05
N21200 X94.988
N21210 Z-1.225 F60
N21220 X102.258 F300
N21230 G2 X104.369 Y122.227 I0 J-3
N21240 G3 X101.325 Y117.503 I9.149 J-9.236
N21250 G1 Z-1.05
N21260 G3 X100.53 Y113.583 I12.192 J-4.512
N21270 G1 Z-1.225 F60
N21280 G3 X104.707 Y103.432 I12.987 J-0.592 F300
N21290 G1 Z-1.05
N21300 G3 X108.03 Y101.205 I8.811 J9.559
N21310 G1 Z-1.225 F60
N21320 G3 X119.005 I5.488 J11.786 F300
N21330 G1 Z-1.05
N21340 G3 X122.328 Y103.432 I-5.488 J11.786
N21350 G1 Z-1.225 F60
N21360 G3 X126.505 Y113.583 I-8.811 J9.559 F300
N21370 G1 Z-1.05
N21380 G3 X125.71 Y117.503 I-12.987 J-0.592
N21390 G1 Z-1.225 F60
N21400 G3 X122.666 Y122.227 I-12.192 J-4.512 F300
N21410 G2 X124.777 Y127.359 I2.111 J2.132
N21420 G1 X129.868
N21430 G2 X130.868 Y126.359 I0 J-1
N21440 G1 Y118.739
N21450 Z-1.05
N21460 Y114.739
N21470 Z-1.225 F60
N21480 Y99.5 F300
N21490 Z-1.05
N21500 Y95.5
N21510 Z-1.225 F60
N21520 Y80.261 F300
N21530 Z-1.05
N21540 Y76.261
N21550 Z-1.225 F60
N21560 Y68.641 F300
N21570 G2 X129.868 Y67.641 I-1 J0
N21580 G1 X123.759
N21590 Z-1.05
N21600 X119.759
N21610 Z-1.225 F60
N21620 X107.542 F300
N21630 Z-1.05
N21640 X103.542
N21650 Z-1.225 F60
N21660 X91.325 F300
N21670 Z-1.05
N21680 X87.325
N21690 Z-1.225 F60
N21700 X75.108 F300
N21710 Z-1.05
N21720 X71.108
N21730 Z-1.225 F60
N21740 X58.892 F300
N21750 Z-1.05
N21760 X54.892
N21770 Z-1.225 F60
N21780 X42.675 F300
N21790 Z-1.05
N21800 X38.675
N21810 Z-1.225 F60
N21820 X26.458 F300
N21830 Z-1.05
N21840 X22.458
N21850 Z-1.225 F60
N21860 X16.836 F300
N21870 G3 X16.636 Y67.441 I0 J-0.2 F1200
N21880 G1 Y67.241
N21890 G19 G2 Y67.041 Z-1.025 J0 K0.2
N21900 G0 Z1
N21910 X17.036
N21920 Z0.5
N21930 G1 Z-0.725 F60
N21940 Z-1.05
N21950 G3 Y67.241 Z-1.25 J0.2 K0
N21960 G1 Y67.441
N21970 G17 G3 X16.836 Y67.641 I-0.2 J0
N21980 G1 X10.241 F300
N21990 Z-1.05
N22000 X6.241
N22010 Z-1.25 F60
N22020 X0.132 F300
N22030 G2 X-0.868 Y68.641 I0 J1
N22040 G1 Y76.261
N22050 Z-1.05
N22060 Y80.261
N22070 Z-1.25 F60
N22080 Y95.5 F300
N22090 Z-1.05
N22100 Y99.5
N22110 Z-1.25 F60
N22120 Y114.739 F300
N22130 Z-1.05
N22140 Y118.739
N22150 Z-1.25 F60
N22160 Y126.359 F300
N22170 G2 X0.132 Y127.359 I1 J0
N22180 G1 X5.576
N22190 G2 X7.687 Y122.228 I0 J-3
N22200 G3 X4.643 Y117.503 I9.148 J-9.237
N22210 G1 Z-1.05
N22220 G3 X3.849 Y113.583 I12.192 J-4.512
N22230 G1 Z-1.25 F60
N22240 G3 X8.024 Y103.432 I12.987 J-0.592 F300
N22250 G1 Z-1.05
N22260 G3 X11.348 Y101.206 I8.811 J9.559
N22270 G1 Z-1.25 F60
N22280 G3 X22.323 I5.488 J11.785 F300
N22290 G1 Z-1.05
N22300 G3 X25.647 Y103.432 I-5.488 J11.785
N22310 G1 Z-1.25 F60
N22320 G3 X29.822 Y113.583 I-8.811 J9.559 F300
N22330 G1 Z-1.05
N22340 G3 X29.028 Y117.503 I-12.987 J-0.592
N22350 G1 Z-1.25 F60
N22360 G3 X25.984 Y122.228 I-12.192 J-4.512 F300
N22370 G2 X28.095 Y127.359 I2.111 J2.131
N22380 G1 X35.366
N22390 Z-1.05
N22400 X39.366
N22410 Z-1.25 F60
N22420 X53.906 F300
N22430 Z-1.05
N22440 X57.906
N22450 Z-1.25 F60
N22460 X72.447 F300
N22470 Z-1.05
N22480 X76.447
N22490 Z-1.25 F60
N22500 X90.988 F300
N22510 Z-1.05
N22520 X94.988
N22530 Z-1.25 F60
N22540 X102.258 F300
N22550 G2 X104.369 Y122.227 I0 J-3
N22560 G3 X101.325 Y117.503 I9.149 J-9.236
N22570 G1 Z-1.05
N22580 G3 X100.53 Y113.583 I12.192 J-4.512
N22590 G1 Z-1.25 F60
N22600 G3 X104.707 Y103.432 I12.987 J-0.592 F300
N22610 G1 Z-1.05
N22620 G3 X108.03 Y101.205 I8.811 J9.559
N22630 G1 Z-1.25 F60
N22640 G3 X119.005 I5.488 J11.786 F300
N22650 G1 Z-1.05
N22660 G3 X122.328 Y103.432 I-5.488 J11.786
N22670 G1 Z-1.25 F60
N22680 G3 X126.505 Y113.583 I-8.811 J9.559 F300
N22690 G1 Z-1.05
N22700 G3 X125.71 Y117.503 I-12.987 J-0.592
N22710 G1 Z-1.25 F60
N22720 G3 X122.666 Y122.227 I-12.192 J-4.512 F300
N22730 G2 X124.777 Y127.359 I2.111 J2.132
N22740 G1 X129.868
N22750 G2 X130.868 Y126.359 I0 J-1
N22760 G1 Y118.739
N22770 Z-1.05
N22780 Y114.739
N22790 Z-1.25 F60
N22800 Y99.5 F300
N22810 Z-1.05
N22820 Y95.5
N22830 Z-1.25 F60
N22840 Y80.261 F300
N22850 Z-1.05
N22860 Y76.261
N22870 Z-1.25 F60
N22880 Y68.641 F300
N22890 G2 X129.868 Y67.641 I-1 J0
N22900 G1 X123.759
N22910 Z-1.05
N22920 X119.759
N22930 Z-1.25 F60
N22940 X107.542 F300
N22950 Z-1.05
N22960 X103.542
N22970 Z-1.25 F60
N22980 X91.325 F300
N22990 Z-1.05
N23000 X87.325
N23010 Z-1.25 F60
N23020 X75.108 F300
N23030 Z-1.05
N23040 X71.108
N23050 Z-1.25 F60
N23060 X58.892 F300
N23070 Z-1.05
N23080 X54.892
N23090 Z-1.25 F60
N23100 X42.675 F300
N23110 Z-1.05
N23120 X38.675
N23130 Z-1.25 F60
N23140 X26.458 F300
N23150 Z-1.05
N23160 X22.458
N23170 Z-1.25 F60
N23180 X16.836 F300
N23190 G3 X16.636 Y67.441 I0 J-0.2 F1200
N23200 G1 Y67.241
N23210 G19 G2 Y67.041 Z-1.05 J0 K0.2
N23220 G0 Z1
N23230 X17.036
N23240 Z0.5
N23250 G1 Z-0.75 F60
N23260 Z-1.075
N23270 G3 Y67.241 Z-1.275 J0.2 K0
N23280 G1 Y67.441
N23290 G17 G3 X16.836 Y67.641 I-0.2 J0
N23300 G1 X10.241 F300
N23310 Z-1.05
N23320 X6.241
N23330 Z-1.275 F60
N23340 X0.132 F300
N23350 G2 X-0.868 Y68.641 I0 J1
N23360 G1 Y76.261
N23370 Z-1.05
N23380 Y80.261
N23390 Z-1.275 F60
N23400 Y95.5 F300
N23410 Z-1.05
N23420 Y99.5
N23430 Z-1.275 F60
N23440 Y114.739 F300
N23450 Z-1.05
N23460 Y118.739
N23470 Z-1.275 F60
N23480 Y126.359 F300
N23490 G2 X0.132 Y127.359 I1 J0
N23500 G1 X5.576
N23510 G2 X7.687 Y122.228 I0 J-3
N23520 G3 X4.643 Y117.503 I9.148 J-9.237
N23530 G1 Z-1.05
N23540 G3 X3.849 Y113.583 I12.192 J-4.512
N23550 G1 Z-1.275 F60
N23560 G3 X8.024 Y103.432 I12.987 J-0.592 F300
N23570 G1 Z-1.05
N23580 G3 X11.348 Y101.206 I8.811 J9.559
N23590 G1 Z-1.275 F60
N23600 G3 X22.323 I5.488 J11.785 F300
N23610 G1 Z-1.05
N23620 G3 X25.647 Y103.432 I-5.488 J11.785
N23630 G1 Z-1.275 F60
N23640 G3 X29.822 Y113.583 I-8.811 J9.559 F300
N23650 G1 Z-1.05
N23660 G3 X29.028 Y117.503 I-12.987 J-0.592
N23670 G1 Z-1.275 F60
N23680 G3 X25.984 Y122.228 I-12.192 J-4.512 F300
N23690 G2 X28.095 Y127.359 I2.111 J2.131
N23700 G1 X35.366
N23710 Z-1.05
N23720 X39.366
N23730 Z-1.275 F60
N23740 X53.906 F300
N23750 Z-1.05
N23760 X57.906
N23770 Z-1.275 F60
N23780 X72.447 F300
N23790 Z-1.05
N23800 X76.447
N23810 Z-1.275 F60
N23820 X90.988 F300
N23830 Z-1.05
N23840 X94.988
N23850 Z-1.275 F60
N23860 X102.258 F300
N23870 G2 X104.369 Y122.227 I0 J-3
N23880 G3 X101.325 Y117.503 I9.149 J-9.236
N23890 G1 Z-1.05
N23900 G3 X100.53 Y113.583 I12.192 J-4.512
N23910 G1 Z-1.275 F60
N23920 G3 X104.707 Y103.432 I12.987 J-0.592 F300
N23930 G1 Z-1.05
N23940 G3 X108.03 Y101.205 I8.811 J9.559
N23950 G1 Z-1.275 F60
N23960 G3 X119.005 I5.488 J11.786 F300
N23970 G1 Z-1.05
N23980 G3 X122.328 Y103.432 I-5.488 J11.786
N23990 G1 Z-1.275 F60
N24000 G3 X126.505 Y113.583 I-8.811 J9.559 F300
N24010 G1 Z-1.05
N24020 G3 X125.71 Y117.503 I-12.987 J-0.592
N24030 G1 Z-1.275 F60
N24040 G3 X122.666 Y122.227 I-12.192 J-4.512 F300
N24050 G2 X124.777 Y127.359 I2.111 J2.132
N24060 G1 X129.868
N24070 G2 X130.868 Y126.359 I0 J-1
N24080 G1 Y118.739
N24090 Z-1.05
N24100 Y114.739
N24110 Z-1.275 F60
N24120 Y99.5 F300
N24130 Z-1.05
N24140 Y95.5
N24150 Z-1.275 F60
N24160 Y80.261 F300
N24170 Z-1.05
N24180 Y76.261
N24190 Z-1.275 F60
N24200 Y68.641 F300
N24210 G2 X129.868 Y67.641 I-1 J0
N24220 G1 X123.759
N24230 Z-1.05
N24240 X119.759
N24250 Z-1.275 F60
N24260 X107.542 F300
N24270 Z-1.05
N24280 X103.542
N24290 Z-1.275 F60
N24300 X91.325 F300
N24310 Z-1.05
N24320 X87.325
N24330 Z-1.275 F60
N24340 X75.108 F300
N24350 Z-1.05
N24360 X71.108
N24370 Z-1.275 F60
N24380 X58.892 F300
N24390 Z-1.05
N24400 X54.892
N24410 Z-1.275 F60
N24420 X42.675 F300
N24430 Z-1.05
N24440 X38.675
N24450 Z-1.275 F60
N24460 X26.458 F300
N24470 Z-1.05
N24480 X22.458
N24490 Z-1.275 F60
N24500 X16.836 F300
N24510 G3 X16.636 Y67.441 I0 J-0.2 F1200
N24520 G1 Y67.241
N24530 G19 G2 Y67.041 Z-1.075 J0 K0.2
N24540 G0 Z1
N24550 X17.036
N24560 Z0.5
N24570 G1 Z-0.775 F60
N24580 Z-1.1
N24590 G3 Y67.241 Z-1.3 J0.2 K0
N24600 G1 Y67.441
N24610 G17 G3 X16.836 Y67.641 I-0.2 J0
N24620 G1 X10.241 F300
N24630 Z-1.05
N24640 X6.241
N24650 Z-1.3 F60
N24660 X0.132 F300
N24670 G2 X-0.868 Y68.641 I0 J1
N24680 G1 Y76.261
N24690 Z-1.05
N24700 Y80.261
N24710 Z-1.3 F60
N24720 Y95.5 F300
N24730 Z-1.05
N24740 Y99.5
N24750 Z-1.3 F60
N24760 Y114.739 F300
N24770 Z-1.05
N24780 Y118.739
N24790 Z-1.3 F60
N24800 Y126.359 F300
N24810 G2 X0.132 Y127.359 I1 J0
N24820 G1 X5.576
N24830 G2 X7.687 Y122.228 I0 J-3
N24840 G3 X4.643 Y117.503 I9.148 J-9.237
N24850 G1 Z-1.05
N24860 G3 X3.849 Y113.583 I12.192 J-4.512
N24870 G1 Z-1.3 F60
N24880 G3 X8.024 Y103.432 I12.987 J-0.592 F300
N24890 G1 Z-1.05
N24900 G3 X11.348 Y101.206 I8.811 J9.559
N24910 G1 Z-1.3 F60
N24920 G3 X22.323 I5.488 J11.785 F300
N24930 G1 Z-1.05
N24940 G3 X25.647 Y103.432 I-5.488 J11.785
N24950 G1 Z-1.3 F60
N24960 G3 X29.822 Y113.583 I-8.811 J9.559 F300
N24970 G1 Z-1.05
N24980 G3 X29.028 Y117.503 I-12.987 J-0.592
N24990 G1 Z-1.3 F60
N25000 G3 X25.984 Y122.228 I-12.192 J-4.512 F300
N25010 G2 X28.095 Y127.359 I2.111 J2.131
N25020 G1 X35.366
N25030 Z-1.05
N25040 X39.366
N25050 Z-1.3 F60
N25060 X53.906 F300
N25070 Z-1.05
N25080 X57.906
N25090 Z-1.3 F60
N25100 X72.447 F300
N25110 Z-1.05
N25120 X76.447
N25130 Z-1.3 F60
N25140 X90.988 F300
N25150 Z-1.05
N25160 X94.988
N25170 Z-1.3 F60
N25180 X102.258 F300
N25190 G2 X104.369 Y122.227 I0 J-3
N25200 G3 X101.325 Y117.503 I9.149 J-9.236
N25210 G1 Z-1.05
N25220 G3 X100.53 Y113.583 I12.192 J-4.512
N25230 G1 Z-1.3 F60
N25240 G3 X104.707 Y103.432 I12.987 J-0.592 F300
N25250 G1 Z-1.05
N25260 G3 X108.03 Y101.205 I8.811 J9.559
N25270 G1 Z-1.3 F60
N25280 G3 X119.005 I5.488 J11.786 F300
N25290 G1 Z-1.05
N25300 G3 X122.328 Y103.432 I-5.488 J11.786
N25310 G1 Z-1.3 F60
N25320 G3 X126.505 Y113.583 I-8.811 J9.559 F300
N25330 G1 Z-1.05
N25340 G3 X125.71 Y117.503 I-12.987 J-0.592
N25350 G1 Z-1.3 F60
N25360 G3 X122.666 Y122.227 I-12.192 J-4.512 F300
N25370 G2 X124.777 Y127.359 I2.111 J2.132
N25380 G1 X129.868
N25390 G2 X130.868 Y126.359 I0 J-1
N25400 G1 Y118.739
N25410 Z-1.05
N25420 Y114.739
N25430 Z-1.3 F60
N25440 Y99.5 F300
N25450 Z-1.05
N25460 Y95.5
N25470 Z-1.3 F60
N25480 Y80.261 F300
N25490 Z-1.05
N25500 Y76.261
N25510 Z-1.3 F60
N25520 Y68.641 F300
N25530 G2 X129.868 Y67.641 I-1 J0
N25540 G1 X123.759
N25550 Z-1.05
N25560 X119.759
N25570 Z-1.3 F60
N25580 X107.542 F300
N25590 Z-1.05
N25600 X103.542
N25610 Z-1.3 F60
N25620 X91.325 F300
N25630 Z-1.05
N25640 X87.325
N25650 Z-1.3 F60
N25660 X75.108 F300
N25670 Z-1.05
N25680 X71.108
N25690 Z-1.3 F60
N25700 X58.892 F300
N25710 Z-1.05
N25720 X54.892
N25730 Z-1.3 F60
N25740 X42.675 F300
N25750 Z-1.05
N25760 X38.675
N25770 Z-1.3 F60
N25780 X26.458 F300
N25790 Z-1.05
N25800 X22.458
N25810 Z-1.3 F60
N25820 X16.836 F300
N25830 G3 X16.636 Y67.441 I0 J-0.2 F1200
N25840 G1 Y67.241
N25850 G19 G2 Y67.041 Z-1.1 J0 K0.2
N25860 G0 Z1
N25870 X17.036
N25880 Z0.5
N25890 G1 Z-0.8 F60
N25900 Z-1.125
N25910 G3 Y67.241 Z-1.325 J0.2 K0
N25920 G1 Y67.441
N25930 G17 G3 X16.836 Y67.641 I-0.2 J0
N25940 G1 X10.241 F300
N25950 Z-1.05
N25960 X6.241
N25970 Z-1.325 F60
N25980 X0.132 F300
N25990 G2 X-0.868 Y68.641 I0 J1
N26000 G1 Y76.261
N26010 Z-1.05
N26020 Y80.261
N26030 Z-1.325 F60
N26040 Y95.5 F300
N26050 Z-1.05
N26060 Y99.5
N26070 Z-1.325 F60
N26080 Y114.739 F300
N26090 Z-1.05
N26100 Y118.739
N26110 Z-1.325 F60
N26120 Y126.359 F300
N26130 G2 X0.132 Y127.359 I1 J0
N26140 G1 X5.576
N26150 G2 X7.687 Y122.228 I0 J-3
N26160 G3 X4.643 Y117.503 I9.148 J-9.237
N26170 G1 Z-1.05
N26180 G3 X3.849 Y113.583 I12.192 J-4.512
N26190 G1 Z-1.325 F60
N26200 G3 X8.024 Y103.432 I12.987 J-0.592 F300
N26210 G1 Z-1.05
N26220 G3 X11.348 Y101.206 I8.811 J9.559
N26230 G1 Z-1.325 F60
N26240 G3 X22.323 I5.488 J11.785 F300
N26250 G1 Z-1.05
N26260 G3 X25.647 Y103.432 I-5.488 J11.785
N26270 G1 Z-1.325 F60
N26280 G3 X29.822 Y113.583 I-8.811 J9.559 F300
N26290 G1 Z-1.05
N26300 G3 X29.028 Y117.503 I-12.987 J-0.592
N26310 G1 Z-1.325 F60
N26320 G3 X25.984 Y122.228 I-12.192 J-4.512 F300
N26330 G2 X28.095 Y127.359 I2.111 J2.131
N26340 G1 X35.366
N26350 Z-1.05
N26360 X39.366
N26370 Z-1.325 F60
N26380 X53.906 F300
N26390 Z-1.05
N26400 X57.906
N26410 Z-1.325 F60
N26420 X72.447 F300
N26430 Z-1.05
N26440 X76.447
N26450 Z-1.325 F60
N26460 X90.988 F300
N26470 Z-1.05
N26480 X94.988
N26490 Z-1.325 F60
N26500 X102.258 F300
N26510 G2 X104.369 Y122.227 I0 J-3
N26520 G3 X101.325 Y117.503 I9.149 J-9.236
N26530 G1 Z-1.05
N26540 G3 X100.53 Y113.583 I12.192 J-4.512
N26550 G1 Z-1.325 F60
N26560 G3 X104.707 Y103.432 I12.987 J-0.592 F300
N26570 G1 Z-1.05
N26580 G3 X108.03 Y101.205 I8.811 J9.559
N26590 G1 Z-1.325 F60
N26600 G3 X119.005 I5.488 J11.786 F300
N26610 G1 Z-1.05
N26620 G3 X122.328 Y103.432 I-5.488 J11.786
N26630 G1 Z-1.325 F60
N26640 G3 X126.505 Y113.583 I-8.811 J9.559 F300
N26650 G1 Z-1.05
N26660 G3 X125.71 Y117.503 I-12.987 J-0.592
N26670 G1 Z-1.325 F60
N26680 G3 X122.666 Y122.227 I-12.192 J-4.512 F300
N26690 G2 X124.777 Y127.359 I2.111 J2.132
N26700 G1 X129.868
N26710 G2 X130.868 Y126.359 I0 J-1
N26720 G1 Y118.739
N26730 Z-1.05
N26740 Y114.739
N26750 Z-1.325 F60
N26760 Y99.5 F300
N26770 Z-1.05
N26780 Y95.5
N26790 Z-1.325 F60
N26800 Y80.261 F300
N26810 Z-1.05
N26820 Y76.261
N26830 Z-1.325 F60
N26840 Y68.641 F300
N26850 G2 X129.868 Y67.641 I-1 J0
N26860 G1 X123.759
N26870 Z-1.05
N26880 X119.759
N26890 Z-1.325 F60
N26900 X107.542 F300
N26910 Z-1.05
N26920 X103.542
N26930 Z-1.325 F60
N26940 X91.325 F300
N26950 Z-1.05
N26960 X87.325
N26970 Z-1.325 F60
N26980 X75.108 F300
N26990 Z-1.05
N27000 X71.108
N27010 Z-1.325 F60
N27020 X58.892 F300
N27030 Z-1.05
N27040 X54.892
N27050 Z-1.325 F60
N27060 X42.675 F300
N27070 Z-1.05
N27080 X38.675
N27090 Z-1.325 F60
N27100 X26.458 F300
N27110 Z-1.05
N27120 X22.458
N27130 Z-1.325 F60
N27140 X16.836 F300
N27150 G3 X16.636 Y67.441 I0 J-0.2 F1200
N27160 G1 Y67.241
N27170 G19 G2 Y67.041 Z-1.125 J0 K0.2
N27180 G0 Z1
N27190 X17.036
N27200 Z0.5
N27210 G1 Z-0.825 F60
N27220 Z-1.15
N27230 G3 Y67.241 Z-1.35 J0.2 K0
N27240 G1 Y67.441
N27250 G17 G3 X16.836 Y67.641 I-0.2 J0
N27260 G1 X10.241 F300
N27270 Z-1.05
N27280 X6.241
N27290 Z-1.35 F60
N27300 X0.132 F300
N27310 G2 X-0.868 Y68.641 I0 J1
N27320 G1 Y76.261
N27330 Z-1.05
N27340 Y80.261
N27350 Z-1.35 F60
N27360 Y95.5 F300
N27370 Z-1.05
N27380 Y99.5
N27390 Z-1.35 F60
N27400 Y114.739 F300
N27410 Z-1.05
N27420 Y118.739
N27430 Z-1.35 F60
N27440 Y126.359 F300
N27450 G2 X0.132 Y127.359 I1 J0
N27460 G1 X5.576
N27470 G2 X7.687 Y122.228 I0 J-3
N27480 G3 X4.643 Y117.503 I9.148 J-9.237
N27490 G1 Z-1.05
N27500 G3 X3.849 Y113.583 I12.192 J-4.512
N27510 G1 Z-1.35 F60
N27520 G3 X8.024 Y103.432 I12.987 J-0.592 F300
N27530 G1 Z-1.05
N27540 G3 X11.348 Y101.206 I8.811 J9.559
N27550 G1 Z-1.35 F60
N27560 G3 X22.323 I5.488 J11.785 F300
N27570 G1 Z-1.05
N27580 G3 X25.647 Y103.432 I-5.488 J11.785
N27590 G1 Z-1.35 F60
N27600 G3 X29.822 Y113.583 I-8.811 J9.559 F300
N27610 G1 Z-1.05
N27620 G3 X29.028 Y117.503 I-12.987 J-0.592
N27630 G1 Z-1.35 F60
N27640 G3 X25.984 Y122.228 I-12.192 J-4.512 F300
N27650 G2 X28.095 Y127.359 I2.111 J2.131
N27660 G1 X35.366
N27670 Z-1.05
N27680 X39.366
N27690 Z-1.35 F60
N27700 X53.906 F300
N27710 Z-1.05
N27720 X57.906
N27730 Z-1.35 F60
N27740 X72.447 F300
N27750 Z-1.05
N27760 X76.447
N27770 Z-1.35 F60
N27780 X90.988 F300
N27790 Z-1.05
N27800 X94.988
N27810 Z-1.35 F60
N27820 X102.258 F300
N27830 G2 X104.369 Y122.227 I0 J-3
N27840 G3 X101.325 Y117.503 I9.149 J-9.236
N27850 G1 Z-1.05
N27860 G3 X100.53 Y113.583 I12.192 J-4.512
N27870 G1 Z-1.35 F60
N27880 G3 X104.707 Y103.432 I12.987 J-0.592 F300
N27890 G1 Z-1.05
N27900 G3 X108.03 Y101.205 I8.811 J9.559
N27910 G1 Z-1.35 F60
N27920 G3 X119.005 I5.488 J11.786 F300
N27930 G1 Z-1.05
N27940 G3 X122.328 Y103.432 I-5.488 J11.786
N27950 G1 Z-1.35 F60
N27960 G3 X126.505 Y113.583 I-8.811 J9.559 F300
N27970 G1 Z-1.05
N27980 G3 X125.71 Y117.503 I-12.987 J-0.592
N27990 G1 Z-1.35 F60
N28000 G3 X122.666 Y122.227 I-12.192 J-4.512 F300
N28010 G2 X124.777 Y127.359 I2.111 J2.132
N28020 G1 X129.868
N28030 G2 X130.868 Y126.359 I0 J-1
N28040 G1 Y118.739
N28050 Z-1.05
N28060 Y114.739
N28070 Z-1.35 F60
N28080 Y99.5 F300
N28090 Z-1.05
N28100 Y95.5
N28110 Z-1.35 F60
N28120 Y80.261 F300
N28130 Z-1.05
N28140 Y76.261
N28150 Z-1.35 F60
N28160 Y68.641 F300
N28170 G2 X129.868 Y67.641 I-1 J0
N28180 G1 X123.759
N28190 Z-1.05
N28200 X119.759
N28210 Z-1.35 F60
N28220 X107.542 F300
N28230 Z-1.05
N28240 X103.542
N28250 Z-1.35 F60
N28260 X91.325 F300
N28270 Z-1.05
N28280 X87.325
N28290 Z-1.35 F60
N28300 X75.108 F300
N28310 Z-1.05
N28320 X71.108
N28330 Z-1.35 F60
N28340 X58.892 F300
N28350 Z-1.05
N28360 X54.892
N28370 Z-1.35 F60
N28380 X42.675 F300
N28390 Z-1.05
N28400 X38.675
N28410 Z-1.35 F60
N28420 X26.458 F300
N28430 Z-1.05
N28440 X22.458
N28450 Z-1.35 F60
N28460 X16.836 F300
N28470 G3 X16.636 Y67.441 I0 J-0.2 F1200
N28480 G1 Y67.241
N28490 G19 G2 Y67.041 Z-1.15 J0 K0.2
N28500 G0 Z1
N28510 X17.036
N28520 Z0.5
N28530 G1 Z-0.85 F60
N28540 Z-1.175
N28550 G3 Y67.241 Z-1.375 J0.2 K0
N28560 G1 Y67.441
N28570 G17 G3 X16.836 Y67.641 I-0.2 J0
N28580 G1 X10.241 F300
N28590 Z-1.05
N28600 X6.241
N28610 Z-1.375 F60
N28620 X0.132 F300
N28630 G2 X-0.868 Y68.641 I0 J1
N28640 G1 Y76.261
N28650 Z-1.05
N28660 Y80.261
N28670 Z-1.375 F60
N28680 Y95.5 F300
N28690 Z-1.05
N28700 Y99.5
N28710 Z-1.375 F60
N28720 Y114.739 F300
N28730 Z-1.05
N28740 Y118.739
N28750 Z-1.375 F60
N28760 Y126.359 F300
N28770 G2 X0.132 Y127.359 I1 J0
N28780 G1 X5.576
N28790 G2 X7.687 Y122.228 I0 J-3
N28800 G3 X4.643 Y117.503 I9.148 J-9.237
N28810 G1 Z-1.05
N28820 G3 X3.849 Y113.583 I12.192 J-4.512
N28830 G1 Z-1.375 F60
N28840 G3 X8.024 Y103.432 I12.987 J-0.592 F300
N28850 G1 Z-1.05
N28860 G3 X11.348 Y101.206 I8.811 J9.559
N28870 G1 Z-1.375 F60
N28880 G3 X22.323 I5.488 J11.785 F300
N28890 G1 Z-1.05
N28900 G3 X25.647 Y103.432 I-5.488 J11.785
N28910 G1 Z-1.375 F60
N28920 G3 X29.822 Y113.583 I-8.811 J9.559 F300
N28930 G1 Z-1.05
N28940 G3 X29.028 Y117.503 I-12.987 J-0.592
N28950 G1 Z-1.375 F60
N28960 G3 X25.984 Y122.228 I-12.192 J-4.512 F300
N28970 G2 X28.095 Y127.359 I2.111 J2.131
N28980 G1 X35.366
N28990 Z-1.05
N29000 X39.366
N29010 Z-1.375 F60
N29020 X53.906 F300
N29030 Z-1.05
N29040 X57.906
N29050 Z-1.375 F60
N29060 X72.447 F300
N29070 Z-1.05
N29080 X76.447
N29090 Z-1.375 F60
N29100 X90.988 F300
N29110 Z-1.05
N29120 X94.988
N29130 Z-1.375 F60
N29140 X102.258 F300
N29150 G2 X104.369 Y122.227 I0 J-3
N29160 G3 X101.325 Y117.503 I9.149 J-9.236
N29170 G1 Z-1.05
N29180 G3 X100.53 Y113.583 I12.192 J-4.512
N29190 G1 Z-1.375 F60
N29200 G3 X104.707 Y103.432 I12.987 J-0.592 F300
N29210 G1 Z-1.05
N29220 G3 X108.03 Y101.205 I8.811 J9.559
N29230 G1 Z-1.375 F60
N29240 G3 X119.005 I5.488 J11.786 F300
N29250 G1 Z-1.05
N29260 G3 X122.328 Y103.432 I-5.488 J11.786
N29270 G1 Z-1.375 F60
N29280 G3 X126.505 Y113.583 I-8.811 J9.559 F300
N29290 G1 Z-1.05
N29300 G3 X125.71 Y117.503 I-12.987 J-0.592
N29310 G1 Z-1.375 F60
N29320 G3 X122.666 Y122.227 I-12.192 J-4.512 F300
N29330 G2 X124.777 Y127.359 I2.111 J2.132
N29340 G1 X129.868
N29350 G2 X130.868 Y126.359 I0 J-1
N29360 G1 Y118.739
N29370 Z-1.05
N29380 Y114.739
N29390 Z-1.375 F60
N29400 Y99.5 F300
N29410 Z-1.05
N29420 Y95.5
N29430 Z-1.375 F60
N29440 Y80.261 F300
N29450 Z-1.05
N29460 Y76.261
N29470 Z-1.375 F60
N29480 Y68.641 F300
N29490 G2 X129.868 Y67.641 I-1 J0
N29500 G1 X123.759
N29510 Z-1.05
N29520 X119.759
N29530 Z-1.375 F60
N29540 X107.542 F300
N29550 Z-1.05
N29560 X103.542
N29570 Z-1.375 F60
N29580 X91.325 F300
N29590 Z-1.05
N29600 X87.325
N29610 Z-1.375 F60
N29620 X75.108 F300
N29630 Z-1.05
N29640 X71.108
N29650 Z-1.375 F60
N29660 X58.892 F300
N29670 Z-1.05
N29680 X54.892
N29690 Z-1.375 F60
N29700 X42.675 F300
N29710 Z-1.05
N29720 X38.675
N29730 Z-1.375 F60
N29740 X26.458 F300
N29750 Z-1.05
N29760 X22.458
N29770 Z-1.375 F60
N29780 X16.836 F300
N29790 G3 X16.636 Y67.441 I0 J-0.2 F1200
N29800 G1 Y67.241
N29810 G19 G2 Y67.041 Z-1.175 J0 K0.2
N29820 G0 Z1
N29830 X17.036
N29840 Z0.5
N29850 G1 Z-0.875 F60
N29860 Z-1.2
N29870 G3 Y67.241 Z-1.4 J0.2 K0
N29880 G1 Y67.441
N29890 G17 G3 X16.836 Y67.641 I-0.2 J0
N29900 G1 X10.241 F300
N29910 Z-1.05
N29920 X6.241
N29930 Z-1.4 F60
N29940 X0.132 F300
N29950 G2 X-0.868 Y68.641 I0 J1
N29960 G1 Y76.261
N29970 Z-1.05
N29980 Y80.261
N29990 Z-1.4 F60
N30000 Y95.5 F300
N30010 Z-1.05
N30020 Y99.5
N30030 Z-1.4 F60
N30040 Y114.739 F300
N30050 Z-1.05
N30060 Y118.739
N30070 Z-1.4 F60
N30080 Y126.359 F300
N30090 G2 X0.132 Y127.359 I1 J0
N30100 G1 X5.576
N30110 G2 X7.687 Y122.228 I0 J-3
N30120 G3 X4.643 Y117.503 I9.148 J-9.237
N30130 G1 Z-1.05
N30140 G3 X3.849 Y113.583 I12.192 J-4.512
N30150 G1 Z-1.4 F60
N30160 G3 X8.024 Y103.432 I12.987 J-0.592 F300
N30170 G1 Z-1.05
N30180 G3 X11.348 Y101.206 I8.811 J9.559
N30190 G1 Z-1.4 F60
N30200 G3 X22.323 I5.488 J11.785 F300
N30210 G1 Z-1.05
N30220 G3 X25.647 Y103.432 I-5.488 J11.785
N30230 G1 Z-1.4 F60
N30240 G3 X29.822 Y113.583 I-8.811 J9.559 F300
N30250 G1 Z-1.05
N30260 G3 X29.028 Y117.503 I-12.987 J-0.592
N30270 G1 Z-1.4 F60
N30280 G3 X25.984 Y122.228 I-12.192 J-4.512 F300
N30290 G2 X28.095 Y127.359 I2.111 J2.131
N30300 G1 X35.366
N30310 Z-1.05
N30320 X39.366
N30330 Z-1.4 F60
N30340 X53.906 F300
N30350 Z-1.05
N30360 X57.906
N30370 Z-1.4 F60
N30380 X72.447 F300
N30390 Z-1.05
N30400 X76.447
N30410 Z-1.4 F60
N30420 X90.988 F300
N30430 Z-1.05
N30440 X94.988
N30450 Z-1.4 F60
N30460 X102.258 F300
N30470 G2 X104.369 Y122.227 I0 J-3
N30480 G3 X101.325 Y117.503 I9.149 J-9.236
N30490 G1 Z-1.05
N30500 G3 X100.53 Y113.583 I12.192 J-4.512
N30510 G1 Z-1.4 F60
N30520 G3 X104.707 Y103.432 I12.987 J-0.592 F300
N30530 G1 Z-1.05
N30540 G3 X108.03 Y101.205 I8.811 J9.559
N30550 G1 Z-1.4 F60
N30560 G3 X119.005 I5.488 J11.786 F300
N30570 G1 Z-1.05
N30580 G3 X122.328 Y103.432 I-5.488 J11.786
N30590 G1 Z-1.4 F60
N30600 G3 X126.505 Y113.583 I-8.811 J9.559 F300
N30610 G1 Z-1.05
N30620 G3 X125.71 Y117.503 I-12.987 J-0.592
N30630 G1 Z-1.4 F60
N30640 G3 X122.666 Y122.227 I-12.192 J-4.512 F300
N30650 G2 X124.777 Y127.359 I2.111 J2.132
N30660 G1 X129.868
N30670 G2 X130.868 Y126.359 I0 J-1
N30680 G1 Y118.739
N30690 Z-1.05
N30700 Y114.739
N30710 Z-1.4 F60
N30720 Y99.5 F300
N30730 Z-1.05
N30740 Y95.5
N30750 Z-1.4 F60
N30760 Y80.261 F300
N30770 Z-1.05
N30780 Y76.261
N30790 Z-1.4 F60
N30800 Y68.641 F300
N30810 G2 X129.868 Y67.641 I-1 J0
N30820 G1 X123.759
N30830 Z-1.05
N30840 X119.759
N30850 Z-1.4 F60
N30860 X107.542 F300
N30870 Z-1.05
N30880 X103.542
N30890 Z-1.4 F60
N30900 X91.325 F300
N30910 Z-1.05
N30920 X87.325
N30930 Z-1.4 F60
N30940 X75.108 F300
N30950 Z-1.05
N30960 X71.108
N30970 Z-1.4 F60
N30980 X58.892 F300
N30990 Z-1.05
N31000 X54.892
N31010 Z-1.4 F60
N31020 X42.675 F300
N31030 Z-1.05
N31040 X38.675
N31050 Z-1.4 F60
N31060 X26.458 F300
N31070 Z-1.05
N31080 X22.458
N31090 Z-1.4 F60
N31100 X16.836 F300
N31110 G3 X16.636 Y67.441 I0 J-0.2 F1200
N31120 G1 Y67.241
N31130 G19 G2 Y67.041 Z-1.2 J0 K0.2
N31140 G0 Z1
N31150 X17.036
N31160 Z0.5
N31170 G1 Z-0.9 F60
N31180 Z-1.225
N31190 G3 Y67.241 Z-1.425 J0.2 K0
N31200 G1 Y67.441
N31210 G17 G3 X16.836 Y67.641 I-0.2 J0
N31220 G1 X10.241 F300
N31230 Z-1.05
N31240 X6.241
N31250 Z-1.425 F60
N31260 X0.132 F300
N31270 G2 X-0.868 Y68.641 I0 J1
N31280 G1 Y76.261
N31290 Z-1.05
N31300 Y80.261
N31310 Z-1.425 F60
N31320 Y95.5 F300
N31330 Z-1.05
N31340 Y99.5
N31350 Z-1.425 F60
N31360 Y114.739 F300
N31370 Z-1.05
N31380 Y118.739
N31390 Z-1.425 F60
N31400 Y126.359 F300
N31410 G2 X0.132 Y127.359 I1 J0
N31420 G1 X5.576
N31430 G2 X7.687 Y122.228 I0 J-3
N31440 G3 X4.643 Y117.503 I9.148 J-9.237
N31450 G1 Z-1.05
N31460 G3 X3.849 Y113.583 I12.192 J-4.512
N31470 G1 Z-1.425 F60
N31480 G3 X8.024 Y103.432 I12.987 J-0.592 F300
N31490 G1 Z-1.05
N31500 G3 X11.348 Y101.206 I8.811 J9.559
N31510 G1 Z-1.425 F60
N31520 G3 X22.323 I5.488 J11.785 F300
N31530 G1 Z-1.05
N31540 G3 X25.647 Y103.432 I-5.488 J11.785
N31550 G1 Z-1.425 F60
N31560 G3 X29.822 Y113.583 I-8.811 J9.559 F300
N31570 G1 Z-1.05
N31580 G3 X29.028 Y117.503 I-12.987 J-0.592
N31590 G1 Z-1.425 F60
N31600 G3 X25.984 Y122.228 I-12.192 J-4.512 F300
N31610 G2 X28.095 Y127.359 I2.111 J2.131
N31620 G1 X35.366
N31630 Z-1.05
N31640 X39.366
N31650 Z-1.425 F60
N31660 X53.906 F300
N31670 Z-1.05
N31680 X57.906
N31690 Z-1.425 F60
N31700 X72.447 F300
N31710 Z-1.05
N31720 X76.447
N31730 Z-1.425 F60
N31740 X90.988 F300
N31750 Z-1.05
N31760 X94.988
N31770 Z-1.425 F60
N31780 X102.258 F300
N31790 G2 X104.369 Y122.227 I0 J-3
N31800 G3 X101.325 Y117.503 I9.149 J-9.236
N31810 G1 Z-1.05
N31820 G3 X100.53 Y113.583 I12.192 J-4.512
N31830 G1 Z-1.425 F60
N31840 G3 X104.707 Y103.432 I12.987 J-0.592 F300
N31850 G1 Z-1.05
N31860 G3 X108.03 Y101.205 I8.811 J9.559
N31870 G1 Z-1.425 F60
N31880 G3 X119.005 I5.488 J11.786 F300
N31890 G1 Z-1.05
N31900 G3 X122.328 Y103.432 I-5.488 J11.786
N31910 G1 Z-1.425 F60
N31920 G3 X126.505 Y113.583 I-8.811 J9.559 F300
N31930 G1 Z-1.05
N31940 G3 X125.71 Y117.503 I-12.987 J-0.592
N31950 G1 Z-1.425 F60
N31960 G3 X122.666 Y122.227 I-12.192 J-4.512 F300
N31970 G2 X124.777 Y127.359 I2.111 J2.132
N31980 G1 X129.868
N31990 G2 X130.868 Y126.359 I0 J-1
N32000 G1 Y118.739
N32010 Z-1.05
N32020 Y114.739
N32030 Z-1.425 F60
N32040 Y99.5 F300
N32050 Z-1.05
N32060 Y95.5
N32070 Z-1.425 F60
N32080 Y80.261 F300
N32090 Z-1.05
N32100 Y76.261
N32110 Z-1.425 F60
N32120 Y68.641 F300
N32130 G2 X129.868 Y67.641 I-1 J0
N32140 G1 X123.759
N32150 Z-1.05
N32160 X119.759
N32170 Z-1.425 F60
N32180 X107.542 F300
N32190 Z-1.05
N32200 X103.542
N32210 Z-1.425 F60
N32220 X91.325 F300
N32230 Z-1.05
N32240 X87.325
N32250 Z-1.425 F60
N32260 X75.108 F300
N32270 Z-1.05
N32280 X71.108
N32290 Z-1.425 F60
N32300 X58.892 F300
N32310 Z-1.05
N32320 X54.892
N32330 Z-1.425 F60
N32340 X42.675 F300
N32350 Z-1.05
N32360 X38.675
N32370 Z-1.425 F60
N32380 X26.458 F300
N32390 Z-1.05
N32400 X22.458
N32410 Z-1.425 F60
N32420 X16.836 F300
N32430 G3 X16.636 Y67.441 I0 J-0.2 F1200
N32440 G1 Y67.241
N32450 G19 G2 Y67.041 Z-1.225 J0 K0.2
N32460 G0 Z1
N32470 X17.036
N32480 Z0.5
N32490 G1 Z-0.925 F60
N32500 Z-1.25
N32510 G3 Y67.241 Z-1.45 J0.2 K0
N32520 G1 Y67.441
N32530 G17 G3 X16.836 Y67.641 I-0.2 J0
N32540 G1 X10.241 F300
N32550 Z-1.05
N32560 X6.241
N32570 Z-1.45 F60
N32580 X0.132 F300
N32590 G2 X-0.868 Y68.641 I0 J1
N32600 G1 Y76.261
N32610 Z-1.05
N32620 Y80.261
N32630 Z-1.45 F60
N32640 Y95.5 F300
N32650 Z-1.05
N32660 Y99.5
N32670 Z-1.45 F60
N32680 Y114.739 F300
N32690 Z-1.05
N32700 Y118.739
N32710 Z-1.45 F60
N32720 Y126.359 F300
N32730 G2 X0.132 Y127.359 I1 J0
N32740 G1 X5.576
N32750 G2 X7.687 Y122.228 I0 J-3
N32760 G3 X4.643 Y117.503 I9.148 J-9.237
N32770 G1 Z-1.05
N32780 G3 X3.849 Y113.583 I12.192 J-4.512
N32790 G1 Z-1.45 F60
N32800 G3 X8.024 Y103.432 I12.987 J-0.592 F300
N32810 G1 Z-1.05
N32820 G3 X11.348 Y101.206 I8.811 J9.559
N32830 G1 Z-1.45 F60
N32840 G3 X22.323 I5.488 J11.785 F300
N32850 G1 Z-1.05
N32860 G3 X25.647 Y103.432 I-5.488 J11.785
N32870 G1 Z-1.45 F60
N32880 G3 X29.822 Y113.583 I-8.811 J9.559 F300
N32890 G1 Z-1.05
N32900 G3 X29.028 Y117.503 I-12.987 J-0.592
N32910 G1 Z-1.45 F60
N32920 G3 X25.984 Y122.228 I-12.192 J-4.512 F300
N32930 G2 X28.095 Y127.359 I2.111 J2.131
N32940 G1 X35.366
N32950 Z-1.05
N32960 X39.366
N32970 Z-1.45 F60
N32980 X53.906 F300
N32990 Z-1.05
N33000 X57.906
N33010 Z-1.45 F60
N33020 X72.447 F300
N33030 Z-1.05
N33040 X76.447
N33050 Z-1.45 F60
N33060 X90.988 F300
N33070 Z-1.05
N33080 X94.988
N33090 Z-1.45 F60
N33100 X102.258 F300
N33110 G2 X104.369 Y122.227 I0 J-3
N33120 G3 X101.325 Y117.503 I9.149 J-9.236
N33130 G1 Z-1.05
N33140 G3 X100.53 Y113.583 I12.192 J-4.512
N33150 G1 Z-1.45 F60
N33160 G3 X104.707 Y103.432 I12.987 J-0.592 F300
N33170 G1 Z-1.05
N33180 G3 X108.03 Y101.205 I8.811 J9.559
N33190 G1 Z-1.45 F60
N33200 G3 X119.005 I5.488 J11.786 F300
N33210 G1 Z-1.05
N33220 G3 X122.328 Y103.432 I-5.488 J11.786
N33230 G1 Z-1.45 F60
N33240 G3 X126.505 Y113.583 I-8.811 J9.559 F300
N33250 G1 Z-1.05
N33260 G3 X125.71 Y117.503 I-12.987 J-0.592
N33270 G1 Z-1.45 F60
N33280 G3 X122.666 Y122.227 I-12.192 J-4.512 F300
N33290 G2 X124.777 Y127.359 I2.111 J2.132
N33300 G1 X129.868
N33310 G2 X130.868 Y126.359 I0 J-1
N33320 G1 Y118.739
N33330 Z-1.05
N33340 Y114.739
N33350 Z-1.45 F60
N33360 Y99.5 F300
N33370 Z-1.05
N33380 Y95.5
N33390 Z-1.45 F60
N33400 Y80.261 F300
N33410 Z-1.05
N33420 Y76.261
N33430 Z-1.45 F60
N33440 Y68.641 F300
N33450 G2 X129.868 Y67.641 I-1 J0
N33460 G1 X123.759
N33470 Z-1.05
N33480 X119.759
N33490 Z-1.45 F60
N33500 X107.542 F300
N33510 Z-1.05
N33520 X103.542
N33530 Z-1.45 F60
N33540 X91.325 F300
N33550 Z-1.05
N33560 X87.325
N33570 Z-1.45 F60
N33580 X75.108 F300
N33590 Z-1.05
N33600 X71.108
N33610 Z-1.45 F60
N33620 X58.892 F300
N33630 Z-1.05
N33640 X54.892
N33650 Z-1.45 F60
N33660 X42.675 F300
N33670 Z-1.05
N33680 X38.675
N33690 Z-1.45 F60
N33700 X26.458 F300
N33710 Z-1.05
N33720 X22.458
N33730 Z-1.45 F60
N33740 X16.836 F300
N33750 G3 X16.636 Y67.441 I0 J-0.2 F1200
N33760 G1 Y67.241
N33770 G19 G2 Y67.041 Z-1.25 J0 K0.2
N33780 G0 Z1
N33790 X17.036
N33800 Z0.5
N33810 G1 Z-0.95 F60
N33820 Z-1.275
N33830 G3 Y67.241 Z-1.475 J0.2 K0
N33840 G1 Y67.441
N33850 G17 G3 X16.836 Y67.641 I-0.2 J0
N33860 G1 X10.241 F300
N33870 Z-1.05
N33880 X6.241
N33890 Z-1.475 F60
N33900 X0.132 F300
N33910 G2 X-0.868 Y68.641 I0 J1
N33920 G1 Y76.261
N33930 Z-1.05
N33940 Y80.261
N33950 Z-1.475 F60
N33960 Y95.5 F300
N33970 Z-1.05
N33980 Y99.5
N33990 Z-1.475 F60
N34000 Y114.739 F300
N34010 Z-1.05
N34020 Y118.739
N34030 Z-1.475 F60
N34040 Y126.359 F300
N34050 G2 X0.132 Y127.359 I1 J0
N34060 G1 X5.576
N34070 G2 X7.687 Y122.228 I0 J-3
N34080 G3 X4.643 Y117.503 I9.148 J-9.237
N34090 G1 Z-1.05
N34100 G3 X3.849 Y113.583 I12.192 J-4.512
N34110 G1 Z-1.475 F60
N34120 G3 X8.024 Y103.432 I12.987 J-0.592 F300
N34130 G1 Z-1.05
N34140 G3 X11.348 Y101.206 I8.811 J9.559
N34150 G1 Z-1.475 F60
N34160 G3 X22.323 I5.488 J11.785 F300
N34170 G1 Z-1.05
N34180 G3 X25.647 Y103.432 I-5.488 J11.785
N34190 G1 Z-1.475 F60
N34200 G3 X29.822 Y113.583 I-8.811 J9.559 F300
N34210 G1 Z-1.05
N34220 G3 X29.028 Y117.503 I-12.987 J-0.592
N34230 G1 Z-1.475 F60
N34240 G3 X25.984 Y122.228 I-12.192 J-4.512 F300
N34250 G2 X28.095 Y127.359 I2.111 J2.131
N34260 G1 X35.366
N34270 Z-1.05
N34280 X39.366
N34290 Z-1.475 F60
N34300 X53.906 F300
N34310 Z-1.05
N34320 X57.906
N34330 Z-1.475 F60
N34340 X72.447 F300
N34350 Z-1.05
N34360 X76.447
N34370 Z-1.475 F60
N34380 X90.988 F300
N34390 Z-1.05
N34400 X94.988
N34410 Z-1.475 F60
N34420 X102.258 F300
N34430 G2 X104.369 Y122.227 I0 J-3
N34440 G3 X101.325 Y117.503 I9.149 J-9.236
N34450 G1 Z-1.05
N34460 G3 X100.53 Y113.583 I12.192 J-4.512
N34470 G1 Z-1.475 F60
N34480 G3 X104.707 Y103.432 I12.987 J-0.592 F300
N34490 G1 Z-1.05
N34500 G3 X108.03 Y101.205 I8.811 J9.559
N34510 G1 Z-1.475 F60
N34520 G3 X119.005 I5.488 J11.786 F300
N34530 G1 Z-1.05
N34540 G3 X122.328 Y103.432 I-5.488 J11.786
N34550 G1 Z-1.475 F60
N34560 G3 X126.505 Y113.583 I-8.811 J9.559 F300
N34570 G1 Z-1.05
N34580 G3 X125.71 Y117.503 I-12.987 J-0.592
N34590 G1 Z-1.475 F60
N34600 G3 X122.666 Y122.227 I-12.192 J-4.512 F300
N34610 G2 X124.777 Y127.359 I2.111 J2.132
N34620 G1 X129.868
N34630 G2 X130.868 Y126.359 I0 J-1
N34640 G1 Y118.739
N34650 Z-1.05
N34660 Y114.739
N34670 Z-1.475 F60
N34680 Y99.5 F300
N34690 Z-1.05
N34700 Y95.5
N34710 Z-1.475 F60
N34720 Y80.261 F300
N34730 Z-1.05
N34740 Y76.261
N34750 Z-1.475 F60
N34760 Y68.641 F300
N34770 G2 X129.868 Y67.641 I-1 J0
N34780 G1 X123.759
N34790 Z-1.05
N34800 X119.759
N34810 Z-1.475 F60
N34820 X107.542 F300
N34830 Z-1.05
N34840 X103.542
N34850 Z-1.475 F60
N34860 X91.325 F300
N34870 Z-1.05
N34880 X87.325
N34890 Z-1.475 F60
N34900 X75.108 F300
N34910 Z-1.05
N34920 X71.108
N34930 Z-1.475 F60
N34940 X58.892 F300
N34950 Z-1.05
N34960 X54.892
N34970 Z-1.475 F60
N34980 X42.675 F300
N34990 Z-1.05
N35000 X38.675
N35010 Z-1.475 F60
N35020 X26.458 F300
N35030 Z-1.05
N35040 X22.458
N35050 Z-1.475 F60
N35060 X16.836 F300
N35070 G3 X16.636 Y67.441 I0 J-0.2 F1200
N35080 G1 Y67.241
N35090 G19 G2 Y67.041 Z-1.275 J0 K0.2
N35100 G0 Z1
N35110 X17.036
N35120 Z0.5
N35130 G1 Z-0.975 F60
N35140 Z-1.3
N35150 G3 Y67.241 Z-1.5 J0.2 K0
N35160 G1 Y67.441
N35170 G17 G3 X16.836 Y67.641 I-0.2 J0
N35180 G1 X10.241 F300
N35190 Z-1.05
N35200 X6.241
N35210 Z-1.5 F60
N35220 X0.132 F300
N35230 G2 X-0.868 Y68.641 I0 J1
N35240 G1 Y76.261
N35250 Z-1.05
N35260 Y80.261
N35270 Z-1.5 F60
N35280 Y95.5 F300
N35290 Z-1.05
N35300 Y99.5
N35310 Z-1.5 F60
N35320 Y114.739 F300
N35330 Z-1.05
N35340 Y118.739
N35350 Z-1.5 F60
N35360 Y126.359 F300
N35370 G2 X0.132 Y127.359 I1 J0
N35380 G1 X5.576
N35390 G2 X7.687 Y122.228 I0 J-3
N35400 G3 X4.643 Y117.503 I9.148 J-9.237
N35410 G1 Z-1.05
N35420 G3 X3.849 Y113.583 I12.192 J-4.512
N35430 G1 Z-1.5 F60
N35440 G3 X8.024 Y103.432 I12.987 J-0.592 F300
N35450 G1 Z-1.05
N35460 G3 X11.348 Y101.206 I8.811 J9.559
N35470 G1 Z-1.5 F60
N35480 G3 X22.323 I5.488 J11.785 F300
N35490 G1 Z-1.05
N35500 G3 X25.647 Y103.432 I-5.488 J11.785
N35510 G1 Z-1.5 F60
N35520 G3 X29.822 Y113.583 I-8.811 J9.559 F300
N35530 G1 Z-1.05
N35540 G3 X29.028 Y117.503 I-12.987 J-0.592
N35550 G1 Z-1.5 F60
N35560 G3 X25.984 Y122.228 I-12.192 J-4.512 F300
N35570 G2 X28.095 Y127.359 I2.111 J2.131
N35580 G1 X35.366
N35590 Z-1.05
N35600 X39.366
N35610 Z-1.5 F60
N35620 X53.906 F300
N35630 Z-1.05
N35640 X57.906
N35650 Z-1.5 F60
N35660 X72.447 F300
N35670 Z-1.05
N35680 X76.447
N35690 Z-1.5 F60
N35700 X90.988 F300
N35710 Z-1.05
N35720 X94.988
N35730 Z-1.5 F60
N35740 X102.258 F300
N35750 G2 X104.369 Y122.227 I0 J-3
N35760 G3 X101.325 Y117.503 I9.149 J-9.236
N35770 G1 Z-1.05
N35780 G3 X100.53 Y113.583 I12.192 J-4.512
N35790 G1 Z-1.5 F60
N35800 G3 X104.707 Y103.432 I12.987 J-0.592 F300
N35810 G1 Z-1.05
N35820 G3 X108.03 Y101.205 I8.811 J9.559
N35830 G1 Z-1.5 F60
N35840 G3 X119.005 I5.488 J11.786 F300
N35850 G1 Z-1.05
N35860 G3 X122.328 Y103.432 I-5.488 J11.786
N35870 G1 Z-1.5 F60
N35880 G3 X126.505 Y113.583 I-8.811 J9.559 F300
N35890 G1 Z-1.05
N35900 G3 X125.71 Y117.503 I-12.987 J-0.592
N35910 G1 Z-1.5 F60
N35920 G3 X122.666 Y122.227 I-12.192 J-4.512 F300
N35930 G2 X124.777 Y127.359 I2.111 J2.132
N35940 G1 X129.868
N35950 G2 X130.868 Y126.359 I0 J-1
N35960 G1 Y118.739
N35970 Z-1.05
N35980 Y114.739
N35990 Z-1.5 F60
N36000 Y99.5 F300
N36010 Z-1.05
N36020 Y95.5
N36030 Z-1.5 F60
N36040 Y80.261 F300
N36050 Z-1.05
N36060 Y76.261
N36070 Z-1.5 F60
N36080 Y68.641 F300
N36090 G2 X129.868 Y67.641 I-1 J0
N36100 G1 X123.759
N36110 Z-1.05
N36120 X119.759
N36130 Z-1.5 F60
N36140 X107.542 F300
N36150 Z-1.05
N36160 X103.542
N36170 Z-1.5 F60
N36180 X91.325 F300
N36190 Z-1.05
N36200 X87.325
N36210 Z-1.5 F60
N36220 X75.108 F300
N36230 Z-1.05
N36240 X71.108
N36250 Z-1.5 F60
N36260 X58.892 F300
N36270 Z-1.05
N36280 X54.892
N36290 Z-1.5 F60
N36300 X42.675 F300
N36310 Z-1.05
N36320 X38.675
N36330 Z-1.5 F60
N36340 X26.458 F300
N36350 Z-1.05
N36360 X22.458
N36370 Z-1.5 F60
N36380 X16.836 F300
N36390 G3 X16.636 Y67.441 I0 J-0.2 F1200
N36400 G1 Y67.241
N36410 G19 G2 Y67.041 Z-1.3 J0 K0.2
N36420 G0 Z1
N36430 X17.036
N36440 Z0.5
N36450 G1 Z-1 F60
N36460 Z-1.325
N36470 G3 Y67.241 Z-1.525 J0.2 K0
N36480 G1 Y67.441
N36490 G17 G3 X16.836 Y67.641 I-0.2 J0
N36500 G1 X10.241 F300
N36510 Z-1.05
N36520 X6.241
N36530 Z-1.525 F60
N36540 X0.132 F300
N36550 G2 X-0.868 Y68.641 I0 J1
N36560 G1 Y76.261
N36570 Z-1.05
N36580 Y80.261
N36590 Z-1.525 F60
N36600 Y95.5 F300
N36610 Z-1.05
N36620 Y99.5
N36630 Z-1.525 F60
N36640 Y114.739 F300
N36650 Z-1.05
N36660 Y118.739
N36670 Z-1.525 F60
N36680 Y126.359 F300
N36690 G2 X0.132 Y127.359 I1 J0
N36700 G1 X5.576
N36710 G2 X7.687 Y122.228 I0 J-3
N36720 G3 X4.643 Y117.503 I9.148 J-9.237
N36730 G1 Z-1.05
N36740 G3 X3.849 Y113.583 I12.192 J-4.512
N36750 G1 Z-1.525 F60
N36760 G3 X8.024 Y103.432 I12.987 J-0.592 F300
N36770 G1 Z-1.05
N36780 G3 X11.348 Y101.206 I8.811 J9.559
N36790 G1 Z-1.525 F60
N36800 G3 X22.323 I5.488 J11.785 F300
N36810 G1 Z-1.05
N36820 G3 X25.647 Y103.432 I-5.488 J11.785
N36830 G1 Z-1.525 F60
N36840 G3 X29.822 Y113.583 I-8.811 J9.559 F300
N36850 G1 Z-1.05
N36860 G3 X29.028 Y117.503 I-12.987 J-0.592
N36870 G1 Z-1.525 F60
N36880 G3 X25.984 Y122.228 I-12.192 J-4.512 F300
N36890 G2 X28.095 Y127.359 I2.111 J2.131
N36900 G1 X35.366
N36910 Z-1.05
N36920 X39.366
N36930 Z-1.525 F60
N36940 X53.906 F300
N36950 Z-1.05
N36960 X57.906
N36970 Z-1.525 F60
N36980 X72.447 F300
N36990 Z-1.05
N37000 X76.447
N37010 Z-1.525 F60
N37020 X90.988 F300
N37030 Z-1.05
N37040 X94.988
N37050 Z-1.525 F60
N37060 X102.258 F300
N37070 G2 X104.369 Y122.227 I0 J-3
N37080 G3 X101.325 Y117.503 I9.149 J-9.236
N37090 G1 Z-1.05
N37100 G3 X100.53 Y113.583 I12.192 J-4.512
N37110 G1 Z-1.525 F60
N37120 G3 X104.707 Y103.432 I12.987 J-0.592 F300
N37130 G1 Z-1.05
N37140 G3 X108.03 Y101.205 I8.811 J9.559
N37150 G1 Z-1.525 F60
N37160 G3 X119.005 I5.488 J11.786 F300
N37170 G1 Z-1.05
N37180 G3 X122.328 Y103.432 I-5.488 J11.786
N37190 G1 Z-1.525 F60
N37200 G3 X126.505 Y113.583 I-8.811 J9.559 F300
N37210 G1 Z-1.05
N37220 G3 X125.71 Y117.503 I-12.987 J-0.592
N37230 G1 Z-1.525 F60
N37240 G3 X122.666 Y122.227 I-12.192 J-4.512 F300
N37250 G2 X124.777 Y127.359 I2.111 J2.132
N37260 G1 X129.868
N37270 G2 X130.868 Y126.359 I0 J-1
N37280 G1 Y118.739
N37290 Z-1.05
N37300 Y114.739
N37310 Z-1.525 F60
N37320 Y99.5 F300
N37330 Z-1.05
N37340 Y95.5
N37350 Z-1.525 F60
N37360 Y80.261 F300
N37370 Z-1.05
N37380 Y76.261
N37390 Z-1.525 F60
N37400 Y68.641 F300
N37410 G2 X129.868 Y67.641 I-1 J0
N37420 G1 X123.759
N37430 Z-1.05
N37440 X119.759
N37450 Z-1.525 F60
N37460 X107.542 F300
N37470 Z-1.05
N37480 X103.542
N37490 Z-1.525 F60
N37500 X91.325 F300
N37510 Z-1.05
N37520 X87.325
N37530 Z-1.525 F60
N37540 X75.108 F300
N37550 Z-1.05
N37560 X71.108
N37570 Z-1.525 F60
N37580 X58.892 F300
N37590 Z-1.05
N37600 X54.892
N37610 Z-1.525 F60
N37620 X42.675 F300
N37630 Z-1.05
N37640 X38.675
N37650 Z-1.525 F60
N37660 X26.458 F300
N37670 Z-1.05
N37680 X22.458
N37690 Z-1.525 F60
N37700 X16.836 F300
N37710 G3 X16.636 Y67.441 I0 J-0.2 F1200
N37720 G1 Y67.241
N37730 G19 G2 Y67.041 Z-1.325 J0 K0.2
N37740 G0 Z1
N37750 X17.036
N37760 Z0.5
N37770 G1 Z-1.025 F60
N37780 Z-1.35
N37790 G3 Y67.241 Z-1.55 J0.2 K0
N37800 G1 Y67.441
N37810 G17 G3 X16.836 Y67.641 I-0.2 J0
N37820 G1 X10.241 F300
N37830 Z-1.05
N37840 X6.241
N37850 Z-1.55 F60
N37860 X0.132 F300
N37870 G2 X-0.868 Y68.641 I0 J1
N37880 G1 Y76.261
N37890 Z-1.05
N37900 Y80.261
N37910 Z-1.55 F60
N37920 Y95.5 F300
N37930 Z-1.05
N37940 Y99.5
N37950 Z-1.55 F60
N37960 Y114.739 F300
N37970 Z-1.05
N37980 Y118.739
N37990 Z-1.55 F60
N38000 Y126.359 F300
N38010 G2 X0.132 Y127.359 I1 J0
N38020 G1 X5.576
N38030 G2 X7.687 Y122.228 I0 J-3
N38040 G3 X4.643 Y117.503 I9.148 J-9.237
N38050 G1 Z-1.05
N38060 G3 X3.849 Y113.583 I12.192 J-4.512
N38070 G1 Z-1.55 F60
N38080 G3 X8.024 Y103.432 I12.987 J-0.592 F300
N38090 G1 Z-1.05
N38100 G3 X11.348 Y101.206 I8.811 J9.559
N38110 G1 Z-1.55 F60
N38120 G3 X22.323 I5.488 J11.785 F300
N38130 G1 Z-1.05
N38140 G3 X25.647 Y103.432 I-5.488 J11.785
N38150 G1 Z-1.55 F60
N38160 G3 X29.822 Y113.583 I-8.811 J9.559 F300
N38170 G1 Z-1.05
N38180 G3 X29.028 Y117.503 I-12.987 J-0.592
N38190 G1 Z-1.55 F60
N38200 G3 X25.984 Y122.228 I-12.192 J-4.512 F300
N38210 G2 X28.095 Y127.359 I2.111 J2.131
N38220 G1 X35.366
N38230 Z-1.05
N38240 X39.366
N38250 Z-1.55 F60
N38260 X53.906 F300
N38270 Z-1.05
N38280 X57.906
N38290 Z-1.55 F60
N38300 X72.447 F300
N38310 Z-1.05
N38320 X76.447
N38330 Z-1.55 F60
N38340 X90.988 F300
N38350 Z-1.05
N38360 X94.988
N38370 Z-1.55 F60
N38380 X102.258 F300
N38390 G2 X104.369 Y122.227 I0 J-3
N38400 G3 X101.325 Y117.503 I9.149 J-9.236
N38410 G1 Z-1.05
N38420 G3 X100.53 Y113.583 I12.192 J-4.512
N38430 G1 Z-1.55 F60
N38440 G3 X104.707 Y103.432 I12.987 J-0.592 F300
N38450 G1 Z-1.05
N38460 G3 X108.03 Y101.205 I8.811 J9.559
N38470 G1 Z-1.55 F60
N38480 G3 X119.005 I5.488 J11.786 F300
N38490 G1 Z-1.05
N38500 G3 X122.328 Y103.432 I-5.488 J11.786
N38510 G1 Z-1.55 F60
N38520 G3 X126.505 Y113.583 I-8.811 J9.559 F300
N38530 G1 Z-1.05
N38540 G3 X125.71 Y117.503 I-12.987 J-0.592
N38550 G1 Z-1.55 F60
N38560 G3 X122.666 Y122.227 I-12.192 J-4.512 F300
N38570 G2 X124.777 Y127.359 I2.111 J2.132
N38580 G1 X129.868
N38590 G2 X130.868 Y126.359 I0 J-1
N38600 G1 Y118.739
N38610 Z-1.05
N38620 Y114.739
N38630 Z-1.55 F60
N38640 Y99.5 F300
N38650 Z-1.05
N38660 Y95.5
N38670 Z-1.55 F60
N38680 Y80.261 F300
N38690 Z-1.05
N38700 Y76.261
N38710 Z-1.55 F60
N38720 Y68.641 F300
N38730 G2 X129.868 Y67.641 I-1 J0
N38740 G1 X123.759
N38750 Z-1.05
N38760 X119.759
N38770 Z-1.55 F60
N38780 X107.542 F300
N38790 Z-1.05
N38800 X103.542
N38810 Z-1.55 F60
N38820 X91.325 F300
N38830 Z-1.05
N38840 X87.325
N38850 Z-1.55 F60
N38860 X75.108 F300
N38870 Z-1.05
N38880 X71.108
N38890 Z-1.55 F60
N38900 X58.892 F300
N38910 Z-1.05
N38920 X54.892
N38930 Z-1.55 F60
N38940 X42.675 F300
N38950 Z-1.05
N38960 X38.675
N38970 Z-1.55 F60
N38980 X26.458 F300
N38990 Z-1.05
N39000 X22.458
N39010 Z-1.55 F60
N39020 X16.836 F300
N39030 G3 X16.636 Y67.441 I0 J-0.2 F1200
N39040 G1 Y67.241
N39050 G19 G2 Y67.041 Z-1.35 J0 K0.2
N39060 G0 Z1
N39070 X24.495 Y59.166
N39080 Z0.5
N39090 G1 Z0.175 F60
N39100 X24.501 Z0.123
N39110 X24.521 Z0.075
N39120 X24.553 Z0.034
N39130 X24.595 Z0.002
N39140 X24.643 Z-0.018
N39150 X24.695 Z-0.025
N39160 X24.895 Y59.165
N39170 G17 G3 X25.095 Y59.365 I0 J0.2
N39180 G2 X28.095 Y62.359 I3 J-0.006 F300
N39190 G1 X102.258
N39200 G2 X104.369 Y57.227 I0 J-3
N39210 G3 X122.666 Y38.755 I9.149 J-9.236
N39220 Y57.227 I-9.149 J9.236
N39230 G2 X124.777 Y62.359 I2.111 J2.132
N39240 G1 X129.868
N39250 G2 X130.868 Y61.359 I0 J-1
N39260 G1 Y3.641
N39270 G2 X129.868 Y2.641 I-1 J0
N39280 G1 X0.132
N39290 G2 X-0.868 Y3.641 I0 J1
N39300 G1 Y61.359
N39310 G2 X0.132 Y62.359 I1 J0
N39320 G1 X5.576
N39330 G2 X7.687 Y57.227 I0 J-3
N39340 G3 X25.984 Y38.755 I9.148 J-9.236
N39350 Y57.227 I-9.148 J9.236
N39360 G2 X25.095 Y59.365 I2.111 J2.131
N39370 G3 X24.895 Y59.565 I-0.2 J0 F1200
N39380 G1 X24.695 Y59.566
N39390 X24.644 Z-0.018
N39400 X24.595 Z0.002
N39410 X24.554 Z0.034
N39420 X24.522 Z0.075
N39430 X24.502 Z0.123
N39440 X24.495 Z0.175
N39450 G0 Z1
N39460 Y59.166
N39470 Z0.5
N39480 G1 Z0.475 F60
N39490 Z0.15
N39500 X24.501 Z0.098
N39510 X24.521 Z0.05
N39520 X24.553 Z0.009
N39530 X24.595 Z-0.023
N39540 X24.643 Z-0.043
N39550 X24.695 Z-0.05
N39560 X24.895 Y59.165
N39570 G3 X25.095 Y59.365 I0 J0.2
N39580 G2 X28.095 Y62.359 I3 J-0.006 F300
N39590 G1 X102.258
N39600 G2 X104.369 Y57.227 I0 J-3
N39610 G3 X122.666 Y38.755 I9.149 J-9.236
N39620 Y57.227 I-9.149 J9.236
N39630 G2 X124.777 Y62.359 I2.111 J2.132
N39640 G1 X129.868
N39650 G2 X130.868 Y61.359 I0 J-1
N39660 G1 Y3.641
N39670 G2 X129.868 Y2.641 I-1 J0
N39680 G1 X0.132
N39690 G2 X-0.868 Y3.641 I0 J1
N39700 G1 Y61.359
N39710 G2 X0.132 Y62.359 I1 J0
N39720 G1 X5.576
N39730 G2 X7.687 Y57.227 I0 J-3
N39740 G3 X25.984 Y38.755 I9.148 J-9.236
N39750 Y57.227 I-9.148 J9.236
N39760 G2 X25.095 Y59.365 I2.111 J2.131
N39770 G3 X24.895 Y59.565 I-0.2 J0 F1200
N39780 G1 X24.695 Y59.566
N39790 X24.644 Z-0.043
N39800 X24.595 Z-0.023
N39810 X24.554 Z0.009
N39820 X24.522 Z0.05
N39830 X24.502 Z0.098
N39840 X24.495 Z0.15
N39850 G0 Z1
N39860 Y59.166
N39870 Z0.5
N39880 G1 Z0.45 F60
N39890 Z0.125
N39900 X24.501 Z0.073
N39910 X24.521 Z0.025
N39920 X24.553 Z-0.016
N39930 X24.595 Z-0.048
N39940 X24.643 Z-0.068
N39950 X24.695 Z-0.075
N39960 X24.895 Y59.165
N39970 G3 X25.095 Y59.365 I0 J0.2
N39980 G2 X28.095 Y62.359 I3 J-0.006 F300
N39990 G1 X102.258
N40000 G2 X104.369 Y57.227 I0 J-3
N40010 G3 X122.666 Y38.755 I9.149 J-9.236
N40020 Y57.227 I-9.149 J9.236
N40030 G2 X124.777 Y62.359 I2.111 J2.132
N40040 G1 X129.868
N40050 G2 X130.868 Y61.359 I0 J-1
N40060 G1 Y3.641
N40070 G2 X129.868 Y2.641 I-1 J0
N40080 G1 X0.132
N40090 G2 X-0.868 Y3.641 I0 J1
N40100 G1 Y61.359
N40110 G2 X0.132 Y62.359 I1 J0
N40120 G1 X5.576
N40130 G2 X7.687 Y57.227 I0 J-3
N40140 G3 X25.984 Y38.755 I9.148 J-9.236
N40150 Y57.227 I-9.148 J9.236
N40160 G2 X25.095 Y59.365 I2.111 J2.131
N40170 G3 X24.895 Y59.565 I-0.2 J0 F1200
N40180 G1 X24.695 Y59.566
N40190 X24.644 Z-0.068
N40200 X24.595 Z-0.048
N40210 X24.554 Z-0.016
N40220 X24.522 Z0.025
N40230 X24.502 Z0.073
N40240 X24.495 Z0.125
N40250 G0 Z1
N40260 Y59.166
N40270 Z0.5
N40280 G1 Z0.425 F60
N40290 Z0.1
N40300 X24.501 Z0.048
N40310 X24.521 Z0
N40320 X24.553 Z-0.041
N40330 X24.595 Z-0.073
N40340 X24.643 Z-0.093
N40350 X24.695 Z-0.1
N40360 X24.895 Y59.165
N40370 G3 X25.095 Y59.365 I0 J0.2
N40380 G2 X28.095 Y62.359 I3 J-0.006 F300
N40390 G1 X102.258
N40400 G2 X104.369 Y57.227 I0 J-3
N40410 G3 X122.666 Y38.755 I9.149 J-9.236
N40420 Y57.227 I-9.149 J9.236
N40430 G2 X124.777 Y62.359 I2.111 J2.132
N40440 G1 X129.868
N40450 G2 X130.868 Y61.359 I0 J-1
N40460 G1 Y3.641
N40470 G2 X129.868 Y2.641 I-1 J0
N40480 G1 X0.132
N40490 G2 X-0.868 Y3.641 I0 J1
N40500 G1 Y61.359
N40510 G2 X0.132 Y62.359 I1 J0
N40520 G1 X5.576
N40530 G2 X7.687 Y57.227 I0 J-3
N40540 G3 X25.984 Y38.755 I9.148 J-9.236
N40550 Y57.227 I-9.148 J9.236
N40560 G2 X25.095 Y59.365 I2.111 J2.131
N40570 G3 X24.895 Y59.565 I-0.2 J0 F1200
N40580 G1 X24.695 Y59.566
N40590 X24.644 Z-0.093
N40600 X24.595 Z-0.073
N40610 X24.554 Z-0.041
N40620 X24.522 Z0
N40630 X24.502 Z0.048
N40640 X24.495 Z0.1
N40650 G0 Z1
N40660 Y59.166
N40670 Z0.5
N40680 G1 Z0.4 F60
N40690 Z0.075
N40700 X24.501 Z0.023
N40710 X24.521 Z-0.025
N40720 X24.553 Z-0.066
N40730 X24.595 Z-0.098
N40740 X24.643 Z-0.118
N40750 X24.695 Z-0.125
N40760 X24.895 Y59.165
N40770 G3 X25.095 Y59.365 I0 J0.2
N40780 G2 X28.095 Y62.359 I3 J-0.006 F300
N40790 G1 X102.258
N40800 G2 X104.369 Y57.227 I0 J-3
N40810 G3 X122.666 Y38.755 I9.149 J-9.236
N40820 Y57.227 I-9.149 J9.236
N40830 G2 X124.777 Y62.359 I2.111 J2.132
N40840 G1 X129.868
N40850 G2 X130.868 Y61.359 I0 J-1
N40860 G1 Y3.641
N40870 G2 X129.868 Y2.641 I-1 J0
N40880 G1 X0.132
N40890 G2 X-0.868 Y3.641 I0 J1
N40900 G1 Y61.359
N40910 G2 X0.132 Y62.359 I1 J0
N40920 G1 X5.576
N40930 G2 X7.687 Y57.227 I0 J-3
N40940 G3 X25.984 Y38.755 I9.148 J-9.236
N40950 Y57.227 I-9.148 J9.236
N40960 G2 X25.095 Y59.365 I2.111 J2.131
N40970 G3 X24.895 Y59.565 I-0.2 J0 F1200
N40980 G1 X24.695 Y59.566
N40990 X24.644 Z-0.118
N41000 X24.595 Z-0.098
N41010 X24.554 Z-0.066
N41020 X24.522 Z-0.025
N41030 X24.502 Z0.023
N41040 X24.495 Z0.075
N41050 G0 Z1
N41060 Y59.166
N41070 Z0.5
N41080 G1 Z0.375 F60
N41090 Z0.05
N41100 X24.501 Z-0.002
N41110 X24.521 Z-0.05
N41120 X24.553 Z-0.091
N41130 X24.595 Z-0.123
N41140 X24.643 Z-0.143
N41150 X24.695 Z-0.15
N41160 X24.895 Y59.165
N41170 G3 X25.095 Y59.365 I0 J0.2
N41180 G2 X28.095 Y62.359 I3 J-0.006 F300
N41190 G1 X102.258
N41200 G2 X104.369 Y57.227 I0 J-3
N41210 G3 X122.666 Y38.755 I9.149 J-9.236
N41220 Y57.227 I-9.149 J9.236
N41230 G2 X124.777 Y62.359 I2.111 J2.132
N41240 G1 X129.868
N41250 G2 X130.868 Y61.359 I0 J-1
N41260 G1 Y3.641
N41270 G2 X129.868 Y2.641 I-1 J0
N41280 G1 X0.132
N41290 G2 X-0.868 Y3.641 I0 J1
N41300 G1 Y61.359
N41310 G2 X0.132 Y62.359 I1 J0
N41320 G1 X5.576
N41330 G2 X7.687 Y57.227 I0 J-3
N41340 G3 X25.984 Y38.755 I9.148 J-9.236
N41350 Y57.227 I-9.148 J9.236
N41360 G2 X25.095 Y59.365 I2.111 J2.131
N41370 G3 X24.895 Y59.565 I-0.2 J0 F1200
N41380 G1 X24.695 Y59.566
N41390 X24.644 Z-0.143
N41400 X24.595 Z-0.123
N41410 X24.554 Z-0.091
N41420 X24.522 Z-0.05
N41430 X24.502 Z-0.002
N41440 X24.495 Z0.05
N41450 G0 Z1
N41460 Y59.166
N41470 Z0.5
N41480 G1 Z0.35 F60
N41490 Z0.025
N41500 X24.501 Z-0.027
N41510 X24.521 Z-0.075
N41520 X24.553 Z-0.116
N41530 X24.595 Z-0.148
N41540 X24.643 Z-0.168
N41550 X24.695 Z-0.175
N41560 X24.895 Y59.165
N41570 G3 X25.095 Y59.365 I0 J0.2
N41580 G2 X28.095 Y62.359 I3 J-0.006 F300
N41590 G1 X102.258
N41600 G2 X104.369 Y57.227 I0 J-3
N41610 G3 X122.666 Y38.755 I9.149 J-9.236
