%
(?2?x235y125z1.5mm)
(T1 D=2 CR=0 - ZMIN=-1.55 - flat end mill)
N10 G90 G94
N20 G17
N30 G21

(2D ??1)
N40 T1 M6
N50 S5600 M3
N60 G54
N70 G0 X229.316 Y71.428
N80 G43 Z1
N90 Z0.5
N100 G1 Z0.175 F60
N110 X229.317 Y71.435 Z0.123
N120 X229.318 Y71.455 Z0.075
N130 X229.32 Y71.487 Z0.034
N140 X229.322 Y71.528 Z0.002
N150 X229.325 Y71.576 Z-0.018
N160 X229.328 Y71.628 Z-0.025
N170 X229.339 Y71.828
N180 G3 X229.151 Y72.039 I-0.2 J0.011
N190 G1 X228.914 Y72.054 F300
N200 X215.938 Y71.822
N210 X215.963 Y69.849
N220 G2 X215.157 Y68.856 I-1 J-0.012
N230 G1 X193.194 Y64.519
N240 X193.097 Y64.505
N250 X193 Y64.5
N260 X30.5
N270 G2 Y126.5 I0 J31
N280 G1 X116.4
N290 X116.411
N300 X124.022 Y126.406
N310 X131.633 Y126.298
N320 X139.244 Y126.174
N330 X146.854 Y126.035
N340 X154.464 Y125.88
N350 X162.074 Y125.71
N360 X169.683 Y125.526
N370 X177.292 Y125.326
N380 X184.9 Y125.11
N390 X192.509 Y124.88
N400 X200.116 Y124.634
N410 X207.723 Y124.373
N420 X215.33 Y124.097
N430 X222.936 Y123.806
N440 X230.541 Y123.499
N450 G2 X230.896 Y123.418 I-0.041 J-0.999
N460 X241.095 Y116.476 I-12.883 J-29.892
N470 X229.151 Y72.039 I-10.595 J-20.976
N480 G3 X228.94 Y71.851 I-0.011 J-0.2 F1200
N490 G1 X228.928 Y71.651
N500 X228.925 Y71.599 Z-0.018
N510 X228.923 Y71.551 Z0.002
N520 X228.92 Y71.51 Z0.034
N530 X228.918 Y71.478 Z0.075
N540 X228.917 Y71.458 Z0.123
N550 Y71.451 Z0.175
N560 G0 Z1
N570 X229.316 Y71.428
N580 Z0.5
N590 G1 Z0.475 F60
N600 Z0.15
N610 X229.317 Y71.435 Z0.098
N620 X229.318 Y71.455 Z0.05
N630 X229.32 Y71.487 Z0.009
N640 X229.322 Y71.528 Z-0.023
N650 X229.325 Y71.576 Z-0.043
N660 X229.328 Y71.628 Z-0.05
N670 X229.339 Y71.828
N680 G3 X229.151 Y72.039 I-0.2 J0.011
N690 G1 X228.914 Y72.054 F300
N700 X215.938 Y71.822
N710 X215.963 Y69.849
N720 G2 X215.157 Y68.856 I-1 J-0.012
N730 G1 X193.194 Y64.519
N740 X193.097 Y64.505
N750 X193 Y64.5
N760 X30.5
N770 G2 Y126.5 I0 J31
N780 G1 X116.4
N790 X116.411
N800 X124.022 Y126.406
N810 X131.633 Y126.298
N820 X139.244 Y126.174
N830 X146.854 Y126.035
N840 X154.464 Y125.88
N850 X162.074 Y125.71
N860 X169.683 Y125.526
N870 X177.292 Y125.326
N880 X184.9 Y125.11
N890 X192.509 Y124.88
N900 X200.116 Y124.634
N910 X207.723 Y124.373
N920 X215.33 Y124.097
N930 X222.936 Y123.806
N940 X230.541 Y123.499
N950 G2 X230.896 Y123.418 I-0.041 J-0.999
N960 X241.095 Y116.476 I-12.883 J-29.892
N970 X229.151 Y72.039 I-10.595 J-20.976
N980 G3 X228.94 Y71.851 I-0.011 J-0.2 F1200
N990 G1 X228.928 Y71.651
N1000 X228.925 Y71.599 Z-0.043
N1010 X228.923 Y71.551 Z-0.023
N1020 X228.92 Y71.51 Z0.009
N1030 X228.918 Y71.478 Z0.05
N1040 X228.917 Y71.458 Z0.098
N1050 Y71.451 Z0.15
N1060 G0 Z1
N1070 X229.316 Y71.428
N1080 Z0.5
N1090 G1 Z0.45 F60
N1100 Z0.125
N1110 X229.317 Y71.435 Z0.073
N1120 X229.318 Y71.455 Z0.025
N1130 X229.32 Y71.487 Z-0.016
N1140 X229.322 Y71.528 Z-0.048
N1150 X229.325 Y71.576 Z-0.068
N1160 X229.328 Y71.628 Z-0.075
N1170 X229.339 Y71.828
N1180 G3 X229.151 Y72.039 I-0.2 J0.011
N1190 G1 X228.914 Y72.054 F300
N1200 X215.938 Y71.822
N1210 X215.963 Y69.849
N1220 G2 X215.157 Y68.856 I-1 J-0.012
N1230 G1 X193.194 Y64.519
N1240 X193.097 Y64.505
N1250 X193 Y64.5
N1260 X30.5
N1270 G2 Y126.5 I0 J31
N1280 G1 X116.4
N1290 X116.411
N1300 X124.022 Y126.406
N1310 X131.633 Y126.298
N1320 X139.244 Y126.174
N1330 X146.854 Y126.035
N1340 X154.464 Y125.88
N1350 X162.074 Y125.71
N1360 X169.683 Y125.526
N1370 X177.292 Y125.326
N1380 X184.9 Y125.11
N1390 X192.509 Y124.88
N1400 X200.116 Y124.634
N1410 X207.723 Y124.373
N1420 X215.33 Y124.097
N1430 X222.936 Y123.806
N1440 X230.541 Y123.499
N1450 G2 X230.896 Y123.418 I-0.041 J-0.999
N1460 X241.095 Y116.476 I-12.883 J-29.892
N1470 X229.151 Y72.039 I-10.595 J-20.976
N1480 G3 X228.94 Y71.851 I-0.011 J-0.2 F1200
N1490 G1 X228.928 Y71.651
N1500 X228.925 Y71.599 Z-0.068
N1510 X228.923 Y71.551 Z-0.048
N1520 X228.92 Y71.51 Z-0.016
N1530 X228.918 Y71.478 Z0.025
N1540 X228.917 Y71.458 Z0.073
N1550 Y71.451 Z0.125
N1560 G0 Z1
N1570 X229.316 Y71.428
N1580 Z0.5
N1590 G1 Z0.425 F60
N1600 Z0.1
N1610 X229.317 Y71.435 Z0.048
N1620 X229.318 Y71.455 Z0
N1630 X229.32 Y71.487 Z-0.041
N1640 X229.322 Y71.528 Z-0.073
N1650 X229.325 Y71.576 Z-0.093
N1660 X229.328 Y71.628 Z-0.1
N1670 X229.339 Y71.828
N1680 G3 X229.151 Y72.039 I-0.2 J0.011
N1690 G1 X228.914 Y72.054 F300
N1700 X215.938 Y71.822
N1710 X215.963 Y69.849
N1720 G2 X215.157 Y68.856 I-1 J-0.012
N1730 G1 X193.194 Y64.519
N1740 X193.097 Y64.505
N1750 X193 Y64.5
N1760 X30.5
N1770 G2 Y126.5 I0 J31
N1780 G1 X116.4
N1790 X116.411
N1800 X124.022 Y126.406
N1810 X131.633 Y126.298
N1820 X139.244 Y126.174
N1830 X146.854 Y126.035
N1840 X154.464 Y125.88
N1850 X162.074 Y125.71
N1860 X169.683 Y125.526
N1870 X177.292 Y125.326
N1880 X184.9 Y125.11
N1890 X192.509 Y124.88
N1900 X200.116 Y124.634
N1910 X207.723 Y124.373
N1920 X215.33 Y124.097
N1930 X222.936 Y123.806
N1940 X230.541 Y123.499
N1950 G2 X230.896 Y123.418 I-0.041 J-0.999
N1960 X241.095 Y116.476 I-12.883 J-29.892
N1970 X229.151 Y72.039 I-10.595 J-20.976
N1980 G3 X228.94 Y71.851 I-0.011 J-0.2 F1200
N1990 G1 X228.928 Y71.651
N2000 X228.925 Y71.599 Z-0.093
N2010 X228.923 Y71.551 Z-0.073
N2020 X228.92 Y71.51 Z-0.041
N2030 X228.918 Y71.478 Z0
N2040 X228.917 Y71.458 Z0.048
N2050 Y71.451 Z0.1
N2060 G0 Z1
N2070 X229.316 Y71.428
N2080 Z0.5
N2090 G1 Z0.4 F60
N2100 Z0.075
N2110 X229.317 Y71.435 Z0.023
N2120 X229.318 Y71.455 Z-0.025
N2130 X229.32 Y71.487 Z-0.066
N2140 X229.322 Y71.528 Z-0.098
N2150 X229.325 Y71.576 Z-0.118
N2160 X229.328 Y71.628 Z-0.125
N2170 X229.339 Y71.828
N2180 G3 X229.151 Y72.039 I-0.2 J0.011
N2190 G1 X228.914 Y72.054 F300
N2200 X215.938 Y71.822
N2210 X215.963 Y69.849
N2220 G2 X215.157 Y68.856 I-1 J-0.012
N2230 G1 X193.194 Y64.519
N2240 X193.097 Y64.505
N2250 X193 Y64.5
N2260 X30.5
N2270 G2 Y126.5 I0 J31
N2280 G1 X116.4
N2290 X116.411
N2300 X124.022 Y126.406
N2310 X131.633 Y126.298
N2320 X139.244 Y126.174
N2330 X146.854 Y126.035
N2340 X154.464 Y125.88
N2350 X162.074 Y125.71
N2360 X169.683 Y125.526
N2370 X177.292 Y125.326
N2380 X184.9 Y125.11
N2390 X192.509 Y124.88
N2400 X200.116 Y124.634
N2410 X207.723 Y124.373
N2420 X215.33 Y124.097
N2430 X222.936 Y123.806
N2440 X230.541 Y123.499
N2450 G2 X230.896 Y123.418 I-0.041 J-0.999
N2460 X241.095 Y116.476 I-12.883 J-29.892
N2470 X229.151 Y72.039 I-10.595 J-20.976
N2480 G3 X228.94 Y71.851 I-0.011 J-0.2 F1200
N2490 G1 X228.928 Y71.651
N2500 X228.925 Y71.599 Z-0.118
N2510 X228.923 Y71.551 Z-0.098
N2520 X228.92 Y71.51 Z-0.066
N2530 X228.918 Y71.478 Z-0.025
N2540 X228.917 Y71.458 Z0.023
N2550 Y71.451 Z0.075
N2560 G0 Z1
N2570 X229.316 Y71.428
N2580 Z0.5
N2590 G1 Z0.375 F60
N2600 Z0.05
N2610 X229.317 Y71.435 Z-0.002
N2620 X229.318 Y71.455 Z-0.05
N2630 X229.32 Y71.487 Z-0.091
N2640 X229.322 Y71.528 Z-0.123
N2650 X229.325 Y71.576 Z-0.143
N2660 X229.328 Y71.628 Z-0.15
N2670 X229.339 Y71.828
N2680 G3 X229.151 Y72.039 I-0.2 J0.011
N2690 G1 X228.914 Y72.054 F300
N2700 X215.938 Y71.822
N2710 X215.963 Y69.849
N2720 G2 X215.157 Y68.856 I-1 J-0.012
N2730 G1 X193.194 Y64.519
N2740 X193.097 Y64.505
N2750 X193 Y64.5
N2760 X30.5
N2770 G2 Y126.5 I0 J31
N2780 G1 X116.4
N2790 X116.411
N2800 X124.022 Y126.406
N2810 X131.633 Y126.298
N2820 X139.244 Y126.174
N2830 X146.854 Y126.035
N2840 X154.464 Y125.88
N2850 X162.074 Y125.71
N2860 X169.683 Y125.526
N2870 X177.292 Y125.326
N2880 X184.9 Y125.11
N2890 X192.509 Y124.88
N2900 X200.116 Y124.634
N2910 X207.723 Y124.373
N2920 X215.33 Y124.097
N2930 X222.936 Y123.806
N2940 X230.541 Y123.499
N2950 G2 X230.896 Y123.418 I-0.041 J-0.999
N2960 X241.095 Y116.476 I-12.883 J-29.892
N2970 X229.151 Y72.039 I-10.595 J-20.976
N2980 G3 X228.94 Y71.851 I-0.011 J-0.2 F1200
N2990 G1 X228.928 Y71.651
N3000 X228.925 Y71.599 Z-0.143
N3010 X228.923 Y71.551 Z-0.123
N3020 X228.92 Y71.51 Z-0.091
N3030 X228.918 Y71.478 Z-0.05
N3040 X228.917 Y71.458 Z-0.002
N3050 Y71.451 Z0.05
N3060 G0 Z1
N3070 X229.316 Y71.428
N3080 Z0.5
N3090 G1 Z0.35 F60
N3100 Z0.025
N3110 X229.317 Y71.435 Z-0.027
N3120 X229.318 Y71.455 Z-0.075
N3130 X229.32 Y71.487 Z-0.116
N3140 X229.322 Y71.528 Z-0.148
N3150 X229.325 Y71.576 Z-0.168
N3160 X229.328 Y71.628 Z-0.175
N3170 X229.339 Y71.828
N3180 G3 X229.151 Y72.039 I-0.2 J0.011
N3190 G1 X228.914 Y72.054 F300
N3200 X215.938 Y71.822
N3210 X215.963 Y69.849
N3220 G2 X215.157 Y68.856 I-1 J-0.012
N3230 G1 X193.194 Y64.519
N3240 X193.097 Y64.505
N3250 X193 Y64.5
N3260 X30.5
N3270 G2 Y126.5 I0 J31
N3280 G1 X116.4
N3290 X116.411
N3300 X124.022 Y126.406
N3310 X131.633 Y126.298
N3320 X139.244 Y126.174
N3330 X146.854 Y126.035
N3340 X154.464 Y125.88
N3350 X162.074 Y125.71
N3360 X169.683 Y125.526
N3370 X177.292 Y125.326
N3380 X184.9 Y125.11
N3390 X192.509 Y124.88
N3400 X200.116 Y124.634
N3410 X207.723 Y124.373
N3420 X215.33 Y124.097
N3430 X222.936 Y123.806
N3440 X230.541 Y123.499
N3450 G2 X230.896 Y123.418 I-0.041 J-0.999
N3460 X241.095 Y116.476 I-12.883 J-29.892
N3470 X229.151 Y72.039 I-10.595 J-20.976
N3480 G3 X228.94 Y71.851 I-0.011 J-0.2 F1200
N3490 G1 X228.928 Y71.651
N3500 X228.925 Y71.599 Z-0.168
N3510 X228.923 Y71.551 Z-0.148
N3520 X228.92 Y71.51 Z-0.116
N3530 X228.918 Y71.478 Z-0.075
N3540 X228.917 Y71.458 Z-0.027
N3550 Y71.451 Z0.025
N3560 G0 Z1
N3570 X229.316 Y71.428
N3580 Z0.5
N3590 G1 Z0.325 F60
N3600 Z0
N3610 X229.317 Y71.435 Z-0.052
N3620 X229.318 Y71.455 Z-0.1
N3630 X229.32 Y71.487 Z-0.141
N3640 X229.322 Y71.528 Z-0.173
N3650 X229.325 Y71.576 Z-0.193
N3660 X229.328 Y71.628 Z-0.2
N3670 X229.339 Y71.828
N3680 G3 X229.151 Y72.039 I-0.2 J0.011
N3690 G1 X228.914 Y72.054 F300
N3700 X215.938 Y71.822
N3710 X215.963 Y69.849
N3720 G2 X215.157 Y68.856 I-1 J-0.012
N3730 G1 X193.194 Y64.519
N3740 X193.097 Y64.505
N3750 X193 Y64.5
N3760 X30.5
N3770 G2 Y126.5 I0 J31
N3780 G1 X116.4
N3790 X116.411
N3800 X124.022 Y126.406
N3810 X131.633 Y126.298
N3820 X139.244 Y126.174
N3830 X146.854 Y126.035
N3840 X154.464 Y125.88
N3850 X162.074 Y125.71
N3860 X169.683 Y125.526
N3870 X177.292 Y125.326
N3880 X184.9 Y125.11
N3890 X192.509 Y124.88
N3900 X200.116 Y124.634
N3910 X207.723 Y124.373
N3920 X215.33 Y124.097
N3930 X222.936 Y123.806
N3940 X230.541 Y123.499
N3950 G2 X230.896 Y123.418 I-0.041 J-0.999
N3960 X241.095 Y116.476 I-12.883 J-29.892
N3970 X229.151 Y72.039 I-10.595 J-20.976
N3980 G3 X228.94 Y71.851 I-0.011 J-0.2 F1200
N3990 G1 X228.928 Y71.651
N4000 X228.925 Y71.599 Z-0.193
N4010 X228.923 Y71.551 Z-0.173
N4020 X228.92 Y71.51 Z-0.141
N4030 X228.918 Y71.478 Z-0.1
N4040 X228.917 Y71.458 Z-0.052
N4050 Y71.451 Z0
N4060 G0 Z1
N4070 X229.316 Y71.428
N4080 Z0.5
N4090 G1 Z0.3 F60
N4100 Z-0.025
N4110 X229.317 Y71.435 Z-0.077
N4120 X229.318 Y71.455 Z-0.125
N4130 X229.32 Y71.487 Z-0.166
N4140 X229.322 Y71.528 Z-0.198
N4150 X229.325 Y71.576 Z-0.218
N4160 X229.328 Y71.628 Z-0.225
N4170 X229.339 Y71.828
N4180 G3 X229.151 Y72.039 I-0.2 J0.011
N4190 G1 X228.914 Y72.054 F300
N4200 X215.938 Y71.822
N4210 X215.963 Y69.849
N4220 G2 X215.157 Y68.856 I-1 J-0.012
N4230 G1 X193.194 Y64.519
N4240 X193.097 Y64.505
N4250 X193 Y64.5
N4260 X30.5
N4270 G2 Y126.5 I0 J31
N4280 G1 X116.4
N4290 X116.411
N4300 X124.022 Y126.406
N4310 X131.633 Y126.298
N4320 X139.244 Y126.174
N4330 X146.854 Y126.035
N4340 X154.464 Y125.88
N4350 X162.074 Y125.71
N4360 X169.683 Y125.526
N4370 X177.292 Y125.326
N4380 X184.9 Y125.11
N4390 X192.509 Y124.88
N4400 X200.116 Y124.634
N4410 X207.723 Y124.373
N4420 X215.33 Y124.097
N4430 X222.936 Y123.806
N4440 X230.541 Y123.499
N4450 G2 X230.896 Y123.418 I-0.041 J-0.999
N4460 X241.095 Y116.476 I-12.883 J-29.892
N4470 X229.151 Y72.039 I-10.595 J-20.976
N4480 G3 X228.94 Y71.851 I-0.011 J-0.2 F1200
N4490 G1 X228.928 Y71.651
N4500 X228.925 Y71.599 Z-0.218
N4510 X228.923 Y71.551 Z-0.198
N4520 X228.92 Y71.51 Z-0.166
N4530 X228.918 Y71.478 Z-0.125
N4540 X228.917 Y71.458 Z-0.077
N4550 Y71.451 Z-0.025
N4560 G0 Z1
N4570 X229.316 Y71.428
N4580 Z0.5
N4590 G1 Z0.275 F60
N4600 Z-0.05
N4610 X229.317 Y71.435 Z-0.102
N4620 X229.318 Y71.455 Z-0.15
N4630 X229.32 Y71.487 Z-0.191
N4640 X229.322 Y71.528 Z-0.223
N4650 X229.325 Y71.576 Z-0.243
N4660 X229.328 Y71.628 Z-0.25
N4670 X229.339 Y71.828
N4680 G3 X229.151 Y72.039 I-0.2 J0.011
N4690 G1 X228.914 Y72.054 F300
N4700 X215.938 Y71.822
N4710 X215.963 Y69.849
N4720 G2 X215.157 Y68.856 I-1 J-0.012
N4730 G1 X193.194 Y64.519
N4740 X193.097 Y64.505
N4750 X193 Y64.5
N4760 X30.5
N4770 G2 Y126.5 I0 J31
N4780 G1 X116.4
N4790 X116.411
N4800 X124.022 Y126.406
N4810 X131.633 Y126.298
N4820 X139.244 Y126.174
N4830 X146.854 Y126.035
N4840 X154.464 Y125.88
N4850 X162.074 Y125.71
N4860 X169.683 Y125.526
N4870 X177.292 Y125.326
N4880 X184.9 Y125.11
N4890 X192.509 Y124.88
N4900 X200.116 Y124.634
N4910 X207.723 Y124.373
N4920 X215.33 Y124.097
N4930 X222.936 Y123.806
N4940 X230.541 Y123.499
N4950 G2 X230.896 Y123.418 I-0.041 J-0.999
N4960 X241.095 Y116.476 I-12.883 J-29.892
N4970 X229.151 Y72.039 I-10.595 J-20.976
N4980 G3 X228.94 Y71.851 I-0.011 J-0.2 F1200
N4990 G1 X228.928 Y71.651
N5000 X228.925 Y71.599 Z-0.243
N5010 X228.923 Y71.551 Z-0.223
N5020 X228.92 Y71.51 Z-0.191
N5030 X228.918 Y71.478 Z-0.15
N5040 X228.917 Y71.458 Z-0.102
N5050 Y71.451 Z-0.05
N5060 G0 Z1
N5070 X229.316 Y71.428
N5080 Z0.5
N5090 G1 Z0.25 F60
N5100 Z-0.075
N5110 X229.317 Y71.435 Z-0.127
N5120 X229.318 Y71.455 Z-0.175
N5130 X229.32 Y71.487 Z-0.216
N5140 X229.322 Y71.528 Z-0.248
N5150 X229.325 Y71.576 Z-0.268
N5160 X229.328 Y71.628 Z-0.275
N5170 X229.339 Y71.828
N5180 G3 X229.151 Y72.039 I-0.2 J0.011
N5190 G1 X228.914 Y72.054 F300
N5200 X215.938 Y71.822
N5210 X215.963 Y69.849
N5220 G2 X215.157 Y68.856 I-1 J-0.012
N5230 G1 X193.194 Y64.519
N5240 X193.097 Y64.505
N5250 X193 Y64.5
N5260 X30.5
N5270 G2 Y126.5 I0 J31
N5280 G1 X116.4
N5290 X116.411
N5300 X124.022 Y126.406
N5310 X131.633 Y126.298
N5320 X139.244 Y126.174
N5330 X146.854 Y126.035
N5340 X154.464 Y125.88
N5350 X162.074 Y125.71
N5360 X169.683 Y125.526
N5370 X177.292 Y125.326
N5380 X184.9 Y125.11
N5390 X192.509 Y124.88
N5400 X200.116 Y124.634
N5410 X207.723 Y124.373
N5420 X215.33 Y124.097
N5430 X222.936 Y123.806
N5440 X230.541 Y123.499
N5450 G2 X230.896 Y123.418 I-0.041 J-0.999
N5460 X241.095 Y116.476 I-12.883 J-29.892
N5470 X229.151 Y72.039 I-10.595 J-20.976
N5480 G3 X228.94 Y71.851 I-0.011 J-0.2 F1200
N5490 G1 X228.928 Y71.651
N5500 X228.925 Y71.599 Z-0.268
N5510 X228.923 Y71.551 Z-0.248
N5520 X228.92 Y71.51 Z-0.216
N5530 X228.918 Y71.478 Z-0.175
N5540 X228.917 Y71.458 Z-0.127
N5550 Y71.451 Z-0.075
N5560 G0 Z1
N5570 X229.316 Y71.428
N5580 Z0.5
N5590 G1 Z0.225 F60
N5600 Z-0.1
N5610 X229.317 Y71.435 Z-0.152
N5620 X229.318 Y71.455 Z-0.2
N5630 X229.32 Y71.487 Z-0.241
N5640 X229.322 Y71.528 Z-0.273
N5650 X229.325 Y71.576 Z-0.293
N5660 X229.328 Y71.628 Z-0.3
N5670 X229.339 Y71.828
N5680 G3 X229.151 Y72.039 I-0.2 J0.011
N5690 G1 X228.914 Y72.054 F300
N5700 X215.938 Y71.822
N5710 X215.963 Y69.849
N5720 G2 X215.157 Y68.856 I-1 J-0.012
N5730 G1 X193.194 Y64.519
N5740 X193.097 Y64.505
N5750 X193 Y64.5
N5760 X30.5
N5770 G2 Y126.5 I0 J31
N5780 G1 X116.4
N5790 X116.411
N5800 X124.022 Y126.406
N5810 X131.633 Y126.298
N5820 X139.244 Y126.174
N5830 X146.854 Y126.035
N5840 X154.464 Y125.88
N5850 X162.074 Y125.71
N5860 X169.683 Y125.526
N5870 X177.292 Y125.326
N5880 X184.9 Y125.11
N5890 X192.509 Y124.88
N5900 X200.116 Y124.634
N5910 X207.723 Y124.373
N5920 X215.33 Y124.097
N5930 X222.936 Y123.806
N5940 X230.541 Y123.499
N5950 G2 X230.896 Y123.418 I-0.041 J-0.999
N5960 X241.095 Y116.476 I-12.883 J-29.892
N5970 X229.151 Y72.039 I-10.595 J-20.976
N5980 G3 X228.94 Y71.851 I-0.011 J-0.2 F1200
N5990 G1 X228.928 Y71.651
N6000 X228.925 Y71.599 Z-0.293
N6010 X228.923 Y71.551 Z-0.273
N6020 X228.92 Y71.51 Z-0.241
N6030 X228.918 Y71.478 Z-0.2
N6040 X228.917 Y71.458 Z-0.152
N6050 Y71.451 Z-0.1
N6060 G0 Z1
N6070 X229.316 Y71.428
N6080 Z0.5
N6090 G1 Z0.2 F60
N6100 Z-0.125
N6110 X229.317 Y71.435 Z-0.177
N6120 X229.318 Y71.455 Z-0.225
N6130 X229.32 Y71.487 Z-0.266
N6140 X229.322 Y71.528 Z-0.298
N6150 X229.325 Y71.576 Z-0.318
N6160 X229.328 Y71.628 Z-0.325
N6170 X229.339 Y71.828
N6180 G3 X229.151 Y72.039 I-0.2 J0.011
N6190 G1 X228.914 Y72.054 F300
N6200 X215.938 Y71.822
N6210 X215.963 Y69.849
N6220 G2 X215.157 Y68.856 I-1 J-0.012
N6230 G1 X193.194 Y64.519
N6240 X193.097 Y64.505
N6250 X193 Y64.5
N6260 X30.5
N6270 G2 Y126.5 I0 J31
N6280 G1 X116.4
N6290 X116.411
N6300 X124.022 Y126.406
N6310 X131.633 Y126.298
N6320 X139.244 Y126.174
N6330 X146.854 Y126.035
N6340 X154.464 Y125.88
N6350 X162.074 Y125.71
N6360 X169.683 Y125.526
N6370 X177.292 Y125.326
N6380 X184.9 Y125.11
N6390 X192.509 Y124.88
N6400 X200.116 Y124.634
N6410 X207.723 Y124.373
N6420 X215.33 Y124.097
N6430 X222.936 Y123.806
N6440 X230.541 Y123.499
N6450 G2 X230.896 Y123.418 I-0.041 J-0.999
N6460 X241.095 Y116.476 I-12.883 J-29.892
N6470 X229.151 Y72.039 I-10.595 J-20.976
N6480 G3 X228.94 Y71.851 I-0.011 J-0.2 F1200
N6490 G1 X228.928 Y71.651
N6500 X228.925 Y71.599 Z-0.318
N6510 X228.923 Y71.551 Z-0.298
N6520 X228.92 Y71.51 Z-0.266
N6530 X228.918 Y71.478 Z-0.225
N6540 X228.917 Y71.458 Z-0.177
N6550 Y71.451 Z-0.125
N6560 G0 Z1
N6570 X229.316 Y71.428
N6580 Z0.5
N6590 G1 Z0.175 F60
N6600 Z-0.15
N6610 X229.317 Y71.435 Z-0.202
N6620 X229.318 Y71.455 Z-0.25
N6630 X229.32 Y71.487 Z-0.291
N6640 X229.322 Y71.528 Z-0.323
N6650 X229.325 Y71.576 Z-0.343
N6660 X229.328 Y71.628 Z-0.35
N6670 X229.339 Y71.828
N6680 G3 X229.151 Y72.039 I-0.2 J0.011
N6690 G1 X228.914 Y72.054 F300
N6700 X215.938 Y71.822
N6710 X215.963 Y69.849
N6720 G2 X215.157 Y68.856 I-1 J-0.012
N6730 G1 X193.194 Y64.519
N6740 X193.097 Y64.505
N6750 X193 Y64.5
N6760 X30.5
N6770 G2 Y126.5 I0 J31
N6780 G1 X116.4
N6790 X116.411
N6800 X124.022 Y126.406
N6810 X131.633 Y126.298
N6820 X139.244 Y126.174
N6830 X146.854 Y126.035
N6840 X154.464 Y125.88
N6850 X162.074 Y125.71
N6860 X169.683 Y125.526
N6870 X177.292 Y125.326
N6880 X184.9 Y125.11
N6890 X192.509 Y124.88
N6900 X200.116 Y124.634
N6910 X207.723 Y124.373
N6920 X215.33 Y124.097
N6930 X222.936 Y123.806
N6940 X230.541 Y123.499
N6950 G2 X230.896 Y123.418 I-0.041 J-0.999
N6960 X241.095 Y116.476 I-12.883 J-29.892
N6970 X229.151 Y72.039 I-10.595 J-20.976
N6980 G3 X228.94 Y71.851 I-0.011 J-0.2 F1200
N6990 G1 X228.928 Y71.651
N7000 X228.925 Y71.599 Z-0.343
N7010 X228.923 Y71.551 Z-0.323
N7020 X228.92 Y71.51 Z-0.291
N7030 X228.918 Y71.478 Z-0.25
N7040 X228.917 Y71.458 Z-0.202
N7050 Y71.451 Z-0.15
N7060 G0 Z1
N7070 X229.316 Y71.428
N7080 Z0.5
N7090 G1 Z0.15 F60
N7100 Z-0.175
N7110 X229.317 Y71.435 Z-0.227
N7120 X229.318 Y71.455 Z-0.275
N7130 X229.32 Y71.487 Z-0.316
N7140 X229.322 Y71.528 Z-0.348
N7150 X229.325 Y71.576 Z-0.368
N7160 X229.328 Y71.628 Z-0.375
N7170 X229.339 Y71.828
N7180 G3 X229.151 Y72.039 I-0.2 J0.011
N7190 G1 X228.914 Y72.054 F300
N7200 X215.938 Y71.822
N7210 X215.963 Y69.849
N7220 G2 X215.157 Y68.856 I-1 J-0.012
N7230 G1 X193.194 Y64.519
N7240 X193.097 Y64.505
N7250 X193 Y64.5
N7260 X30.5
N7270 G2 Y126.5 I0 J31
N7280 G1 X116.4
N7290 X116.411
N7300 X124.022 Y126.406
N7310 X131.633 Y126.298
N7320 X139.244 Y126.174
N7330 X146.854 Y126.035
N7340 X154.464 Y125.88
N7350 X162.074 Y125.71
N7360 X169.683 Y125.526
N7370 X177.292 Y125.326
N7380 X184.9 Y125.11
N7390 X192.509 Y124.88
N7400 X200.116 Y124.634
N7410 X207.723 Y124.373
N7420 X215.33 Y124.097
N7430 X222.936 Y123.806
N7440 X230.541 Y123.499
N7450 G2 X230.896 Y123.418 I-0.041 J-0.999
N7460 X241.095 Y116.476 I-12.883 J-29.892
N7470 X229.151 Y72.039 I-10.595 J-20.976
N7480 G3 X228.94 Y71.851 I-0.011 J-0.2 F1200
N7490 G1 X228.928 Y71.651
N7500 X228.925 Y71.599 Z-0.368
N7510 X228.923 Y71.551 Z-0.348
N7520 X228.92 Y71.51 Z-0.316
N7530 X228.918 Y71.478 Z-0.275
N7540 X228.917 Y71.458 Z-0.227
N7550 Y71.451 Z-0.175
N7560 G0 Z1
N7570 X229.316 Y71.428
N7580 Z0.5
N7590 G1 Z0.125 F60
N7600 Z-0.2
N7610 X229.317 Y71.435 Z-0.252
N7620 X229.318 Y71.455 Z-0.3
N7630 X229.32 Y71.487 Z-0.341
N7640 X229.322 Y71.528 Z-0.373
N7650 X229.325 Y71.576 Z-0.393
N7660 X229.328 Y71.628 Z-0.4
N7670 X229.339 Y71.828
N7680 G3 X229.151 Y72.039 I-0.2 J0.011
N7690 G1 X228.914 Y72.054 F300
N7700 X215.938 Y71.822
N7710 X215.963 Y69.849
N7720 G2 X215.157 Y68.856 I-1 J-0.012
N7730 G1 X193.194 Y64.519
N7740 X193.097 Y64.505
N7750 X193 Y64.5
N7760 X30.5
N7770 G2 Y126.5 I0 J31
N7780 G1 X116.4
N7790 X116.411
N7800 X124.022 Y126.406
N7810 X131.633 Y126.298
N7820 X139.244 Y126.174
N7830 X146.854 Y126.035
N7840 X154.464 Y125.88
N7850 X162.074 Y125.71
N7860 X169.683 Y125.526
N7870 X177.292 Y125.326
N7880 X184.9 Y125.11
N7890 X192.509 Y124.88
N7900 X200.116 Y124.634
N7910 X207.723 Y124.373
N7920 X215.33 Y124.097
N7930 X222.936 Y123.806
N7940 X230.541 Y123.499
N7950 G2 X230.896 Y123.418 I-0.041 J-0.999
N7960 X241.095 Y116.476 I-12.883 J-29.892
N7970 X229.151 Y72.039 I-10.595 J-20.976
N7980 G3 X228.94 Y71.851 I-0.011 J-0.2 F1200
N7990 G1 X228.928 Y71.651
N8000 X228.925 Y71.599 Z-0.393
N8010 X228.923 Y71.551 Z-0.373
N8020 X228.92 Y71.51 Z-0.341
N8030 X228.918 Y71.478 Z-0.3
N8040 X228.917 Y71.458 Z-0.252
N8050 Y71.451 Z-0.2
N8060 G0 Z1
N8070 X229.316 Y71.428
N8080 Z0.5
N8090 G1 Z0.1 F60
N8100 Z-0.225
N8110 X229.317 Y71.435 Z-0.277
N8120 X229.318 Y71.455 Z-0.325
N8130 X229.32 Y71.487 Z-0.366
N8140 X229.322 Y71.528 Z-0.398
N8150 X229.325 Y71.576 Z-0.418
N8160 X229.328 Y71.628 Z-0.425
N8170 X229.339 Y71.828
N8180 G3 X229.151 Y72.039 I-0.2 J0.011
N8190 G1 X228.914 Y72.054 F300
N8200 X215.938 Y71.822
N8210 X215.963 Y69.849
N8220 G2 X215.157 Y68.856 I-1 J-0.012
N8230 G1 X193.194 Y64.519
N8240 X193.097 Y64.505
N8250 X193 Y64.5
N8260 X30.5
N8270 G2 Y126.5 I0 J31
N8280 G1 X116.4
N8290 X116.411
N8300 X124.022 Y126.406
N8310 X131.633 Y126.298
N8320 X139.244 Y126.174
N8330 X146.854 Y126.035
N8340 X154.464 Y125.88
N8350 X162.074 Y125.71
N8360 X169.683 Y125.526
N8370 X177.292 Y125.326
N8380 X184.9 Y125.11
N8390 X192.509 Y124.88
N8400 X200.116 Y124.634
N8410 X207.723 Y124.373
N8420 X215.33 Y124.097
N8430 X222.936 Y123.806
N8440 X230.541 Y123.499
N8450 G2 X230.896 Y123.418 I-0.041 J-0.999
N8460 X241.095 Y116.476 I-12.883 J-29.892
N8470 X229.151 Y72.039 I-10.595 J-20.976
N8480 G3 X228.94 Y71.851 I-0.011 J-0.2 F1200
N8490 G1 X228.928 Y71.651
N8500 X228.925 Y71.599 Z-0.418
N8510 X228.923 Y71.551 Z-0.398
N8520 X228.92 Y71.51 Z-0.366
N8530 X228.918 Y71.478 Z-0.325
N8540 X228.917 Y71.458 Z-0.277
N8550 Y71.451 Z-0.225
N8560 G0 Z1
N8570 X229.316 Y71.428
N8580 Z0.5
N8590 G1 Z0.075 F60
N8600 Z-0.25
N8610 X229.317 Y71.435 Z-0.302
N8620 X229.318 Y71.455 Z-0.35
N8630 X229.32 Y71.487 Z-0.391
N8640 X229.322 Y71.528 Z-0.423
N8650 X229.325 Y71.576 Z-0.443
N8660 X229.328 Y71.628 Z-0.45
N8670 X229.339 Y71.828
N8680 G3 X229.151 Y72.039 I-0.2 J0.011
N8690 G1 X228.914 Y72.054 F300
N8700 X215.938 Y71.822
N8710 X215.963 Y69.849
N8720 G2 X215.157 Y68.856 I-1 J-0.012
N8730 G1 X193.194 Y64.519
N8740 X193.097 Y64.505
N8750 X193 Y64.5
N8760 X30.5
N8770 G2 Y126.5 I0 J31
N8780 G1 X116.4
N8790 X116.411
N8800 X124.022 Y126.406
N8810 X131.633 Y126.298
N8820 X139.244 Y126.174
N8830 X146.854 Y126.035
N8840 X154.464 Y125.88
N8850 X162.074 Y125.71
N8860 X169.683 Y125.526
N8870 X177.292 Y125.326
N8880 X184.9 Y125.11
N8890 X192.509 Y124.88
N8900 X200.116 Y124.634
N8910 X207.723 Y124.373
N8920 X215.33 Y124.097
N8930 X222.936 Y123.806
N8940 X230.541 Y123.499
N8950 G2 X230.896 Y123.418 I-0.041 J-0.999
N8960 X241.095 Y116.476 I-12.883 J-29.892
N8970 X229.151 Y72.039 I-10.595 J-20.976
N8980 G3 X228.94 Y71.851 I-0.011 J-0.2 F1200
N8990 G1 X228.928 Y71.651
N9000 X228.925 Y71.599 Z-0.443
N9010 X228.923 Y71.551 Z-0.423
N9020 X228.92 Y71.51 Z-0.391
N9030 X228.918 Y71.478 Z-0.35
N9040 X228.917 Y71.458 Z-0.302
N9050 Y71.451 Z-0.25
N9060 G0 Z1
N9070 X229.316 Y71.428
N9080 Z0.5
N9090 G1 Z0.05 F60
N9100 Z-0.275
N9110 X229.317 Y71.435 Z-0.327
N9120 X229.318 Y71.455 Z-0.375
N9130 X229.32 Y71.487 Z-0.416
N9140 X229.322 Y71.528 Z-0.448
N9150 X229.325 Y71.576 Z-0.468
N9160 X229.328 Y71.628 Z-0.475
N9170 X229.339 Y71.828
N9180 G3 X229.151 Y72.039 I-0.2 J0.011
N9190 G1 X228.914 Y72.054 F300
N9200 X215.938 Y71.822
N9210 X215.963 Y69.849
N9220 G2 X215.157 Y68.856 I-1 J-0.012
N9230 G1 X193.194 Y64.519
N9240 X193.097 Y64.505
N9250 X193 Y64.5
N9260 X30.5
N9270 G2 Y126.5 I0 J31
N9280 G1 X116.4
N9290 X116.411
N9300 X124.022 Y126.406
N9310 X131.633 Y126.298
N9320 X139.244 Y126.174
N9330 X146.854 Y126.035
N9340 X154.464 Y125.88
N9350 X162.074 Y125.71
N9360 X169.683 Y125.526
N9370 X177.292 Y125.326
N9380 X184.9 Y125.11
N9390 X192.509 Y124.88
N9400 X200.116 Y124.634
N9410 X207.723 Y124.373
N9420 X215.33 Y124.097
N9430 X222.936 Y123.806
N9440 X230.541 Y123.499
N9450 G2 X230.896 Y123.418 I-0.041 J-0.999
N9460 X241.095 Y116.476 I-12.883 J-29.892
N9470 X229.151 Y72.039 I-10.595 J-20.976
N9480 G3 X228.94 Y71.851 I-0.011 J-0.2 F1200
N9490 G1 X228.928 Y71.651
N9500 X228.925 Y71.599 Z-0.468
N9510 X228.923 Y71.551 Z-0.448
N9520 X228.92 Y71.51 Z-0.416
N9530 X228.918 Y71.478 Z-0.375
N9540 X228.917 Y71.458 Z-0.327
N9550 Y71.451 Z-0.275
N9560 G0 Z1
N9570 X229.316 Y71.428
N9580 Z0.5
N9590 G1 Z0.025 F60
N9600 Z-0.3
N9610 X229.317 Y71.435 Z-0.352
N9620 X229.318 Y71.455 Z-0.4
N9630 X229.32 Y71.487 Z-0.441
N9640 X229.322 Y71.528 Z-0.473
N9650 X229.325 Y71.576 Z-0.493
N9660 X229.328 Y71.628 Z-0.5
N9670 X229.339 Y71.828
N9680 G3 X229.151 Y72.039 I-0.2 J0.011
N9690 G1 X228.914 Y72.054 F300
N9700 X215.938 Y71.822
N9710 X215.963 Y69.849
N9720 G2 X215.157 Y68.856 I-1 J-0.012
N9730 G1 X193.194 Y64.519
N9740 X193.097 Y64.505
N9750 X193 Y64.5
N9760 X30.5
N9770 G2 Y126.5 I0 J31
N9780 G1 X116.4
N9790 X116.411
N9800 X124.022 Y126.406
N9810 X131.633 Y126.298
N9820 X139.244 Y126.174
N9830 X146.854 Y126.035
N9840 X154.464 Y125.88
N9850 X162.074 Y125.71
N9860 X169.683 Y125.526
N9870 X177.292 Y125.326
N9880 X184.9 Y125.11
N9890 X192.509 Y124.88
N9900 X200.116 Y124.634
N9910 X207.723 Y124.373
N9920 X215.33 Y124.097
N9930 X222.936 Y123.806
N9940 X230.541 Y123.499
N9950 G2 X230.896 Y123.418 I-0.041 J-0.999
N9960 X241.095 Y116.476 I-12.883 J-29.892
N9970 X229.151 Y72.039 I-10.595 J-20.976
N9980 G3 X228.94 Y71.851 I-0.011 J-0.2 F1200
N9990 G1 X228.928 Y71.651
N10000 X228.925 Y71.599 Z-0.493
N10010 X228.923 Y71.551 Z-0.473
N10020 X228.92 Y71.51 Z-0.441
N10030 X228.918 Y71.478 Z-0.4
N10040 X228.917 Y71.458 Z-0.352
N10050 Y71.451 Z-0.3
N10060 G0 Z1
N10070 X229.316 Y71.428
N10080 Z0.5
N10090 G1 Z0 F60
N10100 Z-0.325
N10110 X229.317 Y71.435 Z-0.377
N10120 X229.318 Y71.455 Z-0.425
N10130 X229.32 Y71.487 Z-0.466
N10140 X229.322 Y71.528 Z-0.498
N10150 X229.325 Y71.576 Z-0.518
N10160 X229.328 Y71.628 Z-0.525
N10170 X229.339 Y71.828
N10180 G3 X229.151 Y72.039 I-0.2 J0.011
N10190 G1 X228.914 Y72.054 F300
N10200 X215.938 Y71.822
N10210 X215.963 Y69.849
N10220 G2 X215.157 Y68.856 I-1 J-0.012
N10230 G1 X193.194 Y64.519
N10240 X193.097 Y64.505
N10250 X193 Y64.5
N10260 X30.5
N10270 G2 Y126.5 I0 J31
N10280 G1 X116.4
N10290 X116.411
N10300 X124.022 Y126.406
N10310 X131.633 Y126.298
N10320 X139.244 Y126.174
N10330 X146.854 Y126.035
N10340 X154.464 Y125.88
N10350 X162.074 Y125.71
N10360 X169.683 Y125.526
N10370 X177.292 Y125.326
N10380 X184.9 Y125.11
N10390 X192.509 Y124.88
N10400 X200.116 Y124.634
N10410 X207.723 Y124.373
N10420 X215.33 Y124.097
N10430 X222.936 Y123.806
N10440 X230.541 Y123.499
N10450 G2 X230.896 Y123.418 I-0.041 J-0.999
N10460 X241.095 Y116.476 I-12.883 J-29.892
N10470 X229.151 Y72.039 I-10.595 J-20.976
N10480 G3 X228.94 Y71.851 I-0.011 J-0.2 F1200
N10490 G1 X228.928 Y71.651
N10500 X228.925 Y71.599 Z-0.518
N10510 X228.923 Y71.551 Z-0.498
N10520 X228.92 Y71.51 Z-0.466
N10530 X228.918 Y71.478 Z-0.425
N10540 X228.917 Y71.458 Z-0.377
N10550 Y71.451 Z-0.325
N10560 G0 Z1
N10570 X229.316 Y71.428
N10580 Z0.5
N10590 G1 Z-0.025 F60
N10600 Z-0.35
N10610 X229.317 Y71.435 Z-0.402
N10620 X229.318 Y71.455 Z-0.45
N10630 X229.32 Y71.487 Z-0.491
N10640 X229.322 Y71.528 Z-0.523
N10650 X229.325 Y71.576 Z-0.543
N10660 X229.328 Y71.628 Z-0.55
N10670 X229.339 Y71.828
N10680 G3 X229.151 Y72.039 I-0.2 J0.011
N10690 G1 X228.914 Y72.054 F300
N10700 X215.938 Y71.822
N10710 X215.963 Y69.849
N10720 G2 X215.157 Y68.856 I-1 J-0.012
N10730 G1 X193.194 Y64.519
N10740 X193.097 Y64.505
N10750 X193 Y64.5
N10760 X30.5
N10770 G2 Y126.5 I0 J31
N10780 G1 X116.4
N10790 X116.411
N10800 X124.022 Y126.406
N10810 X131.633 Y126.298
N10820 X139.244 Y126.174
N10830 X146.854 Y126.035
N10840 X154.464 Y125.88
N10850 X162.074 Y125.71
N10860 X169.683 Y125.526
N10870 X177.292 Y125.326
N10880 X184.9 Y125.11
N10890 X192.509 Y124.88
N10900 X200.116 Y124.634
N10910 X207.723 Y124.373
N10920 X215.33 Y124.097
N10930 X222.936 Y123.806
N10940 X230.541 Y123.499
N10950 G2 X230.896 Y123.418 I-0.041 J-0.999
N10960 X241.095 Y116.476 I-12.883 J-29.892
N10970 X229.151 Y72.039 I-10.595 J-20.976
N10980 G3 X228.94 Y71.851 I-0.011 J-0.2 F1200
N10990 G1 X228.928 Y71.651
N11000 X228.925 Y71.599 Z-0.543
N11010 X228.923 Y71.551 Z-0.523
N11020 X228.92 Y71.51 Z-0.491
N11030 X228.918 Y71.478 Z-0.45
N11040 X228.917 Y71.458 Z-0.402
N11050 Y71.451 Z-0.35
N11060 G0 Z1
N11070 X229.316 Y71.428
N11080 Z0.5
N11090 G1 Z-0.05 F60
N11100 Z-0.375
N11110 X229.317 Y71.435 Z-0.427
N11120 X229.318 Y71.455 Z-0.475
N11130 X229.32 Y71.487 Z-0.516
N11140 X229.322 Y71.528 Z-0.548
N11150 X229.325 Y71.576 Z-0.568
N11160 X229.328 Y71.628 Z-0.575
N11170 X229.339 Y71.828
N11180 G3 X229.151 Y72.039 I-0.2 J0.011
N11190 G1 X228.914 Y72.054 F300
N11200 X215.938 Y71.822
N11210 X215.963 Y69.849
N11220 G2 X215.157 Y68.856 I-1 J-0.012
N11230 G1 X193.194 Y64.519
N11240 X193.097 Y64.505
N11250 X193 Y64.5
N11260 X30.5
N11270 G2 Y126.5 I0 J31
N11280 G1 X116.4
N11290 X116.411
N11300 X124.022 Y126.406
N11310 X131.633 Y126.298
N11320 X139.244 Y126.174
N11330 X146.854 Y126.035
N11340 X154.464 Y125.88
N11350 X162.074 Y125.71
N11360 X169.683 Y125.526
N11370 X177.292 Y125.326
N11380 X184.9 Y125.11
N11390 X192.509 Y124.88
N11400 X200.116 Y124.634
N11410 X207.723 Y124.373
N11420 X215.33 Y124.097
N11430 X222.936 Y123.806
N11440 X230.541 Y123.499
N11450 G2 X230.896 Y123.418 I-0.041 J-0.999
N11460 X241.095 Y116.476 I-12.883 J-29.892
N11470 X229.151 Y72.039 I-10.595 J-20.976
N11480 G3 X228.94 Y71.851 I-0.011 J-0.2 F1200
N11490 G1 X228.928 Y71.651
N11500 X228.925 Y71.599 Z-0.568
N11510 X228.923 Y71.551 Z-0.548
N11520 X228.92 Y71.51 Z-0.516
N11530 X228.918 Y71.478 Z-0.475
N11540 X228.917 Y71.458 Z-0.427
N11550 Y71.451 Z-0.375
N11560 G0 Z1
N11570 X229.316 Y71.428
N11580 Z0.5
N11590 G1 Z-0.075 F60
N11600 Z-0.4
N11610 X229.317 Y71.435 Z-0.452
N11620 X229.318 Y71.455 Z-0.5
N11630 X229.32 Y71.487 Z-0.541
N11640 X229.322 Y71.528 Z-0.573
N11650 X229.325 Y71.576 Z-0.593
N11660 X229.328 Y71.628 Z-0.6
N11670 X229.339 Y71.828
N11680 G3 X229.151 Y72.039 I-0.2 J0.011
N11690 G1 X228.914 Y72.054 F300
N11700 X215.938 Y71.822
N11710 X215.963 Y69.849
N11720 G2 X215.157 Y68.856 I-1 J-0.012
N11730 G1 X193.194 Y64.519
N11740 X193.097 Y64.505
N11750 X193 Y64.5
N11760 X30.5
N11770 G2 Y126.5 I0 J31
N11780 G1 X116.4
N11790 X116.411
N11800 X124.022 Y126.406
N11810 X131.633 Y126.298
N11820 X139.244 Y126.174
N11830 X146.854 Y126.035
N11840 X154.464 Y125.88
N11850 X162.074 Y125.71
N11860 X169.683 Y125.526
N11870 X177.292 Y125.326
N11880 X184.9 Y125.11
N11890 X192.509 Y124.88
N11900 X200.116 Y124.634
N11910 X207.723 Y124.373
N11920 X215.33 Y124.097
N11930 X222.936 Y123.806
N11940 X230.541 Y123.499
N11950 G2 X230.896 Y123.418 I-0.041 J-0.999
N11960 X241.095 Y116.476 I-12.883 J-29.892
N11970 X229.151 Y72.039 I-10.595 J-20.976
N11980 G3 X228.94 Y71.851 I-0.011 J-0.2 F1200
N11990 G1 X228.928 Y71.651
N12000 X228.925 Y71.599 Z-0.593
N12010 X228.923 Y71.551 Z-0.573
N12020 X228.92 Y71.51 Z-0.541
N12030 X228.918 Y71.478 Z-0.5
N12040 X228.917 Y71.458 Z-0.452
N12050 Y71.451 Z-0.4
N12060 G0 Z1
N12070 X229.316 Y71.428
N12080 Z0.5
N12090 G1 Z-0.1 F60
N12100 Z-0.425
N12110 X229.317 Y71.435 Z-0.477
N12120 X229.318 Y71.455 Z-0.525
N12130 X229.32 Y71.487 Z-0.566
N12140 X229.322 Y71.528 Z-0.598
N12150 X229.325 Y71.576 Z-0.618
N12160 X229.328 Y71.628 Z-0.625
N12170 X229.339 Y71.828
N12180 G3 X229.151 Y72.039 I-0.2 J0.011
N12190 G1 X228.914 Y72.054 F300
N12200 X215.938 Y71.822
N12210 X215.963 Y69.849
N12220 G2 X215.157 Y68.856 I-1 J-0.012
N12230 G1 X193.194 Y64.519
N12240 X193.097 Y64.505
N12250 X193 Y64.5
N12260 X30.5
N12270 G2 Y126.5 I0 J31
N12280 G1 X116.4
N12290 X116.411
N12300 X124.022 Y126.406
N12310 X131.633 Y126.298
N12320 X139.244 Y126.174
N12330 X146.854 Y126.035
N12340 X154.464 Y125.88
N12350 X162.074 Y125.71
N12360 X169.683 Y125.526
N12370 X177.292 Y125.326
N12380 X184.9 Y125.11
N12390 X192.509 Y124.88
N12400 X200.116 Y124.634
N12410 X207.723 Y124.373
N12420 X215.33 Y124.097
N12430 X222.936 Y123.806
N12440 X230.541 Y123.499
N12450 G2 X230.896 Y123.418 I-0.041 J-0.999
N12460 X241.095 Y116.476 I-12.883 J-29.892
N12470 X229.151 Y72.039 I-10.595 J-20.976
N12480 G3 X228.94 Y71.851 I-0.011 J-0.2 F1200
N12490 G1 X228.928 Y71.651
N12500 X228.925 Y71.599 Z-0.618
N12510 X228.923 Y71.551 Z-0.598
N12520 X228.92 Y71.51 Z-0.566
N12530 X228.918 Y71.478 Z-0.525
N12540 X228.917 Y71.458 Z-0.477
N12550 Y71.451 Z-0.425
N12560 G0 Z1
N12570 X229.316 Y71.428
N12580 Z0.5
N12590 G1 Z-0.125 F60
N12600 Z-0.45
N12610 X229.317 Y71.435 Z-0.502
N12620 X229.318 Y71.455 Z-0.55
N12630 X229.32 Y71.487 Z-0.591
N12640 X229.322 Y71.528 Z-0.623
N12650 X229.325 Y71.576 Z-0.643
N12660 X229.328 Y71.628 Z-0.65
N12670 X229.339 Y71.828
N12680 G3 X229.151 Y72.039 I-0.2 J0.011
N12690 G1 X228.914 Y72.054 F300
N12700 X215.938 Y71.822
N12710 X215.963 Y69.849
N12720 G2 X215.157 Y68.856 I-1 J-0.012
N12730 G1 X193.194 Y64.519
N12740 X193.097 Y64.505
N12750 X193 Y64.5
N12760 X30.5
N12770 G2 Y126.5 I0 J31
N12780 G1 X116.4
N12790 X116.411
N12800 X124.022 Y126.406
N12810 X131.633 Y126.298
N12820 X139.244 Y126.174
N12830 X146.854 Y126.035
N12840 X154.464 Y125.88
N12850 X162.074 Y125.71
N12860 X169.683 Y125.526
N12870 X177.292 Y125.326
N12880 X184.9 Y125.11
N12890 X192.509 Y124.88
N12900 X200.116 Y124.634
N12910 X207.723 Y124.373
N12920 X215.33 Y124.097
N12930 X222.936 Y123.806
N12940 X230.541 Y123.499
N12950 G2 X230.896 Y123.418 I-0.041 J-0.999
N12960 X241.095 Y116.476 I-12.883 J-29.892
N12970 X229.151 Y72.039 I-10.595 J-20.976
N12980 G3 X228.94 Y71.851 I-0.011 J-0.2 F1200
N12990 G1 X228.928 Y71.651
N13000 X228.925 Y71.599 Z-0.643
N13010 X228.923 Y71.551 Z-0.623
N13020 X228.92 Y71.51 Z-0.591
N13030 X228.918 Y71.478 Z-0.55
N13040 X228.917 Y71.458 Z-0.502
N13050 Y71.451 Z-0.45
N13060 G0 Z1
N13070 X229.316 Y71.428
N13080 Z0.5
N13090 G1 Z-0.15 F60
N13100 Z-0.475
N13110 X229.317 Y71.435 Z-0.527
N13120 X229.318 Y71.455 Z-0.575
N13130 X229.32 Y71.487 Z-0.616
N13140 X229.322 Y71.528 Z-0.648
N13150 X229.325 Y71.576 Z-0.668
N13160 X229.328 Y71.628 Z-0.675
N13170 X229.339 Y71.828
N13180 G3 X229.151 Y72.039 I-0.2 J0.011
N13190 G1 X228.914 Y72.054 F300
N13200 X215.938 Y71.822
N13210 X215.963 Y69.849
N13220 G2 X215.157 Y68.856 I-1 J-0.012
N13230 G1 X193.194 Y64.519
N13240 X193.097 Y64.505
N13250 X193 Y64.5
N13260 X30.5
N13270 G2 Y126.5 I0 J31
N13280 G1 X116.4
N13290 X116.411
N13300 X124.022 Y126.406
N13310 X131.633 Y126.298
N13320 X139.244 Y126.174
N13330 X146.854 Y126.035
N13340 X154.464 Y125.88
N13350 X162.074 Y125.71
N13360 X169.683 Y125.526
N13370 X177.292 Y125.326
N13380 X184.9 Y125.11
N13390 X192.509 Y124.88
N13400 X200.116 Y124.634
N13410 X207.723 Y124.373
N13420 X215.33 Y124.097
N13430 X222.936 Y123.806
N13440 X230.541 Y123.499
N13450 G2 X230.896 Y123.418 I-0.041 J-0.999
N13460 X241.095 Y116.476 I-12.883 J-29.892
N13470 X229.151 Y72.039 I-10.595 J-20.976
N13480 G3 X228.94 Y71.851 I-0.011 J-0.2 F1200
N13490 G1 X228.928 Y71.651
N13500 X228.925 Y71.599 Z-0.668
N13510 X228.923 Y71.551 Z-0.648
N13520 X228.92 Y71.51 Z-0.616
N13530 X228.918 Y71.478 Z-0.575
N13540 X228.917 Y71.458 Z-0.527
N13550 Y71.451 Z-0.475
N13560 G0 Z1
N13570 X229.316 Y71.428
N13580 Z0.5
N13590 G1 Z-0.175 F60
N13600 Z-0.5
N13610 X229.317 Y71.435 Z-0.552
N13620 X229.318 Y71.455 Z-0.6
N13630 X229.32 Y71.487 Z-0.641
N13640 X229.322 Y71.528 Z-0.673
N13650 X229.325 Y71.576 Z-0.693
N13660 X229.328 Y71.628 Z-0.7
N13670 X229.339 Y71.828
N13680 G3 X229.151 Y72.039 I-0.2 J0.011
N13690 G1 X228.914 Y72.054 F300
N13700 X215.938 Y71.822
N13710 X215.963 Y69.849
N13720 G2 X215.157 Y68.856 I-1 J-0.012
N13730 G1 X193.194 Y64.519
N13740 X193.097 Y64.505
N13750 X193 Y64.5
N13760 X30.5
N13770 G2 Y126.5 I0 J31
N13780 G1 X116.4
N13790 X116.411
N13800 X124.022 Y126.406
N13810 X131.633 Y126.298
N13820 X139.244 Y126.174
N13830 X146.854 Y126.035
N13840 X154.464 Y125.88
N13850 X162.074 Y125.71
N13860 X169.683 Y125.526
N13870 X177.292 Y125.326
N13880 X184.9 Y125.11
N13890 X192.509 Y124.88
N13900 X200.116 Y124.634
N13910 X207.723 Y124.373
N13920 X215.33 Y124.097
N13930 X222.936 Y123.806
N13940 X230.541 Y123.499
N13950 G2 X230.896 Y123.418 I-0.041 J-0.999
N13960 X241.095 Y116.476 I-12.883 J-29.892
N13970 X229.151 Y72.039 I-10.595 J-20.976
N13980 G3 X228.94 Y71.851 I-0.011 J-0.2 F1200
N13990 G1 X228.928 Y71.651
N14000 X228.925 Y71.599 Z-0.693
N14010 X228.923 Y71.551 Z-0.673
N14020 X228.92 Y71.51 Z-0.641
N14030 X228.918 Y71.478 Z-0.6
N14040 X228.917 Y71.458 Z-0.552
N14050 Y71.451 Z-0.5
N14060 G0 Z1
N14070 X229.316 Y71.428
N14080 Z0.5
N14090 G1 Z-0.2 F60
N14100 Z-0.525
N14110 X229.317 Y71.435 Z-0.577
N14120 X229.318 Y71.455 Z-0.625
N14130 X229.32 Y71.487 Z-0.666
N14140 X229.322 Y71.528 Z-0.698
N14150 X229.325 Y71.576 Z-0.718
N14160 X229.328 Y71.628 Z-0.725
N14170 X229.339 Y71.828
N14180 G3 X229.151 Y72.039 I-0.2 J0.011
N14190 G1 X228.914 Y72.054 F300
N14200 X215.938 Y71.822
N14210 X215.963 Y69.849
N14220 G2 X215.157 Y68.856 I-1 J-0.012
N14230 G1 X193.194 Y64.519
N14240 X193.097 Y64.505
N14250 X193 Y64.5
N14260 X30.5
N14270 G2 Y126.5 I0 J31
N14280 G1 X116.4
N14290 X116.411
N14300 X124.022 Y126.406
N14310 X131.633 Y126.298
N14320 X139.244 Y126.174
N14330 X146.854 Y126.035
N14340 X154.464 Y125.88
N14350 X162.074 Y125.71
N14360 X169.683 Y125.526
N14370 X177.292 Y125.326
N14380 X184.9 Y125.11
N14390 X192.509 Y124.88
N14400 X200.116 Y124.634
N14410 X207.723 Y124.373
N14420 X215.33 Y124.097
N14430 X222.936 Y123.806
N14440 X230.541 Y123.499
N14450 G2 X230.896 Y123.418 I-0.041 J-0.999
N14460 X241.095 Y116.476 I-12.883 J-29.892
N14470 X229.151 Y72.039 I-10.595 J-20.976
N14480 G3 X228.94 Y71.851 I-0.011 J-0.2 F1200
N14490 G1 X228.928 Y71.651
N14500 X228.925 Y71.599 Z-0.718
N14510 X228.923 Y71.551 Z-0.698
N14520 X228.92 Y71.51 Z-0.666
N14530 X228.918 Y71.478 Z-0.625
N14540 X228.917 Y71.458 Z-0.577
N14550 Y71.451 Z-0.525
N14560 G0 Z1
N14570 X229.316 Y71.428
N14580 Z0.5
N14590 G1 Z-0.225 F60
N14600 Z-0.55
N14610 X229.317 Y71.435 Z-0.602
N14620 X229.318 Y71.455 Z-0.65
N14630 X229.32 Y71.487 Z-0.691
N14640 X229.322 Y71.528 Z-0.723
N14650 X229.325 Y71.576 Z-0.743
N14660 X229.328 Y71.628 Z-0.75
N14670 X229.339 Y71.828
N14680 G3 X229.151 Y72.039 I-0.2 J0.011
N14690 G1 X228.914 Y72.054 F300
N14700 X215.938 Y71.822
N14710 X215.963 Y69.849
N14720 G2 X215.157 Y68.856 I-1 J-0.012
N14730 G1 X193.194 Y64.519
N14740 X193.097 Y64.505
N14750 X193 Y64.5
N14760 X30.5
N14770 G2 Y126.5 I0 J31
N14780 G1 X116.4
N14790 X116.411
N14800 X124.022 Y126.406
N14810 X131.633 Y126.298
N14820 X139.244 Y126.174
N14830 X146.854 Y126.035
N14840 X154.464 Y125.88
N14850 X162.074 Y125.71
N14860 X169.683 Y125.526
N14870 X177.292 Y125.326
N14880 X184.9 Y125.11
N14890 X192.509 Y124.88
N14900 X200.116 Y124.634
N14910 X207.723 Y124.373
N14920 X215.33 Y124.097
N14930 X222.936 Y123.806
N14940 X230.541 Y123.499
N14950 G2 X230.896 Y123.418 I-0.041 J-0.999
N14960 X241.095 Y116.476 I-12.883 J-29.892
N14970 X229.151 Y72.039 I-10.595 J-20.976
N14980 G3 X228.94 Y71.851 I-0.011 J-0.2 F1200
N14990 G1 X228.928 Y71.651
N15000 X228.925 Y71.599 Z-0.743
N15010 X228.923 Y71.551 Z-0.723
N15020 X228.92 Y71.51 Z-0.691
N15030 X228.918 Y71.478 Z-0.65
N15040 X228.917 Y71.458 Z-0.602
N15050 Y71.451 Z-0.55
N15060 G0 Z1
N15070 X229.316 Y71.428
N15080 Z0.5
N15090 G1 Z-0.25 F60
N15100 Z-0.575
N15110 X229.317 Y71.435 Z-0.627
N15120 X229.318 Y71.455 Z-0.675
N15130 X229.32 Y71.487 Z-0.716
N15140 X229.322 Y71.528 Z-0.748
N15150 X229.325 Y71.576 Z-0.768
N15160 X229.328 Y71.628 Z-0.775
N15170 X229.339 Y71.828
N15180 G3 X229.151 Y72.039 I-0.2 J0.011
N15190 G1 X228.914 Y72.054 F300
N15200 X215.938 Y71.822
N15210 X215.963 Y69.849
N15220 G2 X215.157 Y68.856 I-1 J-0.012
N15230 G1 X193.194 Y64.519
N15240 X193.097 Y64.505
N15250 X193 Y64.5
N15260 X30.5
N15270 G2 Y126.5 I0 J31
N15280 G1 X116.4
N15290 X116.411
N15300 X124.022 Y126.406
N15310 X131.633 Y126.298
N15320 X139.244 Y126.174
N15330 X146.854 Y126.035
N15340 X154.464 Y125.88
N15350 X162.074 Y125.71
N15360 X169.683 Y125.526
N15370 X177.292 Y125.326
N15380 X184.9 Y125.11
N15390 X192.509 Y124.88
N15400 X200.116 Y124.634
N15410 X207.723 Y124.373
N15420 X215.33 Y124.097
N15430 X222.936 Y123.806
N15440 X230.541 Y123.499
N15450 G2 X230.896 Y123.418 I-0.041 J-0.999
N15460 X241.095 Y116.476 I-12.883 J-29.892
N15470 X229.151 Y72.039 I-10.595 J-20.976
N15480 G3 X228.94 Y71.851 I-0.011 J-0.2 F1200
N15490 G1 X228.928 Y71.651
N15500 X228.925 Y71.599 Z-0.768
N15510 X228.923 Y71.551 Z-0.748
N15520 X228.92 Y71.51 Z-0.716
N15530 X228.918 Y71.478 Z-0.675
N15540 X228.917 Y71.458 Z-0.627
N15550 Y71.451 Z-0.575
N15560 G0 Z1
N15570 X229.316 Y71.428
N15580 Z0.5
N15590 G1 Z-0.275 F60
N15600 Z-0.6
N15610 X229.317 Y71.435 Z-0.652
N15620 X229.318 Y71.455 Z-0.7
N15630 X229.32 Y71.487 Z-0.741
N15640 X229.322 Y71.528 Z-0.773
N15650 X229.325 Y71.576 Z-0.793
N15660 X229.328 Y71.628 Z-0.8
N15670 X229.339 Y71.828
N15680 G3 X229.151 Y72.039 I-0.2 J0.011
N15690 G1 X228.914 Y72.054 F300
N15700 X215.938 Y71.822
N15710 X215.963 Y69.849
N15720 G2 X215.157 Y68.856 I-1 J-0.012
N15730 G1 X193.194 Y64.519
N15740 X193.097 Y64.505
N15750 X193 Y64.5
N15760 X30.5
N15770 G2 Y126.5 I0 J31
N15780 G1 X116.4
N15790 X116.411
N15800 X124.022 Y126.406
N15810 X131.633 Y126.298
N15820 X139.244 Y126.174
N15830 X146.854 Y126.035
N15840 X154.464 Y125.88
N15850 X162.074 Y125.71
N15860 X169.683 Y125.526
N15870 X177.292 Y125.326
N15880 X184.9 Y125.11
N15890 X192.509 Y124.88
N15900 X200.116 Y124.634
N15910 X207.723 Y124.373
N15920 X215.33 Y124.097
N15930 X222.936 Y123.806
N15940 X230.541 Y123.499
N15950 G2 X230.896 Y123.418 I-0.041 J-0.999
N15960 X241.095 Y116.476 I-12.883 J-29.892
N15970 X229.151 Y72.039 I-10.595 J-20.976
N15980 G3 X228.94 Y71.851 I-0.011 J-0.2 F1200
N15990 G1 X228.928 Y71.651
N16000 X228.925 Y71.599 Z-0.793
N16010 X228.923 Y71.551 Z-0.773
N16020 X228.92 Y71.51 Z-0.741
N16030 X228.918 Y71.478 Z-0.7
N16040 X228.917 Y71.458 Z-0.652
N16050 Y71.451 Z-0.6
N16060 G0 Z1
N16070 X229.316 Y71.428
N16080 Z0.5
N16090 G1 Z-0.3 F60
N16100 Z-0.625
N16110 X229.317 Y71.435 Z-0.677
N16120 X229.318 Y71.455 Z-0.725
N16130 X229.32 Y71.487 Z-0.766
N16140 X229.322 Y71.528 Z-0.798
N16150 X229.325 Y71.576 Z-0.818
N16160 X229.328 Y71.628 Z-0.825
N16170 X229.339 Y71.828
N16180 G3 X229.151 Y72.039 I-0.2 J0.011
N16190 G1 X228.914 Y72.054 F300
N16200 X215.938 Y71.822
N16210 X215.963 Y69.849
N16220 G2 X215.157 Y68.856 I-1 J-0.012
N16230 G1 X193.194 Y64.519
N16240 X193.097 Y64.505
N16250 X193 Y64.5
N16260 X30.5
N16270 G2 Y126.5 I0 J31
N16280 G1 X116.4
N16290 X116.411
N16300 X124.022 Y126.406
N16310 X131.633 Y126.298
N16320 X139.244 Y126.174
N16330 X146.854 Y126.035
N16340 X154.464 Y125.88
N16350 X162.074 Y125.71
N16360 X169.683 Y125.526
N16370 X177.292 Y125.326
N16380 X184.9 Y125.11
N16390 X192.509 Y124.88
N16400 X200.116 Y124.634
N16410 X207.723 Y124.373
N16420 X215.33 Y124.097
N16430 X222.936 Y123.806
N16440 X230.541 Y123.499
N16450 G2 X230.896 Y123.418 I-0.041 J-0.999
N16460 X241.095 Y116.476 I-12.883 J-29.892
N16470 X229.151 Y72.039 I-10.595 J-20.976
N16480 G3 X228.94 Y71.851 I-0.011 J-0.2 F1200
N16490 G1 X228.928 Y71.651
N16500 X228.925 Y71.599 Z-0.818
N16510 X228.923 Y71.551 Z-0.798
N16520 X228.92 Y71.51 Z-0.766
N16530 X228.918 Y71.478 Z-0.725
N16540 X228.917 Y71.458 Z-0.677
N16550 Y71.451 Z-0.625
N16560 G0 Z1
N16570 X229.316 Y71.428
N16580 Z0.5
N16590 G1 Z-0.325 F60
N16600 Z-0.65
N16610 X229.317 Y71.435 Z-0.702
N16620 X229.318 Y71.455 Z-0.75
N16630 X229.32 Y71.487 Z-0.791
N16640 X229.322 Y71.528 Z-0.823
N16650 X229.325 Y71.576 Z-0.843
N16660 X229.328 Y71.628 Z-0.85
N16670 X229.339 Y71.828
N16680 G3 X229.151 Y72.039 I-0.2 J0.011
N16690 G1 X228.914 Y72.054 F300
N16700 X215.938 Y71.822
N16710 X215.963 Y69.849
N16720 G2 X215.157 Y68.856 I-1 J-0.012
N16730 G1 X193.194 Y64.519
N16740 X193.097 Y64.505
N16750 X193 Y64.5
N16760 X30.5
N16770 G2 Y126.5 I0 J31
N16780 G1 X116.4
N16790 X116.411
N16800 X124.022 Y126.406
N16810 X131.633 Y126.298
N16820 X139.244 Y126.174
N16830 X146.854 Y126.035
N16840 X154.464 Y125.88
N16850 X162.074 Y125.71
N16860 X169.683 Y125.526
N16870 X177.292 Y125.326
N16880 X184.9 Y125.11
N16890 X192.509 Y124.88
N16900 X200.116 Y124.634
N16910 X207.723 Y124.373
N16920 X215.33 Y124.097
N16930 X222.936 Y123.806
N16940 X230.541 Y123.499
N16950 G2 X230.896 Y123.418 I-0.041 J-0.999
N16960 X241.095 Y116.476 I-12.883 J-29.892
N16970 X229.151 Y72.039 I-10.595 J-20.976
N16980 G3 X228.94 Y71.851 I-0.011 J-0.2 F1200
N16990 G1 X228.928 Y71.651
N17000 X228.925 Y71.599 Z-0.843
N17010 X228.923 Y71.551 Z-0.823
N17020 X228.92 Y71.51 Z-0.791
N17030 X228.918 Y71.478 Z-0.75
N17040 X228.917 Y71.458 Z-0.702
N17050 Y71.451 Z-0.65
N17060 G0 Z1
N17070 X229.316 Y71.428
N17080 Z0.5
N17090 G1 Z-0.35 F60
N17100 Z-0.675
N17110 X229.317 Y71.435 Z-0.727
N17120 X229.318 Y71.455 Z-0.775
N17130 X229.32 Y71.487 Z-0.816
N17140 X229.322 Y71.528 Z-0.848
N17150 X229.325 Y71.576 Z-0.868
N17160 X229.328 Y71.628 Z-0.875
N17170 X229.339 Y71.828
N17180 G3 X229.151 Y72.039 I-0.2 J0.011
N17190 G1 X228.914 Y72.054 F300
N17200 X215.938 Y71.822
N17210 X215.963 Y69.849
N17220 G2 X215.157 Y68.856 I-1 J-0.012
N17230 G1 X193.194 Y64.519
N17240 X193.097 Y64.505
N17250 X193 Y64.5
N17260 X30.5
N17270 G2 Y126.5 I0 J31
N17280 G1 X116.4
N17290 X116.411
N17300 X124.022 Y126.406
N17310 X131.633 Y126.298
N17320 X139.244 Y126.174
N17330 X146.854 Y126.035
N17340 X154.464 Y125.88
N17350 X162.074 Y125.71
N17360 X169.683 Y125.526
N17370 X177.292 Y125.326
N17380 X184.9 Y125.11
N17390 X192.509 Y124.88
N17400 X200.116 Y124.634
N17410 X207.723 Y124.373
N17420 X215.33 Y124.097
N17430 X222.936 Y123.806
N17440 X230.541 Y123.499
N17450 G2 X230.896 Y123.418 I-0.041 J-0.999
N17460 X241.095 Y116.476 I-12.883 J-29.892
N17470 X229.151 Y72.039 I-10.595 J-20.976
N17480 G3 X228.94 Y71.851 I-0.011 J-0.2 F1200
N17490 G1 X228.928 Y71.651
N17500 X228.925 Y71.599 Z-0.868
N17510 X228.923 Y71.551 Z-0.848
N17520 X228.92 Y71.51 Z-0.816
N17530 X228.918 Y71.478 Z-0.775
N17540 X228.917 Y71.458 Z-0.727
N17550 Y71.451 Z-0.675
N17560 G0 Z1
N17570 X229.316 Y71.428
N17580 Z0.5
N17590 G1 Z-0.375 F60
N17600 Z-0.7
N17610 X229.317 Y71.435 Z-0.752
N17620 X229.318 Y71.455 Z-0.8
N17630 X229.32 Y71.487 Z-0.841
N17640 X229.322 Y71.528 Z-0.873
N17650 X229.325 Y71.576 Z-0.893
N17660 X229.328 Y71.628 Z-0.9
N17670 X229.339 Y71.828
N17680 G3 X229.151 Y72.039 I-0.2 J0.011
N17690 G1 X228.914 Y72.054 F300
N17700 X215.938 Y71.822
N17710 X215.963 Y69.849
N17720 G2 X215.157 Y68.856 I-1 J-0.012
N17730 G1 X193.194 Y64.519
N17740 X193.097 Y64.505
N17750 X193 Y64.5
N17760 X30.5
N17770 G2 Y126.5 I0 J31
N17780 G1 X116.4
N17790 X116.411
N17800 X124.022 Y126.406
N17810 X131.633 Y126.298
N17820 X139.244 Y126.174
N17830 X146.854 Y126.035
N17840 X154.464 Y125.88
N17850 X162.074 Y125.71
N17860 X169.683 Y125.526
N17870 X177.292 Y125.326
N17880 X184.9 Y125.11
N17890 X192.509 Y124.88
N17900 X200.116 Y124.634
N17910 X207.723 Y124.373
N17920 X215.33 Y124.097
N17930 X222.936 Y123.806
N17940 X230.541 Y123.499
N17950 G2 X230.896 Y123.418 I-0.041 J-0.999
N17960 X241.095 Y116.476 I-12.883 J-29.892
N17970 X229.151 Y72.039 I-10.595 J-20.976
N17980 G3 X228.94 Y71.851 I-0.011 J-0.2 F1200
N17990 G1 X228.928 Y71.651
N18000 X228.925 Y71.599 Z-0.893
N18010 X228.923 Y71.551 Z-0.873
N18020 X228.92 Y71.51 Z-0.841
N18030 X228.918 Y71.478 Z-0.8
N18040 X228.917 Y71.458 Z-0.752
N18050 Y71.451 Z-0.7
N18060 G0 Z1
N18070 X229.316 Y71.428
N18080 Z0.5
N18090 G1 Z-0.4 F60
N18100 Z-0.725
N18110 X229.317 Y71.435 Z-0.777
N18120 X229.318 Y71.455 Z-0.825
N18130 X229.32 Y71.487 Z-0.866
N18140 X229.322 Y71.528 Z-0.898
N18150 X229.325 Y71.576 Z-0.918
N18160 X229.328 Y71.628 Z-0.925
N18170 X229.339 Y71.828
N18180 G3 X229.151 Y72.039 I-0.2 J0.011
N18190 G1 X228.914 Y72.054 F300
N18200 X215.938 Y71.822
N18210 X215.963 Y69.849
N18220 G2 X215.157 Y68.856 I-1 J-0.012
N18230 G1 X193.194 Y64.519
N18240 X193.097 Y64.505
N18250 X193 Y64.5
N18260 X30.5
N18270 G2 Y126.5 I0 J31
N18280 G1 X116.4
N18290 X116.411
N18300 X124.022 Y126.406
N18310 X131.633 Y126.298
N18320 X139.244 Y126.174
N18330 X146.854 Y126.035
N18340 X154.464 Y125.88
N18350 X162.074 Y125.71
N18360 X169.683 Y125.526
N18370 X177.292 Y125.326
N18380 X184.9 Y125.11
N18390 X192.509 Y124.88
N18400 X200.116 Y124.634
N18410 X207.723 Y124.373
N18420 X215.33 Y124.097
N18430 X222.936 Y123.806
N18440 X230.541 Y123.499
N18450 G2 X230.896 Y123.418 I-0.041 J-0.999
N18460 X241.095 Y116.476 I-12.883 J-29.892
N18470 X229.151 Y72.039 I-10.595 J-20.976
N18480 G3 X228.94 Y71.851 I-0.011 J-0.2 F1200
N18490 G1 X228.928 Y71.651
N18500 X228.925 Y71.599 Z-0.918
N18510 X228.923 Y71.551 Z-0.898
N18520 X228.92 Y71.51 Z-0.866
N18530 X228.918 Y71.478 Z-0.825
N18540 X228.917 Y71.458 Z-0.777
N18550 Y71.451 Z-0.725
N18560 G0 Z1
N18570 X229.316 Y71.428
N18580 Z0.5
N18590 G1 Z-0.425 F60
N18600 Z-0.75
N18610 X229.317 Y71.435 Z-0.802
N18620 X229.318 Y71.455 Z-0.85
N18630 X229.32 Y71.487 Z-0.891
N18640 X229.322 Y71.528 Z-0.923
N18650 X229.325 Y71.576 Z-0.943
N18660 X229.328 Y71.628 Z-0.95
N18670 X229.339 Y71.828
N18680 G3 X229.151 Y72.039 I-0.2 J0.011
N18690 G1 X228.914 Y72.054 F300
N18700 X215.938 Y71.822
N18710 X215.963 Y69.849
N18720 G2 X215.157 Y68.856 I-1 J-0.012
N18730 G1 X193.194 Y64.519
N18740 X193.097 Y64.505
N18750 X193 Y64.5
N18760 X30.5
N18770 G2 Y126.5 I0 J31
N18780 G1 X116.4
N18790 X116.411
N18800 X124.022 Y126.406
N18810 X131.633 Y126.298
N18820 X139.244 Y126.174
N18830 X146.854 Y126.035
N18840 X154.464 Y125.88
N18850 X162.074 Y125.71
N18860 X169.683 Y125.526
N18870 X177.292 Y125.326
N18880 X184.9 Y125.11
N18890 X192.509 Y124.88
N18900 X200.116 Y124.634
N18910 X207.723 Y124.373
N18920 X215.33 Y124.097
N18930 X222.936 Y123.806
N18940 X230.541 Y123.499
N18950 G2 X230.896 Y123.418 I-0.041 J-0.999
N18960 X241.095 Y116.476 I-12.883 J-29.892
N18970 X229.151 Y72.039 I-10.595 J-20.976
N18980 G3 X228.94 Y71.851 I-0.011 J-0.2 F1200
N18990 G1 X228.928 Y71.651
N19000 X228.925 Y71.599 Z-0.943
N19010 X228.923 Y71.551 Z-0.923
N19020 X228.92 Y71.51 Z-0.891
N19030 X228.918 Y71.478 Z-0.85
N19040 X228.917 Y71.458 Z-0.802
N19050 Y71.451 Z-0.75
N19060 G0 Z1
N19070 X229.316 Y71.428
N19080 Z0.5
N19090 G1 Z-0.45 F60
N19100 Z-0.775
N19110 X229.317 Y71.435 Z-0.827
N19120 X229.318 Y71.455 Z-0.875
N19130 X229.32 Y71.487 Z-0.916
N19140 X229.322 Y71.528 Z-0.948
N19150 X229.325 Y71.576 Z-0.968
N19160 X229.328 Y71.628 Z-0.975
N19170 X229.339 Y71.828
N19180 G3 X229.151 Y72.039 I-0.2 J0.011
N19190 G1 X228.914 Y72.054 F300
N19200 X215.938 Y71.822
N19210 X215.963 Y69.849
N19220 G2 X215.157 Y68.856 I-1 J-0.012
N19230 G1 X193.194 Y64.519
N19240 X193.097 Y64.505
N19250 X193 Y64.5
N19260 X30.5
N19270 G2 Y126.5 I0 J31
N19280 G1 X116.4
N19290 X116.411
N19300 X124.022 Y126.406
N19310 X131.633 Y126.298
N19320 X139.244 Y126.174
N19330 X146.854 Y126.035
N19340 X154.464 Y125.88
N19350 X162.074 Y125.71
N19360 X169.683 Y125.526
N19370 X177.292 Y125.326
N19380 X184.9 Y125.11
N19390 X192.509 Y124.88
N19400 X200.116 Y124.634
N19410 X207.723 Y124.373
N19420 X215.33 Y124.097
N19430 X222.936 Y123.806
N19440 X230.541 Y123.499
N19450 G2 X230.896 Y123.418 I-0.041 J-0.999
N19460 X241.095 Y116.476 I-12.883 J-29.892
N19470 X229.151 Y72.039 I-10.595 J-20.976
N19480 G3 X228.94 Y71.851 I-0.011 J-0.2 F1200
N19490 G1 X228.928 Y71.651
N19500 X228.925 Y71.599 Z-0.968
N19510 X228.923 Y71.551 Z-0.948
N19520 X228.92 Y71.51 Z-0.916
N19530 X228.918 Y71.478 Z-0.875
N19540 X228.917 Y71.458 Z-0.827
N19550 Y71.451 Z-0.775
N19560 G0 Z1
N19570 X229.316 Y71.428
N19580 Z0.5
N19590 G1 Z-0.475 F60
N19600 Z-0.8
N19610 X229.317 Y71.435 Z-0.852
N19620 X229.318 Y71.455 Z-0.9
N19630 X229.32 Y71.487 Z-0.941
N19640 X229.322 Y71.528 Z-0.973
N19650 X229.325 Y71.576 Z-0.993
N19660 X229.328 Y71.628 Z-1
N19670 X229.339 Y71.828
N19680 G3 X229.151 Y72.039 I-0.2 J0.011
N19690 G1 X228.914 Y72.054 F300
N19700 X215.938 Y71.822
N19710 X215.963 Y69.849
N19720 G2 X215.157 Y68.856 I-1 J-0.012
N19730 G1 X193.194 Y64.519
N19740 X193.097 Y64.505
N19750 X193 Y64.5
N19760 X30.5
N19770 G2 Y126.5 I0 J31
N19780 G1 X116.4
N19790 X116.411
N19800 X124.022 Y126.406
N19810 X131.633 Y126.298
N19820 X139.244 Y126.174
N19830 X146.854 Y126.035
N19840 X154.464 Y125.88
N19850 X162.074 Y125.71
N19860 X169.683 Y125.526
N19870 X177.292 Y125.326
N19880 X184.9 Y125.11
N19890 X192.509 Y124.88
N19900 X200.116 Y124.634
N19910 X207.723 Y124.373
N19920 X215.33 Y124.097
N19930 X222.936 Y123.806
N19940 X230.541 Y123.499
N19950 G2 X230.896 Y123.418 I-0.041 J-0.999
N19960 X241.095 Y116.476 I-12.883 J-29.892
N19970 X229.151 Y72.039 I-10.595 J-20.976
N19980 G3 X228.94 Y71.851 I-0.011 J-0.2 F1200
N19990 G1 X228.928 Y71.651
N20000 X228.925 Y71.599 Z-0.993
N20010 X228.923 Y71.551 Z-0.973
N20020 X228.92 Y71.51 Z-0.941
N20030 X228.918 Y71.478 Z-0.9
N20040 X228.917 Y71.458 Z-0.852
N20050 Y71.451 Z-0.8
N20060 G0 Z1
N20070 X229.316 Y71.428
N20080 Z0.5
N20090 G1 Z-0.5 F60
N20100 Z-0.825
N20110 X229.317 Y71.435 Z-0.877
N20120 X229.318 Y71.455 Z-0.925
N20130 X229.32 Y71.487 Z-0.966
N20140 X229.322 Y71.528 Z-0.998
N20150 X229.325 Y71.576 Z-1.018
N20160 X229.328 Y71.628 Z-1.025
N20170 X229.339 Y71.828
N20180 G3 X229.151 Y72.039 I-0.2 J0.011
N20190 G1 X228.914 Y72.054 F300
N20200 X215.938 Y71.822
N20210 X215.963 Y69.849
N20220 G2 X215.157 Y68.856 I-1 J-0.012
N20230 G1 X193.194 Y64.519
N20240 X193.097 Y64.505
N20250 X193 Y64.5
N20260 X30.5
N20270 G2 Y126.5 I0 J31
N20280 G1 X116.4
N20290 X116.411
N20300 X124.022 Y126.406
N20310 X131.633 Y126.298
N20320 X139.244 Y126.174
N20330 X146.854 Y126.035
N20340 X154.464 Y125.88
N20350 X162.074 Y125.71
N20360 X169.683 Y125.526
N20370 X177.292 Y125.326
N20380 X184.9 Y125.11
N20390 X192.509 Y124.88
N20400 X200.116 Y124.634
N20410 X207.723 Y124.373
N20420 X215.33 Y124.097
N20430 X222.936 Y123.806
N20440 X230.541 Y123.499
N20450 G2 X230.896 Y123.418 I-0.041 J-0.999
N20460 X241.095 Y116.476 I-12.883 J-29.892
N20470 X229.151 Y72.039 I-10.595 J-20.976
N20480 G3 X228.94 Y71.851 I-0.011 J-0.2 F1200
N20490 G1 X228.928 Y71.651
N20500 X228.925 Y71.599 Z-1.018
N20510 X228.923 Y71.551 Z-0.998
N20520 X228.92 Y71.51 Z-0.966
N20530 X228.918 Y71.478 Z-0.925
N20540 X228.917 Y71.458 Z-0.877
N20550 Y71.451 Z-0.825
N20560 G0 Z1
N20570 X229.316 Y71.428
N20580 Z0.5
N20590 G1 Z-0.525 F60
N20600 Z-0.85
N20610 X229.317 Y71.435 Z-0.902
N20620 X229.318 Y71.455 Z-0.95
N20630 X229.32 Y71.487 Z-0.991
N20640 X229.322 Y71.528 Z-1.023
N20650 X229.325 Y71.576 Z-1.043
N20660 X229.328 Y71.628 Z-1.05
N20670 X229.339 Y71.828
N20680 G3 X229.151 Y72.039 I-0.2 J0.011
N20690 G1 X228.914 Y72.054 F300
N20700 X215.938 Y71.822
N20710 X215.963 Y69.849
N20720 G2 X215.157 Y68.856 I-1 J-0.012
N20730 G1 X193.194 Y64.519
N20740 X193.097 Y64.505
N20750 X193 Y64.5
N20760 X30.5
N20770 G2 Y126.5 I0 J31
N20780 G1 X116.4
N20790 X116.411
N20800 X124.022 Y126.406
N20810 X131.633 Y126.298
N20820 X139.244 Y126.174
N20830 X146.854 Y126.035
N20840 X154.464 Y125.88
N20850 X162.074 Y125.71
N20860 X169.683 Y125.526
N20870 X177.292 Y125.326
N20880 X184.9 Y125.11
N20890 X192.509 Y124.88
N20900 X200.116 Y124.634
N20910 X207.723 Y124.373
N20920 X215.33 Y124.097
N20930 X222.936 Y123.806
N20940 X230.541 Y123.499
N20950 G2 X230.896 Y123.418 I-0.041 J-0.999
N20960 X241.095 Y116.476 I-12.883 J-29.892
N20970 X229.151 Y72.039 I-10.595 J-20.976
N20980 G3 X228.94 Y71.851 I-0.011 J-0.2 F1200
N20990 G1 X228.928 Y71.651
N21000 X228.925 Y71.599 Z-1.043
N21010 X228.923 Y71.551 Z-1.023
N21020 X228.92 Y71.51 Z-0.991
N21030 X228.918 Y71.478 Z-0.95
N21040 X228.917 Y71.458 Z-0.902
N21050 Y71.451 Z-0.85
N21060 G0 Z1
N21070 X229.316 Y71.428
N21080 Z0.5
N21090 G1 Z-0.55 F60
N21100 Z-0.875
N21110 X229.317 Y71.435 Z-0.927
N21120 X229.318 Y71.455 Z-0.975
N21130 X229.32 Y71.487 Z-1.016
N21140 X229.322 Y71.528 Z-1.048
N21150 X229.325 Y71.576 Z-1.068
N21160 X229.328 Y71.628 Z-1.075
N21170 X229.339 Y71.828
N21180 G3 X229.151 Y72.039 I-0.2 J0.011
N21190 G1 X228.914 Y72.054 F300
N21200 X215.938 Y71.822
N21210 X215.963 Y69.849
N21220 G2 X215.157 Y68.856 I-1 J-0.012
N21230 G1 X206.137 Y67.075
N21240 Z-1.05
N21250 X202.213 Y66.3
N21260 Z-1.075 F60
N21270 X193.194 Y64.519 F300
N21280 X193.097 Y64.505
N21290 X193 Y64.5
N21300 X186.875
N21310 Z-1.05
N21320 X182.875
N21330 Z-1.075 F60
N21340 X170.625 F300
N21350 Z-1.05
N21360 X166.625
N21370 Z-1.075 F60
N21380 X154.375 F300
N21390 Z-1.05
N21400 X150.375
N21410 Z-1.075 F60
N21420 X138.125 F300
N21430 Z-1.05
N21440 X134.125
N21450 Z-1.075 F60
N21460 X121.875 F300
N21470 Z-1.05
N21480 X117.875
N21490 Z-1.075 F60
N21500 X105.625 F300
N21510 Z-1.05
N21520 X101.625
N21530 Z-1.075 F60
N21540 X89.375 F300
N21550 Z-1.05
N21560 X85.375
N21570 Z-1.075 F60
N21580 X73.125 F300
N21590 Z-1.05
N21600 X69.125
N21610 Z-1.075 F60
N21620 X56.875 F300
N21630 Z-1.05
N21640 X52.875
N21650 Z-1.075 F60
N21660 X40.625 F300
N21670 Z-1.05
N21680 X36.625
N21690 Z-1.075 F60
N21700 X30.5 F300
N21710 G2 X22.843 Y65.461 I0 J31
N21720 G1 Z-1.05
N21730 G2 X19.038 Y66.697 I7.657 J30.039
N21740 G1 Z-1.075 F60
N21750 G2 X6.648 Y75.699 I11.462 J28.803 F300
N21760 G1 Z-1.05
N21770 G2 X4.297 Y78.935 I23.852 J19.801
N21780 G1 Z-1.075 F60
N21790 G2 X-0.435 Y93.5 I26.203 J16.565 F300
N21800 G1 Z-1.05
N21810 G2 Y97.5 I30.935 J2
N21820 G1 Z-1.075 F60
N21830 G2 X4.297 Y112.066 I30.935 J-2 F300
N21840 G1 Z-1.05
N21850 G2 X6.649 Y115.302 I26.203 J-16.566
N21860 G1 Z-1.075 F60
N21870 G2 X19.038 Y124.303 I23.851 J-19.802 F300
N21880 G1 Z-1.05
N21890 G2 X22.843 Y125.539 I11.462 J-28.803
N21900 G1 Z-1.075 F60
N21910 G2 X30.5 Y126.5 I7.657 J-30.039 F300
N21920 G1 X37.09
N21930 Z-1.05
N21940 X41.09
N21950 Z-1.075 F60
N21960 X54.27 F300
N21970 Z-1.05
N21980 X58.27
N21990 Z-1.075 F60
N22000 X71.45 F300
N22010 Z-1.05
N22020 X75.45
N22030 Z-1.075 F60
N22040 X88.63 F300
N22050 Z-1.05
N22060 X92.63
N22070 Z-1.075 F60
N22080 X105.81 F300
N22090 Z-1.05
N22100 X109.81
N22110 Z-1.075 F60
N22120 X116.4 F300
N22130 X116.411
N22140 X122.566 Y126.425
N22150 Z-1.05
N22160 X126.565 Y126.372
N22170 Z-1.075 F60
N22180 X134.32 Y126.256 F300
N22190 X142.074 Y126.124
N22200 X149.828 Y125.976
N22210 X157.581 Y125.812
N22220 X165.334 Y125.633
N22230 X173.087 Y125.438
N22240 X180.84 Y125.227
N22250 X188.592 Y125
N22260 X196.343 Y124.758
N22270 X204.094 Y124.5
N22280 Z-1.05
N22290 X208.092 Y124.36
N22300 Z-1.075 F60
N22310 X214.243 Y124.137 F300
N22320 X220.394 Y123.905
N22330 Z-1.05
N22340 X224.391 Y123.748
N22350 Z-1.075 F60
N22360 X230.541 Y123.499 F300
N22370 G2 X230.896 Y123.418 I-0.041 J-0.999
N22380 X241.095 Y116.476 I-12.883 J-29.892
N22390 X247.901 Y111.294 I-10.595 J-20.976
N22400 G1 Z-1.05
N22410 G2 X250.328 Y108.114 I-17.401 J-15.794
N22420 G1 Z-1.075 F60
N22430 G2 X253.621 Y91.298 I-19.828 J-12.614 F300
N22440 G1 Z-1.05
N22450 G2 X252.574 Y87.437 I-23.121 J4.202
N22460 G1 Z-1.075 F60
N22470 G2 X241.23 Y74.593 I-22.074 J8.063 F300
N22480 G1 Z-1.05
N22490 G2 X237.529 Y73.076 I-10.73 J20.907
N22500 G1 Z-1.075 F60
N22510 G2 X229.151 Y72.039 I-7.029 J22.424 F300
N22520 G3 X228.94 Y71.851 I-0.011 J-0.2 F1200
N22530 G1 X228.928 Y71.651
N22540 X228.925 Y71.599 Z-1.068
N22550 X228.923 Y71.551 Z-1.048
N22560 X228.92 Y71.51 Z-1.016
N22570 X228.918 Y71.478 Z-0.975
N22580 X228.917 Y71.458 Z-0.927
N22590 Y71.451 Z-0.875
N22600 G0 Z1
N22610 X229.316 Y71.428
N22620 Z0.5
N22630 G1 Z-0.575 F60
N22640 Z-0.9
N22650 X229.317 Y71.435 Z-0.952
N22660 X229.318 Y71.455 Z-1
N22670 X229.32 Y71.487 Z-1.041
N22680 X229.322 Y71.528 Z-1.073
N22690 X229.325 Y71.576 Z-1.093
N22700 X229.328 Y71.628 Z-1.1
N22710 X229.339 Y71.828
N22720 G3 X229.151 Y72.039 I-0.2 J0.011
N22730 G1 X228.914 Y72.054 F300
N22740 X215.938 Y71.822
N22750 X215.963 Y69.849
N22760 G2 X215.157 Y68.856 I-1 J-0.012
N22770 G1 X206.137 Y67.075
N22780 Z-1.05
N22790 X202.213 Y66.3
N22800 Z-1.1 F60
N22810 X193.194 Y64.519 F300
N22820 X193.097 Y64.505
N22830 X193 Y64.5
N22840 X186.875
N22850 Z-1.05
N22860 X182.875
N22870 Z-1.1 F60
N22880 X170.625 F300
N22890 Z-1.05
N22900 X166.625
N22910 Z-1.1 F60
N22920 X154.375 F300
N22930 Z-1.05
N22940 X150.375
N22950 Z-1.1 F60
N22960 X138.125 F300
N22970 Z-1.05
N22980 X134.125
N22990 Z-1.1 F60
N23000 X121.875 F300
N23010 Z-1.05
N23020 X117.875
N23030 Z-1.1 F60
N23040 X105.625 F300
N23050 Z-1.05
N23060 X101.625
N23070 Z-1.1 F60
N23080 X89.375 F300
N23090 Z-1.05
N23100 X85.375
N23110 Z-1.1 F60
N23120 X73.125 F300
N23130 Z-1.05
N23140 X69.125
N23150 Z-1.1 F60
N23160 X56.875 F300
N23170 Z-1.05
N23180 X52.875
N23190 Z-1.1 F60
N23200 X40.625 F300
N23210 Z-1.05
N23220 X36.625
N23230 Z-1.1 F60
N23240 X30.5 F300
N23250 G2 X22.843 Y65.461 I0 J31
N23260 G1 Z-1.05
N23270 G2 X19.038 Y66.697 I7.657 J30.039
N23280 G1 Z-1.1 F60
N23290 G2 X6.648 Y75.699 I11.462 J28.803 F300
N23300 G1 Z-1.05
N23310 G2 X4.297 Y78.935 I23.852 J19.801
N23320 G1 Z-1.1 F60
N23330 G2 X-0.435 Y93.5 I26.203 J16.565 F300
N23340 G1 Z-1.05
N23350 G2 Y97.5 I30.935 J2
N23360 G1 Z-1.1 F60
N23370 G2 X4.297 Y112.066 I30.935 J-2 F300
N23380 G1 Z-1.05
N23390 G2 X6.649 Y115.302 I26.203 J-16.566
N23400 G1 Z-1.1 F60
N23410 G2 X19.038 Y124.303 I23.851 J-19.802 F300
N23420 G1 Z-1.05
N23430 G2 X22.843 Y125.539 I11.462 J-28.803
N23440 G1 Z-1.1 F60
N23450 G2 X30.5 Y126.5 I7.657 J-30.039 F300
N23460 G1 X37.09
N23470 Z-1.05
N23480 X41.09
N23490 Z-1.1 F60
N23500 X54.27 F300
N23510 Z-1.05
N23520 X58.27
N23530 Z-1.1 F60
N23540 X71.45 F300
N23550 Z-1.05
N23560 X75.45
N23570 Z-1.1 F60
N23580 X88.63 F300
N23590 Z-1.05
N23600 X92.63
N23610 Z-1.1 F60
N23620 X105.81 F300
N23630 Z-1.05
N23640 X109.81
N23650 Z-1.1 F60
N23660 X116.4 F300
N23670 X116.411
N23680 X122.566 Y126.425
N23690 Z-1.05
N23700 X126.565 Y126.372
N23710 Z-1.1 F60
N23720 X134.32 Y126.256 F300
N23730 X142.074 Y126.124
N23740 X149.828 Y125.976
N23750 X157.581 Y125.812
N23760 X165.334 Y125.633
N23770 X173.087 Y125.438
N23780 X180.84 Y125.227
N23790 X188.592 Y125
N23800 X196.343 Y124.758
N23810 X204.094 Y124.5
N23820 Z-1.05
N23830 X208.092 Y124.36
N23840 Z-1.1 F60
N23850 X214.243 Y124.137 F300
N23860 X220.394 Y123.905
N23870 Z-1.05
N23880 X224.391 Y123.748
N23890 Z-1.1 F60
N23900 X230.541 Y123.499 F300
N23910 G2 X230.896 Y123.418 I-0.041 J-0.999
N23920 X241.095 Y116.476 I-12.883 J-29.892
N23930 X247.901 Y111.294 I-10.595 J-20.976
N23940 G1 Z-1.05
N23950 G2 X250.328 Y108.114 I-17.401 J-15.794
N23960 G1 Z-1.1 F60
N23970 G2 X253.621 Y91.298 I-19.828 J-12.614 F300
N23980 G1 Z-1.05
N23990 G2 X252.574 Y87.437 I-23.121 J4.202
N24000 G1 Z-1.1 F60
N24010 G2 X241.23 Y74.593 I-22.074 J8.063 F300
N24020 G1 Z-1.05
N24030 G2 X237.529 Y73.076 I-10.73 J20.907
N24040 G1 Z-1.1 F60
N24050 G2 X229.151 Y72.039 I-7.029 J22.424 F300
N24060 G3 X228.94 Y71.851 I-0.011 J-0.2 F1200
N24070 G1 X228.928 Y71.651
N24080 X228.925 Y71.599 Z-1.093
N24090 X228.923 Y71.551 Z-1.073
N24100 X228.92 Y71.51 Z-1.041
N24110 X228.918 Y71.478 Z-1
N24120 X228.917 Y71.458 Z-0.952
N24130 Y71.451 Z-0.9
N24140 G0 Z1
N24150 X229.316 Y71.428
N24160 Z0.5
N24170 G1 Z-0.6 F60
N24180 Z-0.925
N24190 X229.317 Y71.435 Z-0.977
N24200 X229.318 Y71.455 Z-1.025
N24210 X229.32 Y71.487 Z-1.066
N24220 X229.322 Y71.528 Z-1.098
N24230 X229.325 Y71.576 Z-1.118
N24240 X229.328 Y71.628 Z-1.125
N24250 X229.339 Y71.828
N24260 G3 X229.151 Y72.039 I-0.2 J0.011
N24270 G1 X228.914 Y72.054 F300
N24280 X215.938 Y71.822
N24290 X215.963 Y69.849
N24300 G2 X215.157 Y68.856 I-1 J-0.012
N24310 G1 X206.137 Y67.075
N24320 Z-1.05
N24330 X202.213 Y66.3
N24340 Z-1.125 F60
N24350 X193.194 Y64.519 F300
N24360 X193.097 Y64.505
N24370 X193 Y64.5
N24380 X186.875
N24390 Z-1.05
N24400 X182.875
N24410 Z-1.125 F60
N24420 X170.625 F300
N24430 Z-1.05
N24440 X166.625
N24450 Z-1.125 F60
N24460 X154.375 F300
N24470 Z-1.05
N24480 X150.375
N24490 Z-1.125 F60
N24500 X138.125 F300
N24510 Z-1.05
N24520 X134.125
N24530 Z-1.125 F60
N24540 X121.875 F300
N24550 Z-1.05
N24560 X117.875
N24570 Z-1.125 F60
N24580 X105.625 F300
N24590 Z-1.05
N24600 X101.625
N24610 Z-1.125 F60
N24620 X89.375 F300
N24630 Z-1.05
N24640 X85.375
N24650 Z-1.125 F60
N24660 X73.125 F300
N24670 Z-1.05
N24680 X69.125
N24690 Z-1.125 F60
N24700 X56.875 F300
N24710 Z-1.05
N24720 X52.875
N24730 Z-1.125 F60
N24740 X40.625 F300
N24750 Z-1.05
N24760 X36.625
N24770 Z-1.125 F60
N24780 X30.5 F300
N24790 G2 X22.843 Y65.461 I0 J31
N24800 G1 Z-1.05
N24810 G2 X19.038 Y66.697 I7.657 J30.039
N24820 G1 Z-1.125 F60
N24830 G2 X6.648 Y75.699 I11.462 J28.803 F300
N24840 G1 Z-1.05
N24850 G2 X4.297 Y78.935 I23.852 J19.801
N24860 G1 Z-1.125 F60
N24870 G2 X-0.435 Y93.5 I26.203 J16.565 F300
N24880 G1 Z-1.05
N24890 G2 Y97.5 I30.935 J2
N24900 G1 Z-1.125 F60
N24910 G2 X4.297 Y112.066 I30.935 J-2 F300
N24920 G1 Z-1.05
N24930 G2 X6.649 Y115.302 I26.203 J-16.566
N24940 G1 Z-1.125 F60
N24950 G2 X19.038 Y124.303 I23.851 J-19.802 F300
N24960 G1 Z-1.05
N24970 G2 X22.843 Y125.539 I11.462 J-28.803
N24980 G1 Z-1.125 F60
N24990 G2 X30.5 Y126.5 I7.657 J-30.039 F300
N25000 G1 X37.09
N25010 Z-1.05
N25020 X41.09
N25030 Z-1.125 F60
N25040 X54.27 F300
N25050 Z-1.05
N25060 X58.27
N25070 Z-1.125 F60
N25080 X71.45 F300
N25090 Z-1.05
N25100 X75.45
N25110 Z-1.125 F60
N25120 X88.63 F300
N25130 Z-1.05
N25140 X92.63
N25150 Z-1.125 F60
N25160 X105.81 F300
N25170 Z-1.05
N25180 X109.81
N25190 Z-1.125 F60
N25200 X116.4 F300
N25210 X116.411
N25220 X122.566 Y126.425
N25230 Z-1.05
N25240 X126.565 Y126.372
N25250 Z-1.125 F60
N25260 X134.32 Y126.256 F300
N25270 X142.074 Y126.124
N25280 X149.828 Y125.976
N25290 X157.581 Y125.812
N25300 X165.334 Y125.633
N25310 X173.087 Y125.438
N25320 X180.84 Y125.227
N25330 X188.592 Y125
N25340 X196.343 Y124.758
N25350 X204.094 Y124.5
N25360 Z-1.05
N25370 X208.092 Y124.36
N25380 Z-1.125 F60
N25390 X214.243 Y124.137 F300
N25400 X220.394 Y123.905
N25410 Z-1.05
N25420 X224.391 Y123.748
N25430 Z-1.125 F60
N25440 X230.541 Y123.499 F300
N25450 G2 X230.896 Y123.418 I-0.041 J-0.999
N25460 X241.095 Y116.476 I-12.883 J-29.892
N25470 X247.901 Y111.294 I-10.595 J-20.976
N25480 G1 Z-1.05
N25490 G2 X250.328 Y108.114 I-17.401 J-15.794
N25500 G1 Z-1.125 F60
N25510 G2 X253.621 Y91.298 I-19.828 J-12.614 F300
N25520 G1 Z-1.05
N25530 G2 X252.574 Y87.437 I-23.121 J4.202
N25540 G1 Z-1.125 F60
N25550 G2 X241.23 Y74.593 I-22.074 J8.063 F300
N25560 G1 Z-1.05
N25570 G2 X237.529 Y73.076 I-10.73 J20.907
N25580 G1 Z-1.125 F60
N25590 G2 X229.151 Y72.039 I-7.029 J22.424 F300
N25600 G3 X228.94 Y71.851 I-0.011 J-0.2 F1200
N25610 G1 X228.928 Y71.651
N25620 X228.925 Y71.599 Z-1.118
N25630 X228.923 Y71.551 Z-1.098
N25640 X228.92 Y71.51 Z-1.066
N25650 X228.918 Y71.478 Z-1.025
N25660 X228.917 Y71.458 Z-0.977
N25670 Y71.451 Z-0.925
N25680 G0 Z1
N25690 X229.316 Y71.428
N25700 Z0.5
N25710 G1 Z-0.625 F60
N25720 Z-0.95
N25730 X229.317 Y71.435 Z-1.002
N25740 X229.318 Y71.455 Z-1.05
N25750 X229.32 Y71.487 Z-1.091
N25760 X229.322 Y71.528 Z-1.123
N25770 X229.325 Y71.576 Z-1.143
N25780 X229.328 Y71.628 Z-1.15
N25790 X229.339 Y71.828
N25800 G3 X229.151 Y72.039 I-0.2 J0.011
N25810 G1 X228.914 Y72.054 F300
N25820 X215.938 Y71.822
N25830 X215.963 Y69.849
N25840 G2 X215.157 Y68.856 I-1 J-0.012
N25850 G1 X206.137 Y67.075
N25860 Z-1.05
N25870 X202.213 Y66.3
N25880 Z-1.15 F60
N25890 X193.194 Y64.519 F300
N25900 X193.097 Y64.505
N25910 X193 Y64.5
N25920 X186.875
N25930 Z-1.05
N25940 X182.875
N25950 Z-1.15 F60
N25960 X170.625 F300
N25970 Z-1.05
N25980 X166.625
N25990 Z-1.15 F60
N26000 X154.375 F300
N26010 Z-1.05
N26020 X150.375
N26030 Z-1.15 F60
N26040 X138.125 F300
N26050 Z-1.05
N26060 X134.125
N26070 Z-1.15 F60
N26080 X121.875 F300
N26090 Z-1.05
N26100 X117.875
N26110 Z-1.15 F60
N26120 X105.625 F300
N26130 Z-1.05
N26140 X101.625
N26150 Z-1.15 F60
N26160 X89.375 F300
N26170 Z-1.05
N26180 X85.375
N26190 Z-1.15 F60
N26200 X73.125 F300
N26210 Z-1.05
N26220 X69.125
N26230 Z-1.15 F60
N26240 X56.875 F300
N26250 Z-1.05
N26260 X52.875
N26270 Z-1.15 F60
N26280 X40.625 F300
N26290 Z-1.05
N26300 X36.625
N26310 Z-1.15 F60
N26320 X30.5 F300
N26330 G2 X22.843 Y65.461 I0 J31
N26340 G1 Z-1.05
N26350 G2 X19.038 Y66.697 I7.657 J30.039
N26360 G1 Z-1.15 F60
N26370 G2 X6.648 Y75.699 I11.462 J28.803 F300
N26380 G1 Z-1.05
N26390 G2 X4.297 Y78.935 I23.852 J19.801
N26400 G1 Z-1.15 F60
N26410 G2 X-0.435 Y93.5 I26.203 J16.565 F300
N26420 G1 Z-1.05
N26430 G2 Y97.5 I30.935 J2
N26440 G1 Z-1.15 F60
N26450 G2 X4.297 Y112.066 I30.935 J-2 F300
N26460 G1 Z-1.05
N26470 G2 X6.649 Y115.302 I26.203 J-16.566
N26480 G1 Z-1.15 F60
N26490 G2 X19.038 Y124.303 I23.851 J-19.802 F300
N26500 G1 Z-1.05
N26510 G2 X22.843 Y125.539 I11.462 J-28.803
N26520 G1 Z-1.15 F60
N26530 G2 X30.5 Y126.5 I7.657 J-30.039 F300
N26540 G1 X37.09
N26550 Z-1.05
N26560 X41.09
N26570 Z-1.15 F60
N26580 X54.27 F300
N26590 Z-1.05
N26600 X58.27
N26610 Z-1.15 F60
N26620 X71.45 F300
N26630 Z-1.05
N26640 X75.45
N26650 Z-1.15 F60
N26660 X88.63 F300
N26670 Z-1.05
N26680 X92.63
N26690 Z-1.15 F60
N26700 X105.81 F300
N26710 Z-1.05
N26720 X109.81
N26730 Z-1.15 F60
N26740 X116.4 F300
N26750 X116.411
N26760 X122.566 Y126.425
N26770 Z-1.05
N26780 X126.565 Y126.372
N26790 Z-1.15 F60
N26800 X134.32 Y126.256 F300
N26810 X142.074 Y126.124
N26820 X149.828 Y125.976
N26830 X157.581 Y125.812
N26840 X165.334 Y125.633
N26850 X173.087 Y125.438
N26860 X180.84 Y125.227
N26870 X188.592 Y125
N26880 X196.343 Y124.758
N26890 X204.094 Y124.5
N26900 Z-1.05
N26910 X208.092 Y124.36
N26920 Z-1.15 F60
N26930 X214.243 Y124.137 F300
N26940 X220.394 Y123.905
N26950 Z-1.05
N26960 X224.391 Y123.748
N26970 Z-1.15 F60
N26980 X230.541 Y123.499 F300
N26990 G2 X230.896 Y123.418 I-0.041 J-0.999
N27000 X241.095 Y116.476 I-12.883 J-29.892
N27010 X247.901 Y111.294 I-10.595 J-20.976
N27020 G1 Z-1.05
N27030 G2 X250.328 Y108.114 I-17.401 J-15.794
N27040 G1 Z-1.15 F60
N27050 G2 X253.621 Y91.298 I-19.828 J-12.614 F300
N27060 G1 Z-1.05
N27070 G2 X252.574 Y87.437 I-23.121 J4.202
N27080 G1 Z-1.15 F60
N27090 G2 X241.23 Y74.593 I-22.074 J8.063 F300
N27100 G1 Z-1.05
N27110 G2 X237.529 Y73.076 I-10.73 J20.907
N27120 G1 Z-1.15 F60
N27130 G2 X229.151 Y72.039 I-7.029 J22.424 F300
N27140 G3 X228.94 Y71.851 I-0.011 J-0.2 F1200
N27150 G1 X228.928 Y71.651
N27160 X228.925 Y71.599 Z-1.143
N27170 X228.923 Y71.551 Z-1.123
N27180 X228.92 Y71.51 Z-1.091
N27190 X228.918 Y71.478 Z-1.05
N27200 X228.917 Y71.458 Z-1.002
N27210 Y71.451 Z-0.95
N27220 G0 Z1
N27230 X229.316 Y71.428
N27240 Z0.5
N27250 G1 Z-0.65 F60
N27260 Z-0.975
N27270 X229.317 Y71.435 Z-1.027
N27280 X229.318 Y71.455 Z-1.075
N27290 X229.32 Y71.487 Z-1.116
N27300 X229.322 Y71.528 Z-1.148
N27310 X229.325 Y71.576 Z-1.168
N27320 X229.328 Y71.628 Z-1.175
N27330 X229.339 Y71.828
N27340 G3 X229.151 Y72.039 I-0.2 J0.011
N27350 G1 X228.914 Y72.054 F300
N27360 X215.938 Y71.822
N27370 X215.963 Y69.849
N27380 G2 X215.157 Y68.856 I-1 J-0.012
N27390 G1 X206.137 Y67.075
N27400 Z-1.05
N27410 X202.213 Y66.3
N27420 Z-1.175 F60
N27430 X193.194 Y64.519 F300
N27440 X193.097 Y64.505
N27450 X193 Y64.5
N27460 X186.875
N27470 Z-1.05
N27480 X182.875
N27490 Z-1.175 F60
N27500 X170.625 F300
N27510 Z-1.05
N27520 X166.625
N27530 Z-1.175 F60
N27540 X154.375 F300
N27550 Z-1.05
N27560 X150.375
N27570 Z-1.175 F60
N27580 X138.125 F300
N27590 Z-1.05
N27600 X134.125
N27610 Z-1.175 F60
N27620 X121.875 F300
N27630 Z-1.05
N27640 X117.875
N27650 Z-1.175 F60
N27660 X105.625 F300
N27670 Z-1.05
N27680 X101.625
N27690 Z-1.175 F60
N27700 X89.375 F300
N27710 Z-1.05
N27720 X85.375
N27730 Z-1.175 F60
N27740 X73.125 F300
N27750 Z-1.05
N27760 X69.125
N27770 Z-1.175 F60
N27780 X56.875 F300
N27790 Z-1.05
N27800 X52.875
N27810 Z-1.175 F60
N27820 X40.625 F300
N27830 Z-1.05
N27840 X36.625
N27850 Z-1.175 F60
N27860 X30.5 F300
N27870 G2 X22.843 Y65.461 I0 J31
N27880 G1 Z-1.05
N27890 G2 X19.038 Y66.697 I7.657 J30.039
N27900 G1 Z-1.175 F60
N27910 G2 X6.648 Y75.699 I11.462 J28.803 F300
N27920 G1 Z-1.05
N27930 G2 X4.297 Y78.935 I23.852 J19.801
N27940 G1 Z-1.175 F60
N27950 G2 X-0.435 Y93.5 I26.203 J16.565 F300
N27960 G1 Z-1.05
N27970 G2 Y97.5 I30.935 J2
N27980 G1 Z-1.175 F60
N27990 G2 X4.297 Y112.066 I30.935 J-2 F300
N28000 G1 Z-1.05
N28010 G2 X6.649 Y115.302 I26.203 J-16.566
N28020 G1 Z-1.175 F60
N28030 G2 X19.038 Y124.303 I23.851 J-19.802 F300
N28040 G1 Z-1.05
N28050 G2 X22.843 Y125.539 I11.462 J-28.803
N28060 G1 Z-1.175 F60
N28070 G2 X30.5 Y126.5 I7.657 J-30.039 F300
N28080 G1 X37.09
N28090 Z-1.05
N28100 X41.09
N28110 Z-1.175 F60
N28120 X54.27 F300
N28130 Z-1.05
N28140 X58.27
N28150 Z-1.175 F60
N28160 X71.45 F300
N28170 Z-1.05
N28180 X75.45
N28190 Z-1.175 F60
N28200 X88.63 F300
N28210 Z-1.05
N28220 X92.63
N28230 Z-1.175 F60
N28240 X105.81 F300
N28250 Z-1.05
N28260 X109.81
N28270 Z-1.175 F60
N28280 X116.4 F300
N28290 X116.411
N28300 X122.566 Y126.425
N28310 Z-1.05
N28320 X126.565 Y126.372
N28330 Z-1.175 F60
N28340 X134.32 Y126.256 F300
N28350 X142.074 Y126.124
N28360 X149.828 Y125.976
N28370 X157.581 Y125.812
N28380 X165.334 Y125.633
N28390 X173.087 Y125.438
N28400 X180.84 Y125.227
N28410 X188.592 Y125
N28420 X196.343 Y124.758
N28430 X204.094 Y124.5
N28440 Z-1.05
N28450 X208.092 Y124.36
N28460 Z-1.175 F60
N28470 X214.243 Y124.137 F300
N28480 X220.394 Y123.905
N28490 Z-1.05
N28500 X224.391 Y123.748
N28510 Z-1.175 F60
N28520 X230.541 Y123.499 F300
N28530 G2 X230.896 Y123.418 I-0.041 J-0.999
N28540 X241.095 Y116.476 I-12.883 J-29.892
N28550 X247.901 Y111.294 I-10.595 J-20.976
N28560 G1 Z-1.05
N28570 G2 X250.328 Y108.114 I-17.401 J-15.794
N28580 G1 Z-1.175 F60
N28590 G2 X253.621 Y91.298 I-19.828 J-12.614 F300
N28600 G1 Z-1.05
N28610 G2 X252.574 Y87.437 I-23.121 J4.202
N28620 G1 Z-1.175 F60
N28630 G2 X241.23 Y74.593 I-22.074 J8.063 F300
N28640 G1 Z-1.05
N28650 G2 X237.529 Y73.076 I-10.73 J20.907
N28660 G1 Z-1.175 F60
N28670 G2 X229.151 Y72.039 I-7.029 J22.424 F300
N28680 G3 X228.94 Y71.851 I-0.011 J-0.2 F1200
N28690 G1 X228.928 Y71.651
N28700 X228.925 Y71.599 Z-1.168
N28710 X228.923 Y71.551 Z-1.148
N28720 X228.92 Y71.51 Z-1.116
N28730 X228.918 Y71.478 Z-1.075
N28740 X228.917 Y71.458 Z-1.027
N28750 Y71.451 Z-0.975
N28760 G0 Z1
N28770 X229.316 Y71.428
N28780 Z0.5
N28790 G1 Z-0.675 F60
N28800 Z-1
N28810 X229.317 Y71.435 Z-1.052
N28820 X229.318 Y71.455 Z-1.1
N28830 X229.32 Y71.487 Z-1.141
N28840 X229.322 Y71.528 Z-1.173
N28850 X229.325 Y71.576 Z-1.193
N28860 X229.328 Y71.628 Z-1.2
N28870 X229.339 Y71.828
N28880 G3 X229.151 Y72.039 I-0.2 J0.011
N28890 G1 X228.914 Y72.054 F300
N28900 X215.938 Y71.822
N28910 X215.963 Y69.849
N28920 G2 X215.157 Y68.856 I-1 J-0.012
N28930 G1 X206.137 Y67.075
N28940 Z-1.05
N28950 X202.213 Y66.3
N28960 Z-1.2 F60
N28970 X193.194 Y64.519 F300
N28980 X193.097 Y64.505
N28990 X193 Y64.5
N29000 X186.875
N29010 Z-1.05
N29020 X182.875
N29030 Z-1.2 F60
N29040 X170.625 F300
N29050 Z-1.05
N29060 X166.625
N29070 Z-1.2 F60
N29080 X154.375 F300
N29090 Z-1.05
N29100 X150.375
N29110 Z-1.2 F60
N29120 X138.125 F300
N29130 Z-1.05
N29140 X134.125
N29150 Z-1.2 F60
N29160 X121.875 F300
N29170 Z-1.05
N29180 X117.875
N29190 Z-1.2 F60
N29200 X105.625 F300
N29210 Z-1.05
N29220 X101.625
N29230 Z-1.2 F60
N29240 X89.375 F300
N29250 Z-1.05
N29260 X85.375
N29270 Z-1.2 F60
N29280 X73.125 F300
N29290 Z-1.05
N29300 X69.125
N29310 Z-1.2 F60
N29320 X56.875 F300
N29330 Z-1.05
N29340 X52.875
N29350 Z-1.2 F60
N29360 X40.625 F300
N29370 Z-1.05
N29380 X36.625
N29390 Z-1.2 F60
N29400 X30.5 F300
N29410 G2 X22.843 Y65.461 I0 J31
N29420 G1 Z-1.05
N29430 G2 X19.038 Y66.697 I7.657 J30.039
N29440 G1 Z-1.2 F60
N29450 G2 X6.648 Y75.699 I11.462 J28.803 F300
N29460 G1 Z-1.05
N29470 G2 X4.297 Y78.935 I23.852 J19.801
N29480 G1 Z-1.2 F60
N29490 G2 X-0.435 Y93.5 I26.203 J16.565 F300
N29500 G1 Z-1.05
N29510 G2 Y97.5 I30.935 J2
N29520 G1 Z-1.2 F60
N29530 G2 X4.297 Y112.066 I30.935 J-2 F300
N29540 G1 Z-1.05
N29550 G2 X6.649 Y115.302 I26.203 J-16.566
N29560 G1 Z-1.2 F60
N29570 G2 X19.038 Y124.303 I23.851 J-19.802 F300
N29580 G1 Z-1.05
N29590 G2 X22.843 Y125.539 I11.462 J-28.803
N29600 G1 Z-1.2 F60
N29610 G2 X30.5 Y126.5 I7.657 J-30.039 F300
N29620 G1 X37.09
N29630 Z-1.05
N29640 X41.09
N29650 Z-1.2 F60
N29660 X54.27 F300
N29670 Z-1.05
N29680 X58.27
N29690 Z-1.2 F60
N29700 X71.45 F300
N29710 Z-1.05
N29720 X75.45
N29730 Z-1.2 F60
N29740 X88.63 F300
N29750 Z-1.05
N29760 X92.63
N29770 Z-1.2 F60
N29780 X105.81 F300
N29790 Z-1.05
N29800 X109.81
N29810 Z-1.2 F60
N29820 X116.4 F300
N29830 X116.411
N29840 X122.566 Y126.425
N29850 Z-1.05
N29860 X126.565 Y126.372
N29870 Z-1.2 F60
N29880 X134.32 Y126.256 F300
N29890 X142.074 Y126.124
N29900 X149.828 Y125.976
N29910 X157.581 Y125.812
N29920 X165.334 Y125.633
N29930 X173.087 Y125.438
N29940 X180.84 Y125.227
N29950 X188.592 Y125
N29960 X196.343 Y124.758
N29970 X204.094 Y124.5
N29980 Z-1.05
N29990 X208.092 Y124.36
N30000 Z-1.2 F60
N30010 X214.243 Y124.137 F300
N30020 X220.394 Y123.905
N30030 Z-1.05
N30040 X224.391 Y123.748
N30050 Z-1.2 F60
N30060 X230.541 Y123.499 F300
N30070 G2 X230.896 Y123.418 I-0.041 J-0.999
N30080 X241.095 Y116.476 I-12.883 J-29.892
N30090 X247.901 Y111.294 I-10.595 J-20.976
N30100 G1 Z-1.05
N30110 G2 X250.328 Y108.114 I-17.401 J-15.794
N30120 G1 Z-1.2 F60
N30130 G2 X253.621 Y91.298 I-19.828 J-12.614 F300
N30140 G1 Z-1.05
N30150 G2 X252.574 Y87.437 I-23.121 J4.202
N30160 G1 Z-1.2 F60
N30170 G2 X241.23 Y74.593 I-22.074 J8.063 F300
N30180 G1 Z-1.05
N30190 G2 X237.529 Y73.076 I-10.73 J20.907
N30200 G1 Z-1.2 F60
N30210 G2 X229.151 Y72.039 I-7.029 J22.424 F300
N30220 G3 X228.94 Y71.851 I-0.011 J-0.2 F1200
N30230 G1 X228.928 Y71.651
N30240 X228.925 Y71.599 Z-1.193
N30250 X228.923 Y71.551 Z-1.173
N30260 X228.92 Y71.51 Z-1.141
N30270 X228.918 Y71.478 Z-1.1
N30280 X228.917 Y71.458 Z-1.052
N30290 Y71.451 Z-1
N30300 G0 Z1
N30310 X229.316 Y71.428
N30320 Z0.5
N30330 G1 Z-0.7 F60
N30340 Z-1.025
N30350 X229.317 Y71.435 Z-1.077
N30360 X229.318 Y71.455 Z-1.125
N30370 X229.32 Y71.487 Z-1.166
N30380 X229.322 Y71.528 Z-1.198
N30390 X229.325 Y71.576 Z-1.218
N30400 X229.328 Y71.628 Z-1.225
N30410 X229.339 Y71.828
N30420 G3 X229.151 Y72.039 I-0.2 J0.011
N30430 G1 X228.914 Y72.054 F300
N30440 X215.938 Y71.822
N30450 X215.963 Y69.849
N30460 G2 X215.157 Y68.856 I-1 J-0.012
N30470 G1 X206.137 Y67.075
N30480 Z-1.05
N30490 X202.213 Y66.3
N30500 Z-1.225 F60
N30510 X193.194 Y64.519 F300
N30520 X193.097 Y64.505
N30530 X193 Y64.5
N30540 X186.875
N30550 Z-1.05
N30560 X182.875
N30570 Z-1.225 F60
N30580 X170.625 F300
N30590 Z-1.05
N30600 X166.625
N30610 Z-1.225 F60
N30620 X154.375 F300
N30630 Z-1.05
N30640 X150.375
N30650 Z-1.225 F60
N30660 X138.125 F300
N30670 Z-1.05
N30680 X134.125
N30690 Z-1.225 F60
N30700 X121.875 F300
N30710 Z-1.05
N30720 X117.875
N30730 Z-1.225 F60
N30740 X105.625 F300
N30750 Z-1.05
N30760 X101.625
N30770 Z-1.225 F60
N30780 X89.375 F300
N30790 Z-1.05
N30800 X85.375
N30810 Z-1.225 F60
N30820 X73.125 F300
N30830 Z-1.05
N30840 X69.125
N30850 Z-1.225 F60
N30860 X56.875 F300
N30870 Z-1.05
N30880 X52.875
N30890 Z-1.225 F60
N30900 X40.625 F300
N30910 Z-1.05
N30920 X36.625
N30930 Z-1.225 F60
N30940 X30.5 F300
N30950 G2 X22.843 Y65.461 I0 J31
N30960 G1 Z-1.05
N30970 G2 X19.038 Y66.697 I7.657 J30.039
N30980 G1 Z-1.225 F60
N30990 G2 X6.648 Y75.699 I11.462 J28.803 F300
N31000 G1 Z-1.05
N31010 G2 X4.297 Y78.935 I23.852 J19.801
N31020 G1 Z-1.225 F60
N31030 G2 X-0.435 Y93.5 I26.203 J16.565 F300
N31040 G1 Z-1.05
N31050 G2 Y97.5 I30.935 J2
N31060 G1 Z-1.225 F60
N31070 G2 X4.297 Y112.066 I30.935 J-2 F300
N31080 G1 Z-1.05
N31090 G2 X6.649 Y115.302 I26.203 J-16.566
N31100 G1 Z-1.225 F60
N31110 G2 X19.038 Y124.303 I23.851 J-19.802 F300
N31120 G1 Z-1.05
N31130 G2 X22.843 Y125.539 I11.462 J-28.803
N31140 G1 Z-1.225 F60
N31150 G2 X30.5 Y126.5 I7.657 J-30.039 F300
N31160 G1 X37.09
N31170 Z-1.05
N31180 X41.09
N31190 Z-1.225 F60
N31200 X54.27 F300
N31210 Z-1.05
N31220 X58.27
N31230 Z-1.225 F60
N31240 X71.45 F300
N31250 Z-1.05
N31260 X75.45
N31270 Z-1.225 F60
N31280 X88.63 F300
N31290 Z-1.05
N31300 X92.63
N31310 Z-1.225 F60
N31320 X105.81 F300
N31330 Z-1.05
N31340 X109.81
N31350 Z-1.225 F60
N31360 X116.4 F300
N31370 X116.411
N31380 X122.566 Y126.425
N31390 Z-1.05
N31400 X126.565 Y126.372
N31410 Z-1.225 F60
N31420 X134.32 Y126.256 F300
N31430 X142.074 Y126.124
N31440 X149.828 Y125.976
N31450 X157.581 Y125.812
N31460 X165.334 Y125.633
N31470 X173.087 Y125.438
N31480 X180.84 Y125.227
N31490 X188.592 Y125
N31500 X196.343 Y124.758
N31510 X204.094 Y124.5
N31520 Z-1.05
N31530 X208.092 Y124.36
N31540 Z-1.225 F60
N31550 X214.243 Y124.137 F300
N31560 X220.394 Y123.905
N31570 Z-1.05
N31580 X224.391 Y123.748
N31590 Z-1.225 F60
N31600 X230.541 Y123.499 F300
N31610 G2 X230.896 Y123.418 I-0.041 J-0.999
N31620 X241.095 Y116.476 I-12.883 J-29.892
N31630 X247.901 Y111.294 I-10.595 J-20.976
N31640 G1 Z-1.05
N31650 G2 X250.328 Y108.114 I-17.401 J-15.794
N31660 G1 Z-1.225 F60
N31670 G2 X253.621 Y91.298 I-19.828 J-12.614 F300
N31680 G1 Z-1.05
N31690 G2 X252.574 Y87.437 I-23.121 J4.202
N31700 G1 Z-1.225 F60
N31710 G2 X241.23 Y74.593 I-22.074 J8.063 F300
N31720 G1 Z-1.05
N31730 G2 X237.529 Y73.076 I-10.73 J20.907
N31740 G1 Z-1.225 F60
N31750 G2 X229.151 Y72.039 I-7.029 J22.424 F300
N31760 G3 X228.94 Y71.851 I-0.011 J-0.2 F1200
N31770 G1 X228.928 Y71.651
N31780 X228.925 Y71.599 Z-1.218
N31790 X228.923 Y71.551 Z-1.198
N31800 X228.92 Y71.51 Z-1.166
N31810 X228.918 Y71.478 Z-1.125
N31820 X228.917 Y71.458 Z-1.077
N31830 Y71.451 Z-1.025
N31840 G0 Z1
N31850 X229.316 Y71.428
N31860 Z0.5
N31870 G1 Z-0.725 F60
N31880 Z-1.05
N31890 X229.317 Y71.435 Z-1.102
N31900 X229.318 Y71.455 Z-1.15
N31910 X229.32 Y71.487 Z-1.191
N31920 X229.322 Y71.528 Z-1.223
N31930 X229.325 Y71.576 Z-1.243
N31940 X229.328 Y71.628 Z-1.25
N31950 X229.339 Y71.828
N31960 G3 X229.151 Y72.039 I-0.2 J0.011
N31970 G1 X228.914 Y72.054 F300
N31980 X215.938 Y71.822
N31990 X215.963 Y69.849
N32000 G2 X215.157 Y68.856 I-1 J-0.012
N32010 G1 X206.137 Y67.075
N32020 Z-1.05
N32030 X202.213 Y66.3
N32040 Z-1.25 F60
N32050 X193.194 Y64.519 F300
N32060 X193.097 Y64.505
N32070 X193 Y64.5
N32080 X186.875
N32090 Z-1.05
N32100 X182.875
N32110 Z-1.25 F60
N32120 X170.625 F300
N32130 Z-1.05
N32140 X166.625
N32150 Z-1.25 F60
N32160 X154.375 F300
N32170 Z-1.05
N32180 X150.375
N32190 Z-1.25 F60
N32200 X138.125 F300
N32210 Z-1.05
N32220 X134.125
N32230 Z-1.25 F60
N32240 X121.875 F300
N32250 Z-1.05
N32260 X117.875
N32270 Z-1.25 F60
N32280 X105.625 F300
N32290 Z-1.05
N32300 X101.625
N32310 Z-1.25 F60
N32320 X89.375 F300
N32330 Z-1.05
N32340 X85.375
N32350 Z-1.25 F60
N32360 X73.125 F300
N32370 Z-1.05
N32380 X69.125
N32390 Z-1.25 F60
N32400 X56.875 F300
N32410 Z-1.05
N32420 X52.875
N32430 Z-1.25 F60
N32440 X40.625 F300
N32450 Z-1.05
N32460 X36.625
N32470 Z-1.25 F60
N32480 X30.5 F300
N32490 G2 X22.843 Y65.461 I0 J31
N32500 G1 Z-1.05
N32510 G2 X19.038 Y66.697 I7.657 J30.039
N32520 G1 Z-1.25 F60
N32530 G2 X6.648 Y75.699 I11.462 J28.803 F300
N32540 G1 Z-1.05
N32550 G2 X4.297 Y78.935 I23.852 J19.801
N32560 G1 Z-1.25 F60
N32570 G2 X-0.435 Y93.5 I26.203 J16.565 F300
N32580 G1 Z-1.05
N32590 G2 Y97.5 I30.935 J2
N32600 G1 Z-1.25 F60
N32610 G2 X4.297 Y112.066 I30.935 J-2 F300
N32620 G1 Z-1.05
N32630 G2 X6.649 Y115.302 I26.203 J-16.566
N32640 G1 Z-1.25 F60
N32650 G2 X19.038 Y124.303 I23.851 J-19.802 F300
N32660 G1 Z-1.05
N32670 G2 X22.843 Y125.539 I11.462 J-28.803
N32680 G1 Z-1.25 F60
N32690 G2 X30.5 Y126.5 I7.657 J-30.039 F300
N32700 G1 X37.09
N32710 Z-1.05
N32720 X41.09
N32730 Z-1.25 F60
N32740 X54.27 F300
N32750 Z-1.05
N32760 X58.27
N32770 Z-1.25 F60
N32780 X71.45 F300
N32790 Z-1.05
N32800 X75.45
N32810 Z-1.25 F60
N32820 X88.63 F300
N32830 Z-1.05
N32840 X92.63
N32850 Z-1.25 F60
N32860 X105.81 F300
N32870 Z-1.05
N32880 X109.81
N32890 Z-1.25 F60
N32900 X116.4 F300
N32910 X116.411
N32920 X122.566 Y126.425
N32930 Z-1.05
N32940 X126.565 Y126.372
N32950 Z-1.25 F60
N32960 X134.32 Y126.256 F300
N32970 X142.074 Y126.124
N32980 X149.828 Y125.976
N32990 X157.581 Y125.812
N33000 X165.334 Y125.633
N33010 X173.087 Y125.438
N33020 X180.84 Y125.227
N33030 X188.592 Y125
N33040 X196.343 Y124.758
N33050 X204.094 Y124.5
N33060 Z-1.05
N33070 X208.092 Y124.36
N33080 Z-1.25 F60
N33090 X214.243 Y124.137 F300
N33100 X220.394 Y123.905
N33110 Z-1.05
N33120 X224.391 Y123.748
N33130 Z-1.25 F60
N33140 X230.541 Y123.499 F300
N33150 G2 X230.896 Y123.418 I-0.041 J-0.999
N33160 X241.095 Y116.476 I-12.883 J-29.892
N33170 X247.901 Y111.294 I-10.595 J-20.976
N33180 G1 Z-1.05
N33190 G2 X250.328 Y108.114 I-17.401 J-15.794
N33200 G1 Z-1.25 F60
N33210 G2 X253.621 Y91.298 I-19.828 J-12.614 F300
N33220 G1 Z-1.05
N33230 G2 X252.574 Y87.437 I-23.121 J4.202
N33240 G1 Z-1.25 F60
N33250 G2 X241.23 Y74.593 I-22.074 J8.063 F300
N33260 G1 Z-1.05
N33270 G2 X237.529 Y73.076 I-10.73 J20.907
N33280 G1 Z-1.25 F60
N33290 G2 X229.151 Y72.039 I-7.029 J22.424 F300
N33300 G3 X228.94 Y71.851 I-0.011 J-0.2 F1200
N33310 G1 X228.928 Y71.651
N33320 X228.925 Y71.599 Z-1.243
N33330 X228.923 Y71.551 Z-1.223
N33340 X228.92 Y71.51 Z-1.191
N33350 X228.918 Y71.478 Z-1.15
N33360 X228.917 Y71.458 Z-1.102
N33370 Y71.451 Z-1.05
N33380 G0 Z1
N33390 X229.316 Y71.428
N33400 Z0.5
N33410 G1 Z-0.75 F60
N33420 Z-1.075
N33430 X229.317 Y71.435 Z-1.127
N33440 X229.318 Y71.455 Z-1.175
N33450 X229.32 Y71.487 Z-1.216
N33460 X229.322 Y71.528 Z-1.248
N33470 X229.325 Y71.576 Z-1.268
N33480 X229.328 Y71.628 Z-1.275
N33490 X229.339 Y71.828
N33500 G3 X229.151 Y72.039 I-0.2 J0.011
N33510 G1 X228.914 Y72.054 F300
N33520 X215.938 Y71.822
N33530 X215.963 Y69.849
N33540 G2 X215.157 Y68.856 I-1 J-0.012
N33550 G1 X206.137 Y67.075
N33560 Z-1.05
N33570 X202.213 Y66.3
N33580 Z-1.275 F60
N33590 X193.194 Y64.519 F300
N33600 X193.097 Y64.505
N33610 X193 Y64.5
N33620 X186.875
N33630 Z-1.05
N33640 X182.875
N33650 Z-1.275 F60
N33660 X170.625 F300
N33670 Z-1.05
N33680 X166.625
N33690 Z-1.275 F60
N33700 X154.375 F300
N33710 Z-1.05
N33720 X150.375
N33730 Z-1.275 F60
N33740 X138.125 F300
N33750 Z-1.05
N33760 X134.125
N33770 Z-1.275 F60
N33780 X121.875 F300
N33790 Z-1.05
N33800 X117.875
N33810 Z-1.275 F60
N33820 X105.625 F300
N33830 Z-1.05
N33840 X101.625
N33850 Z-1.275 F60
N33860 X89.375 F300
N33870 Z-1.05
N33880 X85.375
N33890 Z-1.275 F60
N33900 X73.125 F300
N33910 Z-1.05
N33920 X69.125
N33930 Z-1.275 F60
N33940 X56.875 F300
N33950 Z-1.05
N33960 X52.875
N33970 Z-1.275 F60
N33980 X40.625 F300
N33990 Z-1.05
N34000 X36.625
N34010 Z-1.275 F60
N34020 X30.5 F300
N34030 G2 X22.843 Y65.461 I0 J31
N34040 G1 Z-1.05
N34050 G2 X19.038 Y66.697 I7.657 J30.039
N34060 G1 Z-1.275 F60
N34070 G2 X6.648 Y75.699 I11.462 J28.803 F300
N34080 G1 Z-1.05
N34090 G2 X4.297 Y78.935 I23.852 J19.801
N34100 G1 Z-1.275 F60
N34110 G2 X-0.435 Y93.5 I26.203 J16.565 F300
N34120 G1 Z-1.05
N34130 G2 Y97.5 I30.935 J2
N34140 G1 Z-1.275 F60
N34150 G2 X4.297 Y112.066 I30.935 J-2 F300
N34160 G1 Z-1.05
N34170 G2 X6.649 Y115.302 I26.203 J-16.566
N34180 G1 Z-1.275 F60
N34190 G2 X19.038 Y124.303 I23.851 J-19.802 F300
N34200 G1 Z-1.05
N34210 G2 X22.843 Y125.539 I11.462 J-28.803
N34220 G1 Z-1.275 F60
N34230 G2 X30.5 Y126.5 I7.657 J-30.039 F300
N34240 G1 X37.09
N34250 Z-1.05
N34260 X41.09
N34270 Z-1.275 F60
N34280 X54.27 F300
N34290 Z-1.05
N34300 X58.27
N34310 Z-1.275 F60
N34320 X71.45 F300
N34330 Z-1.05
N34340 X75.45
N34350 Z-1.275 F60
N34360 X88.63 F300
N34370 Z-1.05
N34380 X92.63
N34390 Z-1.275 F60
N34400 X105.81 F300
N34410 Z-1.05
N34420 X109.81
N34430 Z-1.275 F60
N34440 X116.4 F300
N34450 X116.411
N34460 X122.566 Y126.425
N34470 Z-1.05
N34480 X126.565 Y126.372
N34490 Z-1.275 F60
N34500 X134.32 Y126.256 F300
N34510 X142.074 Y126.124
N34520 X149.828 Y125.976
N34530 X157.581 Y125.812
N34540 X165.334 Y125.633
N34550 X173.087 Y125.438
N34560 X180.84 Y125.227
N34570 X188.592 Y125
N34580 X196.343 Y124.758
N34590 X204.094 Y124.5
N34600 Z-1.05
N34610 X208.092 Y124.36
N34620 Z-1.275 F60
N34630 X214.243 Y124.137 F300
N34640 X220.394 Y123.905
N34650 Z-1.05
N34660 X224.391 Y123.748
N34670 Z-1.275 F60
N34680 X230.541 Y123.499 F300
N34690 G2 X230.896 Y123.418 I-0.041 J-0.999
N34700 X241.095 Y116.476 I-12.883 J-29.892
N34710 X247.901 Y111.294 I-10.595 J-20.976
N34720 G1 Z-1.05
N34730 G2 X250.328 Y108.114 I-17.401 J-15.794
N34740 G1 Z-1.275 F60
N34750 G2 X253.621 Y91.298 I-19.828 J-12.614 F300
N34760 G1 Z-1.05
N34770 G2 X252.574 Y87.437 I-23.121 J4.202
N34780 G1 Z-1.275 F60
N34790 G2 X241.23 Y74.593 I-22.074 J8.063 F300
N34800 G1 Z-1.05
N34810 G2 X237.529 Y73.076 I-10.73 J20.907
N34820 G1 Z-1.275 F60
N34830 G2 X229.151 Y72.039 I-7.029 J22.424 F300
N34840 G3 X228.94 Y71.851 I-0.011 J-0.2 F1200
N34850 G1 X228.928 Y71.651
N34860 X228.925 Y71.599 Z-1.268
N34870 X228.923 Y71.551 Z-1.248
N34880 X228.92 Y71.51 Z-1.216
N34890 X228.918 Y71.478 Z-1.175
N34900 X228.917 Y71.458 Z-1.127
N34910 Y71.451 Z-1.075
N34920 G0 Z1
N34930 X229.316 Y71.428
N34940 Z0.5
N34950 G1 Z-0.775 F60
N34960 Z-1.1
N34970 X229.317 Y71.435 Z-1.152
N34980 X229.318 Y71.455 Z-1.2
N34990 X229.32 Y71.487 Z-1.241
N35000 X229.322 Y71.528 Z-1.273
N35010 X229.325 Y71.576 Z-1.293
N35020 X229.328 Y71.628 Z-1.3
N35030 X229.339 Y71.828
N35040 G3 X229.151 Y72.039 I-0.2 J0.011
N35050 G1 X228.914 Y72.054 F300
N35060 X215.938 Y71.822
N35070 X215.963 Y69.849
N35080 G2 X215.157 Y68.856 I-1 J-0.012
N35090 G1 X206.137 Y67.075
N35100 Z-1.05
N35110 X202.213 Y66.3
N35120 Z-1.3 F60
N35130 X193.194 Y64.519 F300
N35140 X193.097 Y64.505
N35150 X193 Y64.5
N35160 X186.875
N35170 Z-1.05
N35180 X182.875
N35190 Z-1.3 F60
N35200 X170.625 F300
N35210 Z-1.05
N35220 X166.625
N35230 Z-1.3 F60
N35240 X154.375 F300
N35250 Z-1.05
N35260 X150.375
N35270 Z-1.3 F60
N35280 X138.125 F300
N35290 Z-1.05
N35300 X134.125
N35310 Z-1.3 F60
N35320 X121.875 F300
N35330 Z-1.05
N35340 X117.875
N35350 Z-1.3 F60
N35360 X105.625 F300
N35370 Z-1.05
N35380 X101.625
N35390 Z-1.3 F60
N35400 X89.375 F300
N35410 Z-1.05
N35420 X85.375
N35430 Z-1.3 F60
N35440 X73.125 F300
N35450 Z-1.05
N35460 X69.125
N35470 Z-1.3 F60
N35480 X56.875 F300
N35490 Z-1.05
N35500 X52.875
N35510 Z-1.3 F60
N35520 X40.625 F300
N35530 Z-1.05
N35540 X36.625
N35550 Z-1.3 F60
N35560 X30.5 F300
N35570 G2 X22.843 Y65.461 I0 J31
N35580 G1 Z-1.05
N35590 G2 X19.038 Y66.697 I7.657 J30.039
N35600 G1 Z-1.3 F60
N35610 G2 X6.648 Y75.699 I11.462 J28.803 F300
N35620 G1 Z-1.05
N35630 G2 X4.297 Y78.935 I23.852 J19.801
N35640 G1 Z-1.3 F60
N35650 G2 X-0.435 Y93.5 I26.203 J16.565 F300
N35660 G1 Z-1.05
N35670 G2 Y97.5 I30.935 J2
N35680 G1 Z-1.3 F60
N35690 G2 X4.297 Y112.066 I30.935 J-2 F300
N35700 G1 Z-1.05
N35710 G2 X6.649 Y115.302 I26.203 J-16.566
N35720 G1 Z-1.3 F60
N35730 G2 X19.038 Y124.303 I23.851 J-19.802 F300
N35740 G1 Z-1.05
N35750 G2 X22.843 Y125.539 I11.462 J-28.803
N35760 G1 Z-1.3 F60
N35770 G2 X30.5 Y126.5 I7.657 J-30.039 F300
N35780 G1 X37.09
N35790 Z-1.05
N35800 X41.09
N35810 Z-1.3 F60
N35820 X54.27 F300
N35830 Z-1.05
N35840 X58.27
N35850 Z-1.3 F60
N35860 X71.45 F300
N35870 Z-1.05
N35880 X75.45
N35890 Z-1.3 F60
N35900 X88.63 F300
N35910 Z-1.05
N35920 X92.63
N35930 Z-1.3 F60
N35940 X105.81 F300
N35950 Z-1.05
N35960 X109.81
N35970 Z-1.3 F60
N35980 X116.4 F300
N35990 X116.411
N36000 X122.566 Y126.425
N36010 Z-1.05
N36020 X126.565 Y126.372
N36030 Z-1.3 F60
N36040 X134.32 Y126.256 F300
N36050 X142.074 Y126.124
N36060 X149.828 Y125.976
N36070 X157.581 Y125.812
N36080 X165.334 Y125.633
N36090 X173.087 Y125.438
N36100 X180.84 Y125.227
N36110 X188.592 Y125
N36120 X196.343 Y124.758
N36130 X204.094 Y124.5
N36140 Z-1.05
N36150 X208.092 Y124.36
N36160 Z-1.3 F60
N36170 X214.243 Y124.137 F300
N36180 X220.394 Y123.905
N36190 Z-1.05
N36200 X224.391 Y123.748
N36210 Z-1.3 F60
N36220 X230.541 Y123.499 F300
N36230 G2 X230.896 Y123.418 I-0.041 J-0.999
N36240 X241.095 Y116.476 I-12.883 J-29.892
N36250 X247.901 Y111.294 I-10.595 J-20.976
N36260 G1 Z-1.05
N36270 G2 X250.328 Y108.114 I-17.401 J-15.794
N36280 G1 Z-1.3 F60
N36290 G2 X253.621 Y91.298 I-19.828 J-12.614 F300
N36300 G1 Z-1.05
N36310 G2 X252.574 Y87.437 I-23.121 J4.202
N36320 G1 Z-1.3 F60
N36330 G2 X241.23 Y74.593 I-22.074 J8.063 F300
N36340 G1 Z-1.05
N36350 G2 X237.529 Y73.076 I-10.73 J20.907
N36360 G1 Z-1.3 F60
N36370 G2 X229.151 Y72.039 I-7.029 J22.424 F300
N36380 G3 X228.94 Y71.851 I-0.011 J-0.2 F1200
N36390 G1 X228.928 Y71.651
N36400 X228.925 Y71.599 Z-1.293
N36410 X228.923 Y71.551 Z-1.273
N36420 X228.92 Y71.51 Z-1.241
N36430 X228.918 Y71.478 Z-1.2
N36440 X228.917 Y71.458 Z-1.152
N36450 Y71.451 Z-1.1
N36460 G0 Z1
N36470 X229.316 Y71.428
N36480 Z0.5
N36490 G1 Z-0.8 F60
N36500 Z-1.125
N36510 X229.317 Y71.435 Z-1.177
N36520 X229.318 Y71.455 Z-1.225
N36530 X229.32 Y71.487 Z-1.266
N36540 X229.322 Y71.528 Z-1.298
N36550 X229.325 Y71.576 Z-1.318
N36560 X229.328 Y71.628 Z-1.325
N36570 X229.339 Y71.828
N36580 G3 X229.151 Y72.039 I-0.2 J0.011
N36590 G1 X228.914 Y72.054 F300
N36600 X215.938 Y71.822
N36610 X215.963 Y69.849
N36620 G2 X215.157 Y68.856 I-1 J-0.012
N36630 G1 X206.137 Y67.075
N36640 Z-1.05
N36650 X202.213 Y66.3
N36660 Z-1.325 F60
N36670 X193.194 Y64.519 F300
N36680 X193.097 Y64.505
N36690 X193 Y64.5
N36700 X186.875
N36710 Z-1.05
N36720 X182.875
N36730 Z-1.325 F60
N36740 X170.625 F300
N36750 Z-1.05
N36760 X166.625
N36770 Z-1.325 F60
N36780 X154.375 F300
N36790 Z-1.05
N36800 X150.375
N36810 Z-1.325 F60
N36820 X138.125 F300
N36830 Z-1.05
N36840 X134.125
N36850 Z-1.325 F60
N36860 X121.875 F300
N36870 Z-1.05
N36880 X117.875
N36890 Z-1.325 F60
N36900 X105.625 F300
N36910 Z-1.05
N36920 X101.625
N36930 Z-1.325 F60
N36940 X89.375 F300
N36950 Z-1.05
N36960 X85.375
N36970 Z-1.325 F60
N36980 X73.125 F300
N36990 Z-1.05
N37000 X69.125
N37010 Z-1.325 F60
N37020 X56.875 F300
N37030 Z-1.05
N37040 X52.875
N37050 Z-1.325 F60
N37060 X40.625 F300
N37070 Z-1.05
N37080 X36.625
N37090 Z-1.325 F60
N37100 X30.5 F300
N37110 G2 X22.843 Y65.461 I0 J31
N37120 G1 Z-1.05
N37130 G2 X19.038 Y66.697 I7.657 J30.039
N37140 G1 Z-1.325 F60
N37150 G2 X6.648 Y75.699 I11.462 J28.803 F300
N37160 G1 Z-1.05
N37170 G2 X4.297 Y78.935 I23.852 J19.801
N37180 G1 Z-1.325 F60
N37190 G2 X-0.435 Y93.5 I26.203 J16.565 F300
N37200 G1 Z-1.05
N37210 G2 Y97.5 I30.935 J2
N37220 G1 Z-1.325 F60
N37230 G2 X4.297 Y112.066 I30.935 J-2 F300
N37240 G1 Z-1.05
N37250 G2 X6.649 Y115.302 I26.203 J-16.566
N37260 G1 Z-1.325 F60
N37270 G2 X19.038 Y124.303 I23.851 J-19.802 F300
N37280 G1 Z-1.05
N37290 G2 X22.843 Y125.539 I11.462 J-28.803
N37300 G1 Z-1.325 F60
N37310 G2 X30.5 Y126.5 I7.657 J-30.039 F300
N37320 G1 X37.09
N37330 Z-1.05
N37340 X41.09
N37350 Z-1.325 F60
N37360 X54.27 F300
N37370 Z-1.05
N37380 X58.27
N37390 Z-1.325 F60
N37400 X71.45 F300
N37410 Z-1.05
N37420 X75.45
N37430 Z-1.325 F60
N37440 X88.63 F300
N37450 Z-1.05
N37460 X92.63
N37470 Z-1.325 F60
N37480 X105.81 F300
N37490 Z-1.05
N37500 X109.81
N37510 Z-1.325 F60
N37520 X116.4 F300
N37530 X116.411
N37540 X122.566 Y126.425
N37550 Z-1.05
N37560 X126.565 Y126.372
N37570 Z-1.325 F60
N37580 X134.32 Y126.256 F300
N37590 X142.074 Y126.124
N37600 X149.828 Y125.976
N37610 X157.581 Y125.812
N37620 X165.334 Y125.633
N37630 X173.087 Y125.438
N37640 X180.84 Y125.227
N37650 X188.592 Y125
N37660 X196.343 Y124.758
N37670 X204.094 Y124.5
N37680 Z-1.05
N37690 X208.092 Y124.36
N37700 Z-1.325 F60
N37710 X214.243 Y124.137 F300
N37720 X220.394 Y123.905
N37730 Z-1.05
N37740 X224.391 Y123.748
N37750 Z-1.325 F60
N37760 X230.541 Y123.499 F300
N37770 G2 X230.896 Y123.418 I-0.041 J-0.999
N37780 X241.095 Y116.476 I-12.883 J-29.892
N37790 X247.901 Y111.294 I-10.595 J-20.976
N37800 G1 Z-1.05
N37810 G2 X250.328 Y108.114 I-17.401 J-15.794
N37820 G1 Z-1.325 F60
N37830 G2 X253.621 Y91.298 I-19.828 J-12.614 F300
N37840 G1 Z-1.05
N37850 G2 X252.574 Y87.437 I-23.121 J4.202
N37860 G1 Z-1.325 F60
N37870 G2 X241.23 Y74.593 I-22.074 J8.063 F300
N37880 G1 Z-1.05
N37890 G2 X237.529 Y73.076 I-10.73 J20.907
N37900 G1 Z-1.325 F60
N37910 G2 X229.151 Y72.039 I-7.029 J22.424 F300
N37920 G3 X228.94 Y71.851 I-0.011 J-0.2 F1200
N37930 G1 X228.928 Y71.651
N37940 X228.925 Y71.599 Z-1.318
N37950 X228.923 Y71.551 Z-1.298
N37960 X228.92 Y71.51 Z-1.266
N37970 X228.918 Y71.478 Z-1.225
N37980 X228.917 Y71.458 Z-1.177
N37990 Y71.451 Z-1.125
N38000 G0 Z1
N38010 X229.316 Y71.428
N38020 Z0.5
N38030 G1 Z-0.825 F60
N38040 Z-1.15
N38050 X229.317 Y71.435 Z-1.202
N38060 X229.318 Y71.455 Z-1.25
N38070 X229.32 Y71.487 Z-1.291
N38080 X229.322 Y71.528 Z-1.323
N38090 X229.325 Y71.576 Z-1.343
N38100 X229.328 Y71.628 Z-1.35
N38110 X229.339 Y71.828
N38120 G3 X229.151 Y72.039 I-0.2 J0.011
N38130 G1 X228.914 Y72.054 F300
N38140 X215.938 Y71.822
N38150 X215.963 Y69.849
N38160 G2 X215.157 Y68.856 I-1 J-0.012
N38170 G1 X206.137 Y67.075
N38180 Z-1.05
N38190 X202.213 Y66.3
N38200 Z-1.35 F60
N38210 X193.194 Y64.519 F300
N38220 X193.097 Y64.505
N38230 X193 Y64.5
N38240 X186.875
N38250 Z-1.05
N38260 X182.875
N38270 Z-1.35 F60
N38280 X170.625 F300
N38290 Z-1.05
N38300 X166.625
N38310 Z-1.35 F60
N38320 X154.375 F300
N38330 Z-1.05
N38340 X150.375
N38350 Z-1.35 F60
N38360 X138.125 F300
N38370 Z-1.05
N38380 X134.125
N38390 Z-1.35 F60
N38400 X121.875 F300
N38410 Z-1.05
N38420 X117.875
N38430 Z-1.35 F60
N38440 X105.625 F300
N38450 Z-1.05
N38460 X101.625
N38470 Z-1.35 F60
N38480 X89.375 F300
N38490 Z-1.05
N38500 X85.375
N38510 Z-1.35 F60
N38520 X73.125 F300
N38530 Z-1.05
N38540 X69.125
N38550 Z-1.35 F60
N38560 X56.875 F300
N38570 Z-1.05
N38580 X52.875
N38590 Z-1.35 F60
N38600 X40.625 F300
N38610 Z-1.05
N38620 X36.625
N38630 Z-1.35 F60
N38640 X30.5 F300
N38650 G2 X22.843 Y65.461 I0 J31
N38660 G1 Z-1.05
N38670 G2 X19.038 Y66.697 I7.657 J30.039
N38680 G1 Z-1.35 F60
N38690 G2 X6.648 Y75.699 I11.462 J28.803 F300
N38700 G1 Z-1.05
N38710 G2 X4.297 Y78.935 I23.852 J19.801
N38720 G1 Z-1.35 F60
N38730 G2 X-0.435 Y93.5 I26.203 J16.565 F300
N38740 G1 Z-1.05
N38750 G2 Y97.5 I30.935 J2
N38760 G1 Z-1.35 F60
N38770 G2 X4.297 Y112.066 I30.935 J-2 F300
N38780 G1 Z-1.05
N38790 G2 X6.649 Y115.302 I26.203 J-16.566
N38800 G1 Z-1.35 F60
N38810 G2 X19.038 Y124.303 I23.851 J-19.802 F300
N38820 G1 Z-1.05
N38830 G2 X22.843 Y125.539 I11.462 J-28.803
N38840 G1 Z-1.35 F60
N38850 G2 X30.5 Y126.5 I7.657 J-30.039 F300
N38860 G1 X37.09
N38870 Z-1.05
N38880 X41.09
N38890 Z-1.35 F60
N38900 X54.27 F300
N38910 Z-1.05
N38920 X58.27
N38930 Z-1.35 F60
N38940 X71.45 F300
N38950 Z-1.05
N38960 X75.45
N38970 Z-1.35 F60
N38980 X88.63 F300
N38990 Z-1.05
N39000 X92.63
N39010 Z-1.35 F60
N39020 X105.81 F300
N39030 Z-1.05
N39040 X109.81
N39050 Z-1.35 F60
N39060 X116.4 F300
N39070 X116.411
N39080 X122.566 Y126.425
N39090 Z-1.05
N39100 X126.565 Y126.372
N39110 Z-1.35 F60
N39120 X134.32 Y126.256 F300
N39130 X142.074 Y126.124
N39140 X149.828 Y125.976
N39150 X157.581 Y125.812
N39160 X165.334 Y125.633
N39170 X173.087 Y125.438
N39180 X180.84 Y125.227
N39190 X188.592 Y125
N39200 X196.343 Y124.758
N39210 X204.094 Y124.5
N39220 Z-1.05
N39230 X208.092 Y124.36
N39240 Z-1.35 F60
N39250 X214.243 Y124.137 F300
N39260 X220.394 Y123.905
N39270 Z-1.05
N39280 X224.391 Y123.748
N39290 Z-1.35 F60
N39300 X230.541 Y123.499 F300
N39310 G2 X230.896 Y123.418 I-0.041 J-0.999
N39320 X241.095 Y116.476 I-12.883 J-29.892
N39330 X247.901 Y111.294 I-10.595 J-20.976
N39340 G1 Z-1.05
N39350 G2 X250.328 Y108.114 I-17.401 J-15.794
N39360 G1 Z-1.35 F60
N39370 G2 X253.621 Y91.298 I-19.828 J-12.614 F300
N39380 G1 Z-1.05
N39390 G2 X252.574 Y87.437 I-23.121 J4.202
N39400 G1 Z-1.35 F60
N39410 G2 X241.23 Y74.593 I-22.074 J8.063 F300
N39420 G1 Z-1.05
N39430 G2 X237.529 Y73.076 I-10.73 J20.907
N39440 G1 Z-1.35 F60
N39450 G2 X229.151 Y72.039 I-7.029 J22.424 F300
N39460 G3 X228.94 Y71.851 I-0.011 J-0.2 F1200
N39470 G1 X228.928 Y71.651
N39480 X228.925 Y71.599 Z-1.343
N39490 X228.923 Y71.551 Z-1.323
N39500 X228.92 Y71.51 Z-1.291
N39510 X228.918 Y71.478 Z-1.25
N39520 X228.917 Y71.458 Z-1.202
N39530 Y71.451 Z-1.15
N39540 G0 Z1
N39550 X229.316 Y71.428
N39560 Z0.5
N39570 G1 Z-0.85 F60
N39580 Z-1.175
N39590 X229.317 Y71.435 Z-1.227
N39600 X229.318 Y71.455 Z-1.275
N39610 X229.32 Y71.487 Z-1.316
N39620 X229.322 Y71.528 Z-1.348
N39630 X229.325 Y71.576 Z-1.368
N39640 X229.328 Y71.628 Z-1.375
N39650 X229.339 Y71.828
N39660 G3 X229.151 Y72.039 I-0.2 J0.011
N39670 G1 X228.914 Y72.054 F300
N39680 X215.938 Y71.822
N39690 X215.963 Y69.849
N39700 G2 X215.157 Y68.856 I-1 J-0.012
N39710 G1 X206.137 Y67.075
N39720 Z-1.05
N39730 X202.213 Y66.3
N39740 Z-1.375 F60
N39750 X193.194 Y64.519 F300
N39760 X193.097 Y64.505
N39770 X193 Y64.5
N39780 X186.875
N39790 Z-1.05
N39800 X182.875
N39810 Z-1.375 F60
N39820 X170.625 F300
N39830 Z-1.05
N39840 X166.625
N39850 Z-1.375 F60
N39860 X154.375 F300
N39870 Z-1.05
N39880 X150.375
N39890 Z-1.375 F60
N39900 X138.125 F300
N39910 Z-1.05
N39920 X134.125
N39930 Z-1.375 F60
N39940 X121.875 F300
N39950 Z-1.05
N39960 X117.875
N39970 Z-1.375 F60
N39980 X105.625 F300
N39990 Z-1.05
N40000 X101.625
N40010 Z-1.375 F60
N40020 X89.375 F300
N40030 Z-1.05
N40040 X85.375
N40050 Z-1.375 F60
N40060 X73.125 F300
